zdelrosario/hyperspace/scripts/as_data2.csv
,F,G1,G2,G3,G4,G5,N,Q1,Q2,Q3,Q4,Q5,bnd_idx
0,0.11263434144,-1.40516791258e-05,-2.77395606485e-06,-0.0500674058915,1.56115878188,0.429623949115,1000,1.20655945108,6.13600828181,1.31138969059,1.08576082811e-05,0.152791547255,2
1,0.0707022905003,-2.86945292527e-05,-1.01635931615e-05,-0.0196977028667,2.80457124185,0.415397237944,1000,1.33355874505,3.76269597705,1.65744523187,1.36077193088e-05,0.0784908431307,2
2,0.126806765871,-2.28510316225e-05,-6.68477939669e-06,-0.0571328538918,2.0032081215,0.402446728462,1000,1.22169103645,4.16918758624,1.37275696106,1.39280088093e-05,0.194822483362,2
3,0.0787255453713,-8.78343629773e-05,-5.47742634582e-05,-0.0248775428616,6.98796772362,0.418296726891,1000,1.09294146473,1.75205290297,1.54141936892,1.36449637864e-05,0.0914358242746,2
4,0.0785449854514,-1.83717743796e-05,-4.13819659095e-06,-0.0289770861302,2.18392044531,0.489520504531,1000,1.27412253151,5.66080726777,1.31939381497,1.06893461878e-05,0.0780451139207,2
5,0.094906707311,-1.39607297944e-05,-3.43333916852e-06,-0.0331587339512,1.42556121553,0.386633769168,1000,1.39772716046,5.68598857016,1.53151581419,1.36740952913e-05,0.131294265834,2
6,0.121312259502,-7.54879853071e-06,-1.25055396594e-06,-0.0502279088083,0.873522153189,0.380371881671,1000,1.36526142307,8.27128135889,1.46119913228,1.17861217141e-05,0.192931507207,2
7,0.11201128456,-1.0413703927e-05,-1.34150329734e-06,-0.0398969233471,0.933313457435,0.345626922334,1000,1.13745263116,8.78589834686,1.63211108488,1.26908072462e-05,0.188370405885,2
8,0.0703707376579,-0.000103454918798,-5.58201815326e-05,-0.0205000355526,7.37382994646,0.436740010444,1000,1.03885859191,1.92562743845,1.58060291828,1.44523993456e-05,0.0739340451347,2
9,0.0975256693144,-1.93040056162e-05,-3.04680419783e-06,-0.0387332715146,1.58516132351,0.429386525761,1000,1.11022901796,7.05242376691,1.36572124961,1.3506855683e-05,0.123145283331,2
10,0.105217786456,-1.46201127593e-05,-3.27417759571e-06,-0.0449992517339,1.67058857475,0.434854766237,1000,1.27227110727,5.69393373093,1.31735867777,1.11196830175e-05,0.13628076303,2
11,0.0769083264066,-2.66936429905e-05,-5.07042796638e-06,-0.0273333579999,2.71813624874,0.482267996395,1000,1.04817346405,5.50105042421,1.3552038273,1.02640420054e-05,0.0767415383804,2
12,0.0859740103501,-1.13686725312e-05,-1.50066487015e-06,-0.0260678428624,1.079940023,0.367304434025,1000,1.17694725261,8.89828592165,1.67970565159,1.23908370839e-05,0.119167901343,2
13,0.107893487175,-1.9304005755e-05,-6.18455772705e-06,-0.0456962877761,2.3584790659,0.422463436276,1000,1.25491561241,3.92147196794,1.34703123721,1.0255504982e-05,0.145648797923,2
14,0.100421096967,-1.04364411557e-05,-1.97814903347e-06,-0.0354164613411,1.13815903986,0.372154059562,1000,1.32490635796,7.032343783,1.56070708139,1.21228447178e-05,0.14848930043,2
15,0.0672016254993,-2.77395606485e-05,-4.34283276007e-06,-0.0200117055985,2.18091693301,0.471698700823,1000,1.08366459954,6.9393206698,1.5118493595,1.37426018493e-05,0.0640635283804,2
16,0.117056370981,-9.41326072645e-06,-1.72803812926e-06,-0.044083118637,0.990829503799,0.354319591153,1000,1.31380873999,7.18517833819,1.5780313986,1.2484332598e-05,0.196304169055,2
17,0.122097193449,-2.44881202816e-05,-7.16226356001e-06,-0.0532695743727,2.58269638861,0.399137148764,1000,1.08141104824,3.69118368688,1.39106235712,1.02408444272e-05,0.185595703618,2
18,0.0606152717194,-3.1536697212e-05,-5.02495323129e-06,-0.0166951910099,2.72771801596,0.497757448747,1000,1.03204141547,6.46494644607,1.55233868145,1.18897096595e-05,0.051986151663,2
19,0.10294778394,-1.81444009817e-05,-5.43422529198e-06,-0.0377275532791,1.78664575793,0.379049727808,1000,1.33688776474,4.46443971456,1.52066633803,1.35526907003e-05,0.151291827608,2
20,0.12204276987,-1.64618377263e-05,-5.16137743656e-06,-0.0505500969844,1.87790425136,0.37903806355,1000,1.27782586591,4.08211091076,1.46495622547,1.11989548277e-05,0.195325396429,2
21,0.0891243244611,-6.91215282234e-05,-3.31510489893e-05,-0.0341767076155,5.2173341496,0.448997576606,1000,1.11542280305,2.32580451425,1.35173617594,1.47202802523e-05,0.102715139677,2
22,0.115189790555,-7.32142499404e-06,-1.02318042927e-06,-0.0429690796909,0.791527467941,0.354871085451,1000,1.29342704527,9.22500574089,1.58039499769,1.19426563602e-05,0.191338893329,2
23,0.0835609302041,-3.14002730761e-05,-1.29148117201e-05,-0.0257432445278,2.93762031565,0.383729869176,1000,1.29459653251,3.14617949195,1.62950949131,1.38030672259e-05,0.109206361106,2
24,0.0857249520098,-1.59388786891e-05,-2.34194649784e-06,-0.0266128797546,1.45193039642,0.377126262124,1000,1.08007516692,7.41336825937,1.63812355879,1.18432327053e-05,0.115547017851,2
25,0.100485892063,-3.07181530212e-05,-1.11185616269e-05,-0.0354323547452,2.93261291568,0.371885326883,1000,1.14263906571,3.15763666153,1.5613512565,1.19521960039e-05,0.148667452685,2
26,0.0646560925664,-5.12272381459e-05,-1.39379925657e-05,-0.0207135392206,3.90674359049,0.532367893952,1000,1.14490934202,4.20851812518,1.37810064019,1.49365637527e-05,0.0534958238598,2
27,0.0725540288744,-2.74667125155e-05,-5.54791199092e-06,-0.0255204867607,2.31037064142,0.50907191532,1000,1.21923217834,6.04817104958,1.32990187506,1.44613550449e-05,0.0665934367308,2
28,0.101770847273,-4.99312090285e-05,-3.27190391447e-05,-0.0355854225503,4.32282024304,0.3650005953,1000,1.25030938041,1.90764656665,1.58434111566,1.44066475256e-05,0.154293494457,2
29,0.112414680775,-1.03909665594e-05,-1.25055396594e-06,-0.0427380455302,0.974793309254,0.367960156312,1000,1.10646907961,9.18967419884,1.53184734499,1.17984344748e-05,0.17789513566,2
30,0.0850186228212,-2.17141642167e-05,-2.97859209519e-06,-0.0326620139166,1.65190798153,0.470446737143,1000,1.09847168504,8.02399694942,1.31820386446,1.44252059427e-05,0.0914631831109,2
31,0.109811531065,-6.730253993e-06,-9.09493730328e-07,-0.0372464538004,0.803107756813,0.333918440313,1000,1.23236976048,9.19596036414,1.69703641858,1.03111201982e-05,0.18927221564,2
32,0.101404232287,-8.84482709296e-06,-1.13686712822e-06,-0.036930632081,0.942280452319,0.38127489532,1000,1.20686424248,9.50843877312,1.51877243373,1.13208081492e-05,0.14708202212,2
33,0.106936957291,-1.24145901892e-05,-2.20552229258e-06,-0.0403727932369,1.32244378706,0.379129990635,1000,1.18519415858,6.6790643686,1.50449451983,1.11119044292e-05,0.160174308323,2
34,0.0684548891936,-1.44154765902e-05,-2.1373104675e-06,-0.0218904923997,1.45575679596,0.495336353534,1000,1.31986454648,8.88959492869,1.42104952071,1.30463583253e-05,0.0627501625376,2
35,0.0992228948386,-1.38243058667e-05,-1.8644624733e-06,-0.032922515676,1.07787513103,0.353596407164,1000,1.12767113042,8.3394929537,1.64896256835,1.44535377607e-05,0.153486485343,2
36,0.0798761742191,-1.88037840854e-05,-5.50243725583e-06,-0.0287227461915,2.34679473094,0.468834386548,1000,1.36638421785,4.66475745218,1.36504411528,1.09204555183e-05,0.0835656815458,2
37,0.110216653676,-4.14501798163e-05,-1.36424069264e-05,-0.0379989234897,3.02314217699,0.338494512853,1000,1.00047546448,3.04103520002,1.67239176669,1.36925927635e-05,0.187621580138,2
38,0.104804095529,-1.7030271221e-05,-4.13819686851e-06,-0.0413433367999,1.77547087592,0.40233054063,1000,1.24139918443,5.08977587063,1.42539155773,1.19049093383e-05,0.146421801791,2
39,0.0990218745735,-2.77395607873e-05,-1.68711099258e-05,-0.0339884424005,3.64913493079,0.366400192559,1000,1.3226130037,2.17474953318,1.59222605074,1.00271905759e-05,0.147599198501,2
40,0.110794667733,-2.54658262533e-05,-1.0732026795e-05,-0.0412590722002,2.9784878053,0.364222909895,1000,1.18121942495,2.80580700262,1.55245159096,1.00889562924e-05,0.175782599879,2
41,0.0912262472699,-2.18051138257e-05,-6.09360853443e-06,-0.0325483499299,2.32606561664,0.408922096889,1000,1.21021840566,4.33844115823,1.47029981035,1.13254767469e-05,0.116961142662,2
42,0.0653761041273,-1.39379924269e-05,-2.50110793187e-06,-0.0192475943886,1.57273847958,0.482491413545,1000,1.39306129442,7.76848771084,1.50837047766,1.23119128281e-05,0.0601185053924,2
43,0.107818231496,-1.21644794238e-05,-2.02362362978e-06,-0.0415409698008,1.1323145418,0.384516785943,1000,1.24913591281,7.47657501171,1.48029437847,1.34238868906e-05,0.159885714682,2
44,0.105145676498,-1.34150333897e-05,-2.20552243135e-06,-0.0359994241245,1.41181412591,0.348306723056,1000,1.0599219151,6.48095958888,1.64506155355,1.00581031988e-05,0.169987195309,2
45,0.101392350351,-3.6447963675e-05,-2.58750981752e-05,-0.0379080877971,4.12025760372,0.391449106789,1000,1.38139613904,1.9466220873,1.47905945829,1.21888679178e-05,0.143104398552,2
46,0.0755856478496,-3.2923675175e-05,-8.29913082701e-06,-0.0253532081149,2.905739375,0.463802043709,1000,1.14766882383,4.55793563834,1.42342854354,1.29604112397e-05,0.0777191989972,2
47,0.124458625289,-8.25365623069e-06,-1.27329133348e-06,-0.0565852022043,0.850738901683,0.410873279397,1000,1.38697792888,8.91553324933,1.3478079828,1.34504376875e-05,0.185600573958,2
48,0.0807779580028,-1.62799390635e-05,-3.72892453027e-06,-0.0246561720726,1.85454826888,0.393391512681,1000,1.24165161483,5.42266987024,1.61726090643,1.08851241105e-05,0.101304436168,2
49,0.0890038910508,-4.48835185685e-05,-1.59843532854e-05,-0.0287400493107,3.35336875462,0.378561807125,1000,1.10221258759,3.09410646057,1.6044467685,1.47172519194e-05,0.121673038397,2
50,0.0635350062644,-3.58795301802e-05,-5.72981093128e-06,-0.0193843140429,2.88977480309,0.5184148722,1000,1.01233746619,6.32907553654,1.43470928103,1.252070572e-05,0.0535619010901,2
51,0.106148739375,-1.26419637259e-05,-1.61435143031e-06,-0.0410770142802,1.10479482852,0.390808527573,1000,1.12465454856,8.71800844253,1.46238271848,1.28794451309e-05,0.153673559309,2
52,0.0788572172828,-9.57242216049e-06,-1.50066473137e-06,-0.0239317830045,1.12694452665,0.40101932343,1000,1.34554029618,8.50162100097,1.60720926326,1.1433351478e-05,0.0958736646372,2
53,0.0862693822312,-1.25510142557e-05,-2.72848132976e-06,-0.0314531375049,1.65671374673,0.440209820211,1000,1.33036158447,6.13667904773,1.39925212848,1.00627311584e-05,0.099933688965,2
54,0.0978141996648,-1.27783875148e-05,-1.79625009311e-06,-0.0320440128845,1.073512403,0.35330468703,1000,1.15715472696,8.21171045901,1.65822470697,1.37761304824e-05,0.150354789471,2
55,0.0679178052333,-5.68433618231e-05,-4.83623321945e-05,-0.019060011294,7.25117354454,0.438850445315,1000,1.33010785238,1.56376782477,1.61224852002,1.03356916472e-05,0.0698380391449,2
56,0.0655153403009,-3.13093237447e-05,-1.23918529604e-05,-0.0191708785874,3.99230496933,0.478274841162,1000,1.29084101364,3.25986504581,1.51900499728,1.00671399757e-05,0.060789113139,2
57,0.116378719052,-2.35786264124e-05,-6.09360825687e-06,-0.0450507518197,2.25170992891,0.365656704122,1000,1.05495000482,4.07270827737,1.53066223074,1.10385424893e-05,0.188523366766,2
58,0.106002804575,-1.68028978231e-05,-2.56931989573e-06,-0.0373740330421,1.23628230148,0.35644323642,1000,1.10309751429,7.2489496733,1.60393727827,1.49882449779e-05,0.168127226835,2
59,0.0835311107812,-2.70801776836e-05,-7.75343442228e-06,-0.0262499917314,2.6636942914,0.391561110949,1000,1.1447924043,4.00552989067,1.59728762478,1.16111452725e-05,0.106995451347,2
60,0.0774423081131,-2.70347030873e-05,-7.57153589825e-06,-0.0277703242922,2.67877606316,0.483004413518,1000,1.27733889406,4.57190618572,1.34774054594,1.28551359365e-05,0.0774080401252,2
61,0.0809102264104,-1.35059828599e-05,-1.70530090049e-06,-0.0270535749716,1.21754134061,0.430212073276,1000,1.18746119305,9.44315333913,1.47759745632,1.31618693823e-05,0.092872902887,2
62,0.0768692189102,-1.36651441551e-05,-2.38742109415e-06,-0.0227350938098,1.46637254393,0.401567679975,1000,1.24345878684,7.16797212413,1.62819168259,1.15629730609e-05,0.0921301314318,2
63,0.120233125008,-2.16232147465e-05,-4.82031706217e-06,-0.047149977179,1.67690962482,0.362385800647,1000,1.11895318631,5.02890301498,1.53577760305,1.44245622891e-05,0.199760649541,2
64,0.102204286626,-5.02040573003e-05,-3.02861431767e-05,-0.0348393647924,4.56244366299,0.354621406668,1000,1.14956290276,1.90564739444,1.62866073437,1.26103619535e-05,0.159843865008,2
65,0.0710126619735,-1.65073124614e-05,-3.02406683028e-06,-0.0198285108111,1.63167053957,0.414214873277,1000,1.25426738787,6.85122105663,1.65757130074,1.26615034034e-05,0.0792869805048,2
66,0.107436556157,-1.16642578929e-05,-1.25055396594e-06,-0.0439434886026,1.09991018747,0.409294307224,1000,1.04918835964,9.77163678125,1.39195178962,1.11318486097e-05,0.149418301246,2
67,0.0680562322576,-1.83490372896e-05,-2.9331173601e-06,-0.0194784466503,1.74615311615,0.446472435303,1000,1.19111491004,7.42082807761,1.58306530989,1.24993871632e-05,0.0690037991818,2
68,0.120001106585,-2.71256520024e-05,-1.27329129185e-05,-0.0490397006436,2.51911167671,0.378121475706,1000,1.35465347364,2.88683318966,1.47224415424,1.45613395869e-05,0.190850085981,2
69,0.0878699566573,-1.10276122955e-05,-1.54613946646e-06,-0.0287543511004,1.09454481074,0.38826626505,1000,1.23142770663,8.77396504301,1.57341493679,1.23978139602e-05,0.116484718438,2
70,0.0821972418308,-3.0490779207e-05,-6.41193098616e-06,-0.0277733710961,2.58010428583,0.427832769303,1000,1.04797801042,4.97581404655,1.4736399232,1.23604580631e-05,0.0955817631047,2
71,0.0934575115396,-8.790257508e-05,-0.000109684951538,-0.0370675336342,8.86957097718,0.444864018269,1000,1.35576328077,1.08647501392,1.33803023481,1.33488847237e-05,0.111218545852,2
72,0.11519310101,-1.35741948237e-05,-4.77484246586e-06,-0.0413464518162,1.78340464038,0.341453209847,1000,1.33815887252,3.80581453308,1.64242940172,1.01686891786e-05,0.198833646544,2
73,0.110456503803,-9.11767522593e-06,-1.29602870103e-06,-0.0483933461425,0.864224648261,0.429469698968,1000,1.38642884466,9.74090378355,1.31761954716,1.46013811375e-05,0.148445938446,2
74,0.107221332073,-1.75077553843e-05,-5.29780122549e-06,-0.0366011906922,2.00061938385,0.342109386881,1000,1.19439385138,3.9463671031,1.66611330668,1.04372836086e-05,0.178193557896,2
75,0.0625759499512,-3.70163973085e-05,-7.23047566265e-06,-0.0179526343901,2.84641882474,0.49716107093,1000,1.10778649214,5.67386892439,1.51412382433,1.43519310114e-05,0.0545785723222,2
76,0.103619116376,-4.07907967126e-05,-2.91947507836e-05,-0.0351928850298,3.79627604247,0.34949142967,1000,1.35817423431,1.89836041427,1.64592108235,1.4560763981e-05,0.165582639383,2
77,0.110087615099,-2.4579069613e-05,-5.93444696162e-06,-0.0409243102724,2.3299807373,0.365295907934,1000,1.01407249139,4.20514259416,1.55022711966,1.0680996281e-05,0.173608317224,2
78,0.0994465003494,-1.66437362503e-05,-2.29647176275e-06,-0.0356959487835,1.50518771536,0.381810837275,1000,1.00041762302,7.25854701337,1.52597418899,1.10657193223e-05,0.142621128261,2
79,0.0895860405945,-1.17779444531e-05,-2.13731032872e-06,-0.0298959931834,1.17854715806,0.388873465844,1000,1.34352995852,7.40804690049,1.55786100525,1.34106003664e-05,0.119721121288,2
80,0.10874261515,-5.62521912384e-05,-3.39241185143e-05,-0.0475050662929,5.31698147271,0.433206286001,1000,1.15881685646,1.9208559564,1.31081952516,1.22242665702e-05,0.143596199545,2
81,0.0991113324943,-1.42335777886e-05,-2.70574410099e-06,-0.0343736130214,1.57361605014,0.369941170215,1000,1.12966793045,5.96714765701,1.57668097853,1.0199986975e-05,0.146455613334,2
82,0.0998074699818,-1.05046533971e-05,-1.77351300312e-06,-0.0412844016021,1.18428663233,0.43867784613,1000,1.33700965209,7.91843568094,1.32660774476,1.18464266282e-05,0.124816089052,2
83,0.0646069031062,-6.45513220654e-05,-2.82170449506e-05,-0.0171891598258,5.06871765709,0.442567159909,1000,1.16078867037,2.65636888363,1.658571147,1.46854413401e-05,0.0642354578253,2
84,0.0868486509806,-0.000146269339141,-0.000159138676264,-0.0295085943024,11.2907734189,0.407625022318,1000,1.09242287034,1.00397795365,1.50527221755,1.402101592e-05,0.108571857977,2
85,0.062161051973,-4.51791041384e-05,-1.03909666288e-05,-0.0182090206897,3.40371369254,0.512046642142,1000,1.1177092478,4.85564146728,1.47786325621,1.47647075542e-05,0.0524415665656,2
86,0.112566073136,-0.000109594001929,-0.000115664872957,-0.0433395392495,8.65973161446,0.372278250939,1000,1.10282454812,1.04502387227,1.51290328921,1.3894002229e-05,0.175807710192,2
87,0.107691665676,-1.84172493922e-05,-5.91170973285e-06,-0.0406089432999,1.77848000434,0.376664375701,1000,1.36622305716,4.26421663845,1.51153583685,1.41210828826e-05,0.162897720929,2
88,0.097262940698,-1.13231977961e-05,-1.75077563558e-06,-0.0318677529877,1.24644719064,0.355039978448,1000,1.13414376067,7.27094789332,1.65333673719,1.03011563632e-05,0.148363178124,2
89,0.11358159875,-2.13958413486e-05,-6.34371902231e-06,-0.0400504913739,2.07818592572,0.338776774252,1000,1.13747426577,3.83834543192,1.66007371411,1.17021552156e-05,0.196188518406,2
90,0.0621231451199,-1.79397650207e-05,-3.68344993396e-06,-0.015855023382,2.04078795025,0.44649421768,1000,1.27355292541,6.2113890801,1.69612216909,1.11574689875e-05,0.0601635689225,2
91,0.105702627786,-1.44836885541e-05,-1.63708893663e-06,-0.0375117758772,1.08494271634,0.359556206298,1000,1.01769270033,9.04510576711,1.5912922609,1.35841915295e-05,0.165977276269,2
92,0.0933951102951,-5.03404815055e-05,-3.91082331797e-05,-0.0337296459424,5.4642346795,0.405314726187,1000,1.30287938526,1.67671386458,1.46939941618,1.19516798888e-05,0.122116583689,2
93,0.0816511266585,-7.33506741457e-05,-6.50970180538e-05,-0.0241719348403,6.92679610338,0.377382421051,1000,1.23265228567,1.38893742388,1.6757660347,1.29700034097e-05,0.107088645946,2
94,0.0916815684113,-2.67845923219e-05,-1.02545426317e-05,-0.0344976907121,2.50780146202,0.429324725657,1000,1.39808312244,3.64758323674,1.39752938704,1.49028099567e-05,0.112205618108,2
95,0.0841800821958,-7.80118300514e-05,-8.79253123087e-05,-0.0277173235411,9.12106158583,0.407137169848,1000,1.24675202654,1.1063004551,1.52978720871,1.05801035608e-05,0.10390070153,2
96,0.111964971278,-5.08179658076e-05,-2.3328515647e-05,-0.0451766939728,3.86871965592,0.391645216388,1000,1.11911859475,2.43774462993,1.44017298607,1.46699539413e-05,0.165984653173,2
97,0.0712870156668,-6.06177612272e-05,-4.97265729982e-05,-0.0228072621422,7.00606901477,0.47248432156,1000,1.36287764877,1.66154286892,1.44880308367,1.16980107163e-05,0.0697492283393,2
98,0.125793282975,-5.22276807913e-05,-5.24550544667e-05,-0.0561300232993,5.62643491654,0.400554754001,1000,1.34788286585,1.34228765637,1.38033147546,1.24833260447e-05,0.193260779629,2
99,0.068434340989,-2.76031367208e-05,-3.54702586747e-06,-0.0219607962697,2.16350290084,0.497254794265,1000,1.00685487721,7.86573690489,1.41577227917,1.28120726909e-05,0.0624582031285,2
100,0.118465423099,-2.07591958901e-05,-6.27550719723e-06,-0.0464917765219,1.85242767041,0.366254878189,1000,1.25350885445,4.1372246835,1.52328357124,1.40297915443e-05,0.19329896532,2
101,0.111061457289,-4.67252436742e-05,-3.59932168792e-05,-0.0438125669712,5.13882432624,0.385160707548,1000,1.2492744468,1.62219567255,1.46706353419,1.13294174749e-05,0.166732976207,2
102,0.0844416839585,-1.25737514844e-05,-2.59205726327e-06,-0.0287350698321,1.54189540778,0.419497940817,1000,1.3213181266,6.39485502058,1.48319694399,1.07721871641e-05,0.101551347742,2
103,0.0866258999938,-2.16914271267e-05,-4.274620935e-06,-0.0336979955579,1.9564026151,0.467834807396,1000,1.20039201021,6.10666621957,1.31406664456,1.32856028606e-05,0.0945908983578,2
104,0.0993345210249,-1.50293849588e-05,-2.86490553503e-06,-0.0364748847419,1.39776854042,0.390945701974,1000,1.23824427058,6.47029326122,1.4908480727,1.33174011607e-05,0.139046723506,2
105,0.0935139550836,-2.00770755576e-05,-6.68477953547e-06,-0.0351442043743,2.33193132864,0.4213025584,1000,1.33100217534,4.00431077816,1.41323947561,1.1438493449e-05,0.117823450106,2
106,0.0882409258284,-2.21234365549e-05,-1.05046533971e-05,-0.0269681735046,2.80485241185,0.361185246104,1000,1.36217198415,2.86931330661,1.68811079485,1.07207749559e-05,0.125955966924,2
107,0.115493289026,-4.88170791291e-05,-3.05362539421e-05,-0.0502667441932,4.57459784245,0.413295738851,1000,1.22414387083,1.95778419777,1.35598860673,1.30345769092e-05,0.164782132995,2
108,0.082836267708,-9.27001546358e-05,-7.0599455726e-05,-0.0298769847629,8.83372489371,0.453150097888,1000,1.1030657205,1.44868904295,1.38529673833,1.14847450067e-05,0.0911027151694,2
109,0.111691771956,-1.63936253461e-05,-1.95541152714e-06,-0.0497654084776,1.27864188391,0.433244848538,1000,1.04533959634,8.75805789737,1.30281874831,1.33800610624e-05,0.149615290379,2
110,0.0624203097542,-8.52650430816e-05,-4.94537249346e-05,-0.0185278892135,8.8568158497,0.5160359775,1000,1.09880764609,1.8942280903,1.4610227491,1.04444810471e-05,0.0522609919048,2
111,0.11410069684,-5.4069405897e-05,-6.46195340293e-05,-0.051229079575,7.1315077401,0.429978970017,1000,1.38564388415,1.15967576829,1.30643055842,1.0468207136e-05,0.155483298574,2
112,0.103404667451,-9.98169435995e-06,-1.52340196014e-06,-0.043602996864,1.03189371695,0.434618638911,1000,1.34418344405,8.79970476268,1.32458544867,1.29876315226e-05,0.132858913126,2
113,0.0803752783394,-1.26419637259e-05,-2.13731060628e-06,-0.0271342698083,1.34570836542,0.437334933071,1000,1.32326435228,7.81877034649,1.45860855675,1.24139924767e-05,0.0904528965899,2
114,0.105096066074,-1.47792741934e-05,-2.70574410099e-06,-0.0396563849765,1.26027706693,0.384011152869,1000,1.24657863043,6.80818127328,1.49226449789,1.46224579699e-05,0.154058206692,2
115,0.117060548531,-1.63708882561e-05,-5.70707356373e-06,-0.0439422380488,1.89636879433,0.353165921014,1000,1.30832156845,3.75585616777,1.58311502605,1.12718748048e-05,0.196922848824,2
116,0.067264848974,-2.17596389518e-05,-3.25144036695e-06,-0.0232322685915,2.23251899599,0.546451860072,1000,1.12593859744,7.55465286524,1.30415178524,1.09446488282e-05,0.0553882182222,2
117,0.07727076451,-4.89989780694e-05,-1.68483725582e-05,-0.0282062901413,4.37491913974,0.492842589768,1000,1.11969339025,3.25659115143,1.32232558358,1.24886688295e-05,0.0755590136959,2
118,0.110973557422,-7.36689959036e-06,-1.15960449576e-06,-0.0393626412189,0.80714445406,0.346513906155,1000,1.35950461453,8.56203092025,1.6313407898,1.24084066178e-05,0.185289187806,2
119,0.0808425309866,-4.60658605705e-05,-1.3710619029e-05,-0.0278437659158,3.49346924748,0.443527494404,1000,1.09400935399,3.67650559484,1.43355510451,1.43818044438e-05,0.0898746116678,2
120,0.086353572389,-2.00998127864e-05,-3.95629792815e-06,-0.029643813292,1.76218449038,0.414096116125,1000,1.18979958311,6.06476930406,1.48677409311,1.3550665042e-05,0.106370213087,2
121,0.0648864440678,-1.45064260604e-05,-2.3192091303e-06,-0.0172219243397,1.60136002185,0.439102943529,1000,1.24782094292,7.78026468275,1.66690531036,1.12860744774e-05,0.0653224795272,2
122,0.0837358453281,-1.58479293577e-05,-4.06998476588e-06,-0.0248918446516,1.50660009101,0.369498815172,1000,1.39914711276,5.46686018648,1.69073040982,1.47030926587e-05,0.113832178156,2
123,0.0790476540279,-2.7330288449e-05,-6.32098179354e-06,-0.025856158182,2.39682659836,0.431127660676,1000,1.15512264972,4.99368398927,1.49280057068,1.31377438163e-05,0.0894468725781,2
124,0.122422172013,-5.20912571411e-05,-5.28870640337e-05,-0.0550580939154,5.52524004427,0.410737446499,1000,1.39443688175,1.37325987351,1.35099475025,1.31144220842e-05,0.180928246489,2
125,0.0711195388741,-1.77123915535e-05,-4.52473156165e-06,-0.0198406070784,1.8288119365,0.41312395821,1000,1.39704517734,5.46815994884,1.66025650268,1.35012667208e-05,0.0796640633462,2
126,0.103982243885,-4.50426800025e-05,-3.39695931106e-05,-0.0396601366383,4.39653494227,0.391401290153,1000,1.36995192017,1.81614393308,1.46815787088,1.39943723155e-05,0.148610105369,2
127,0.0818693565039,-3.13547986186e-05,-1.60980401231e-05,-0.0265411661693,3.60494287754,0.412149572036,1000,1.3587802989,2.64872996269,1.53273986776,1.17807796569e-05,0.0985933243005,2
128,0.0845559420129,-1.10730868919e-05,-1.31876592979e-06,-0.0262173636417,1.04574025972,0.381720956551,1000,1.15834766649,9.78447181497,1.62897811441,1.22651003923e-05,0.111841757795,2
129,0.111347565653,-1.91903189173e-05,-4.52473156165e-06,-0.0447621467022,1.65441159056,0.391765201357,1000,1.22846092498,5.21529863251,1.44171803893,1.42445104996e-05,0.164671181835,2
130,0.0960283052533,-2.25781833507e-05,-4.82031706217e-06,-0.0350410450409,1.92238302253,0.399736709809,1000,1.13773701452,5.32245299461,1.47496422548,1.33485081494e-05,0.129229843788,2
131,0.103333469001,-7.82164652491e-06,-1.2732911947e-06,-0.0395307611464,0.928474882249,0.394514009919,1000,1.39333823967,8.56769184338,1.45955486889,1.17348132659e-05,0.146222546868,2
132,0.107911670837,-2.04863476183e-05,-5.11590256269e-06,-0.0380105877471,1.69979664957,0.351304141747,1000,1.19164927931,4.76617335841,1.61982585991,1.43501489606e-05,0.175196118976,2
133,0.0759298718641,-2.4192534781e-05,-7.16226356001e-06,-0.0222323938534,2.52844128676,0.402871507538,1000,1.24233499573,4.19533204921,1.63443804782,1.18589314836e-05,0.0901121878628,2
134,0.0965989488207,-1.04364412945e-05,-1.52340223769e-06,-0.0308822937262,1.13038550546,0.348445693707,1000,1.1367643677,7.87793489175,1.68866487957,1.04753963066e-05,0.149628696694,2
135,0.0895145927789,-1.571150543e-05,-3.75166189781e-06,-0.0297953122204,1.62646625693,0.38815905847,1000,1.31054900184,5.49312514844,1.5612139631,1.26503594681e-05,0.119782427279,2
136,0.087435720506,-2.60797344831e-05,-3.93356069939e-06,-0.0304902109524,1.88800076932,0.415688412382,1000,1.007706389,6.66702865954,1.47273829277,1.39040548828e-05,0.107955311628,2
137,0.0972617657185,-3.3878643918e-05,-1.10048747892e-05,-0.0319964463592,2.96846989034,0.356481708007,1000,1.06191088167,3.27008703593,1.6464607763,1.20968595509e-05,0.147677974876,2
138,0.0683386880444,-3.87216980702e-05,-9.91348225732e-06,-0.0203416017339,3.32485619245,0.462018412695,1000,1.107470421,4.32024208382,1.5251005513,1.28468089923e-05,0.0670416922296,2
139,0.0889442737327,-7.36689972913e-05,-3.64934382713e-05,-0.0317999957002,5.86807641228,0.419407559872,1000,1.03350444111,2.08569363072,1.44837633839,1.29155995278e-05,0.109631817105,2
140,0.0688515056417,-1.2732913196e-05,-2.06909850364e-06,-0.0192824507385,1.39551897574,0.430831302124,1000,1.31707662859,8.05990114056,1.62733366374,1.20026666884e-05,0.0727826455686,2
141,0.0808303780645,-2.08046704864e-05,-3.86534859675e-06,-0.0296320580849,1.91938458066,0.472154425425,1000,1.20285097197,6.48904520597,1.34694300416,1.30167566657e-05,0.0844726289872,2
142,0.0786906698905,-4.89989780694e-05,-2.2282597989e-05,-0.0272774241311,5.21836171842,0.459061762063,1000,1.13240510106,2.4899754206,1.40522472344,1.05786160321e-05,0.0833692748148,2
143,0.0848262612826,-2.83762062459e-05,-1.07092892887e-05,-0.029539949101,3.22468968481,0.427388254212,1000,1.24315086955,3.29881918192,1.45249141035,1.09077474552e-05,0.100303867102,2
144,0.0871148443158,-1.32786091844e-05,-2.75121869731e-06,-0.0301380776935,1.36679077259,0.413841094066,1000,1.38195139359,6.70072556669,1.48181962334,1.33936118211e-05,0.107864509683,2
145,0.109960034512,-1.11640362233e-05,-1.8417248282e-06,-0.0458822565193,1.07744619102,0.410377036847,1000,1.30896447136,7.92455203323,1.38036444106,1.35503774903e-05,0.154299821148,2
146,0.0803244717811,-1.25055397981e-05,-1.63708893663e-06,-0.0267724504406,1.15398202632,0.432058300199,1000,1.25071921047,9.53499788526,1.47692996698,1.35354502142e-05,0.0914740174414,2
147,0.10301272398,-2.7875984715e-05,-7.02583949352e-06,-0.0410880646297,2.50291566136,0.412346545654,1000,1.08055437478,4.2859251724,1.3975679883,1.20132355423e-05,0.139187897827,2
148,0.0895225646603,-1.80534519278e-05,-3.31965246958e-06,-0.0314545926952,1.67021083924,0.409704466187,1000,1.16655497805,6.34264170135,1.47904604877,1.2601504835e-05,0.113496480648,2
149,0.084880818616,-2.65344812789e-05,-9.27683665997e-06,-0.0255637559278,2.44933542665,0.369393495791,1000,1.27640535027,3.65717673564,1.68005988221,1.37990641492e-05,0.116170326974,2
150,0.0659232726571,-1.64845752326e-05,-2.20552257013e-06,-0.0179779865296,1.47048329671,0.442315957724,1000,1.19148136033,8.86967389324,1.63521263514,1.33385047367e-05,0.0664059039924,2
151,0.113235799508,-6.98036489721e-06,-1.09139267068e-06,-0.04578403119,0.83596192403,0.389300223068,1000,1.3982235759,8.93979639937,1.44563675935,1.16537026656e-05,0.169995301604,2
152,0.0961243099379,-1.06638145536e-05,-1.11412989945e-06,-0.0325609009438,1.07783959256,0.370755917492,1000,1.02321375715,9.79099856575,1.58982132231,1.01166533413e-05,0.139591830643,2
153,0.068205755313,-1.79852398252e-05,-1.97814903347e-06,-0.0187476911255,1.43461386199,0.427651393504,1000,1.06683884925,9.6525114556,1.65023109387,1.33476903424e-05,0.072286923327,2
154,0.0957033462387,-7.63065292897e-05,-6.05950241372e-05,-0.0312289018109,6.92173226932,0.358501420872,1000,1.09325233057,1.37712121832,1.64613395786,1.1995078617e-05,0.143159467039,2
155,0.118804060693,-4.3769388669e-05,-2.40106361182e-05,-0.0539216814217,4.06900160313,0.422767298153,1000,1.22095660478,2.22648186512,1.31886049204,1.31105729003e-05,0.168094104479,2
156,0.0867347105487,-3.38331690442e-05,-9.435998094e-06,-0.0275359932166,2.79175788403,0.381353543796,1000,1.07963713633,3.8732994843,1.61108255027,1.3058165796e-05,0.116228661724,2
157,0.0973716457812,-8.8675644605e-06,-1.47792736382e-06,-0.0365670846747,1.05764389637,0.406556185213,1000,1.36124675184,8.17181526796,1.44327275973,1.14066577128e-05,0.129782153441,2
158,0.1227741684,-1.31876599918e-05,-2.61479463082e-06,-0.0548799468186,1.51397258411,0.407480571966,1000,1.17398590944,5.90817398124,1.3615487206,1.02231655047e-05,0.183345478872,2
159,0.118755276276,-1.65755241477e-05,-6.07087102811e-06,-0.0525018251878,2.06193775091,0.411916923524,1000,1.38285959764,3.78423323152,1.353870459,1.10947413423e-05,0.172512042627,2
160,0.0633000519309,-7.26230793557e-05,-6.25504356644e-05,-0.0185265477101,9.05421304176,0.499691600983,1000,1.29843883511,1.50778200839,1.49213552037,1.02854389836e-05,0.0551195758532,2
161,0.12189642138,-3.71300838686e-05,-2.47609684145e-05,-0.0560835254285,4.10232916187,0.421363539959,1000,1.33028556344,1.99451000014,1.31788054119,1.20143186018e-05,0.175301007537,2
162,0.0750735917692,-4.28144202036e-05,-2.33285157858e-05,-0.0236836276231,4.32562662256,0.439481975067,1000,1.34840381042,2.47392332547,1.5081168229,1.32901860666e-05,0.0811312087074,2
163,0.0685380700088,-2.17369015842e-05,-2.86490539625e-06,-0.0224686803406,2.03940415545,0.507061251919,1000,1.06375095005,8.04904171747,1.38696323575,1.13080467177e-05,0.0614007952419,2
164,0.115265071761,-1.45064260604e-05,-3.75166175903e-06,-0.0457284156444,1.60079913703,0.377242381744,1000,1.2743746106,4.91776313839,1.48642313621,1.15403440853e-05,0.180137267205,2
165,0.0903789433125,-1.79397652289e-05,-2.29647176275e-06,-0.0286942562983,1.2824027999,0.36698506528,1000,1.04952516214,8.18794224027,1.64468036024,1.46611850018e-05,0.128541040993,2
166,0.0851095721618,-1.28011254374e-05,-1.54613946646e-06,-0.0278964938183,1.28489972416,0.400963571461,1000,1.07948492561,8.94482978711,1.54597479213,1.07374821534e-05,0.10751876551,2
167,0.0628544258659,-3.01951938453e-05,-7.75343456105e-06,-0.0165856197454,3.03699476789,0.454652104148,1000,1.17483708551,4.57417127253,1.64995516058,1.16297095187e-05,0.0600977429743,2
168,0.107499127736,-5.92989951587e-05,-6.85076198548e-05,-0.0462972130622,7.09896002682,0.430777005345,1000,1.38722810138,1.20064426931,1.3219049105,1.15393582666e-05,0.141881824557,2
169,0.0905506359522,-1.09594001929e-05,-1.70530076171e-06,-0.0342572660281,1.04010671875,0.436542650292,1000,1.39997863431,8.99598861852,1.38154119374,1.47508355291e-05,0.108376210871,2
170,0.112878502541,-1.60070907917e-05,-3.13775352923e-06,-0.0427137620461,1.31031552818,0.365163462901,1000,1.21205619771,6.17971823466,1.54216072291,1.47904097229e-05,0.180340676328,2
171,0.060327597646,-1.59843533548e-05,-2.45563326617e-06,-0.0166266379154,1.74781403371,0.501261046208,1000,1.27048939692,8.28534002435,1.54781259879,1.15825436963e-05,0.0512845555238,2
172,0.120390908971,-9.435998094e-06,-1.25055382716e-06,-0.0543591706732,1.05516945935,0.416888398491,1000,1.17509962856,8.75172750414,1.33478404016,1.0522473971e-05,0.174026972831,2
173,0.105123719292,-0.000113413875791,-0.000121371946382,-0.0411619382629,10.1355323576,0.39840407403,1000,1.07945899963,1.00871625525,1.43753615198,1.20068763196e-05,0.148216481587,2
174,0.106859066926,-9.68610899821e-06,-1.18234214086e-06,-0.0454014071516,1.02577257362,0.426900265318,1000,1.18006738536,9.74314237718,1.33640725713,1.11369715067e-05,0.142104313387,2
175,0.111943285633,-5.35009724023e-05,-4.49517308099e-05,-0.041777529136,5.11525529483,0.362297352376,1000,1.26615957429,1.50659105919,1.55682928592,1.32085265945e-05,0.179339807515,2
176,0.0818530095922,-9.93621990242e-06,-1.31876606857e-06,-0.0296197344439,1.17536884106,0.460136670039,1000,1.28337358271,9.62520391202,1.37326218965,1.08421278061e-05,0.0883643152095,2
177,0.0801748081702,-8.55606285821e-05,-6.45740592942e-05,-0.0279620683211,7.33025030085,0.452967789857,1000,1.21592698655,1.61079568361,1.40936360613,1.40941633067e-05,0.0867638619359,2
178,0.123294996587,-3.94038184026e-05,-2.68528041469e-05,-0.0549573220031,4.52873097911,0.405230393375,1000,1.25150773634,1.83611223023,1.3681051882,1.08707035091e-05,0.185429419465,2
179,0.0966787122084,-1.94176923152e-05,-3.25144022817e-06,-0.0349028701964,1.87601821135,0.393208113258,1000,1.00768330766,6.0371859965,1.49592313444,1.04178656657e-05,0.132733444371,2
180,0.0848774196308,-0.000123941266417,-0.000113641249327,-0.0294200323442,10.8210974323,0.425147238771,1000,1.05218584046,1.14751797506,1.45891204178,1.19420199206e-05,0.10064358041,2
181,0.0841218971031,-2.00543383289e-05,-2.95585486643e-06,-0.0251524600978,1.49010426104,0.369971206248,1000,1.06721992112,7.2392731429,1.68480434965,1.4342995051e-05,0.114477224733,2
182,0.089631264166,-3.44016028164e-05,-1.98724395273e-05,-0.0277040221945,3.6332286347,0.360012794919,1000,1.31231124919,2.27260043767,1.68212553674,1.23856212226e-05,0.129314949645,2
183,0.0956199807848,-8.91303905681e-06,-1.72803826803e-06,-0.0343286840279,1.1536550633,0.394725399014,1000,1.38717505187,7.20220911132,1.49608348081,1.07107690431e-05,0.130078986635,2
184,0.0777798561954,-1.41653658248e-05,-1.59161406277e-06,-0.023560709537,1.42563697636,0.406129177878,1000,1.02032274747,9.0344666809,1.59916407021,1.01228961089e-05,0.092727799868,2
185,0.0934942620192,-1.13459348861e-05,-1.34150329734e-06,-0.0379336673098,1.17404941567,0.454921950957,1000,1.17004243353,9.77904313917,1.30898947662,1.13007139039e-05,0.109118271662,2
186,0.0671819603427,-1.17552072243e-05,-1.56887669522e-06,-0.0196428149161,1.22471867908,0.463305619259,1000,1.32789677337,9.91846129964,1.53973410203,1.27273015687e-05,0.0652338772534,2
187,0.0763382279535,-3.53565712818e-05,-1.36651441551e-05,-0.0254027755268,3.62246159244,0.455195049205,1000,1.25768180812,3.25594829524,1.44186199065,1.2230452706e-05,0.0803582299092,2
188,0.0737615874839,-2.15322654151e-05,-2.86490539625e-06,-0.0259069761475,1.6810899084,0.498948408131,1000,1.14577009126,8.60436931671,1.34298937842,1.46580786462e-05,0.0696726332195,2
189,0.0797827090527,-1.21190048274e-05,-2.77395592607e-06,-0.026429935078,1.66522376645,0.432442743225,1000,1.38013066424,6.01069752663,1.48094920431,1.00316621582e-05,0.0904657908188,2
190,0.0835967022935,-2.85581049086e-05,-8.91303905681e-06,-0.0274439297072,2.66076174235,0.408730421073,1000,1.22257020375,3.91798558139,1.52955845129,1.30891290375e-05,0.102609366765,2
191,0.0897862028227,-2.52384525778e-05,-9.36778599137e-06,-0.0289833161628,2.79877151362,0.375388947082,1000,1.22390200873,3.29774662807,1.61217280662,1.10199640942e-05,0.124387549334,2
192,0.0906091944126,-3.43788653101e-05,-1.05956027285e-05,-0.0321731155284,2.94073756015,0.409478547929,1000,1.13412268405,3.67749766901,1.47227730125,1.32338807405e-05,0.115579258957,2
193,0.0898847168484,-1.61889894545e-05,-3.137753668e-06,-0.0297574090667,1.5982787251,0.38460355165,1000,1.18558497183,6.11016297762,1.57292151003,1.19943651449e-05,0.121645570024,2
194,0.0866543034554,-4.28144200648e-05,-1.50975969226e-05,-0.0274018201446,3.24891068684,0.380184366788,1000,1.12440063884,3.18623811019,1.61661067844,1.47838541758e-05,0.116385487103,2
195,0.0964470466408,-1.92585310199e-05,-6.50288059512e-06,-0.0339921940623,2.40518912093,0.38465416498,1000,1.25284582296,3.70812428539,1.53044805483,1.00164693216e-05,0.13518261936,2
196,0.0747581930167,-3.70846094111e-05,-2.28737688512e-05,-0.0216309228715,4.29595675227,0.404964184542,1000,1.38292860958,2.24274475171,1.64091240223,1.18894611578e-05,0.0875119726651,2
197,0.117097954992,-8.25820363481e-05,-7.20091709872e-05,-0.0503102862087,6.93587337439,0.404131110966,1000,1.1562642154,1.32606828657,1.38294403445,1.3720316899e-05,0.171932834278,2
198,0.0852939812482,-1.12549856934e-05,-2.38742123293e-06,-0.02680473747,1.40217078596,0.383631484685,1000,1.33754988548,6.32181599942,1.61416764684,1.07202355357e-05,0.112738503261,2
199,0.0772361682892,-4.26779961371e-05,-1.09821374217e-05,-0.0248186758757,3.21679471025,0.434059823188,1000,1.06056955872,4.12387798276,1.50191143182,1.40329031669e-05,0.0857631843765,2
200,0.123035465665,-6.93489016212e-06,-9.54968604194e-07,-0.0512731218119,0.792095424077,0.379372257044,1000,1.30711286573,9.43595877954,1.46202786596,1.14384419779e-05,0.197581492949,2
201,0.111866090649,-1.94176923152e-05,-3.29691510204e-06,-0.0433041144665,1.68951038846,0.375982369044,1000,1.0101361294,5.94661483752,1.50071250965,1.16125706483e-05,0.172798132859,2
202,0.106624734877,-2.70574403161e-05,-9.91348225732e-06,-0.0366964146922,2.53332383598,0.346385008147,1000,1.17667607355,3.21090052542,1.64785263032,1.25543028835e-05,0.17448575401,2
203,0.109207556064,-1.83035625545e-05,-4.25188370623e-06,-0.0381818909033,1.75681918186,0.345604571524,1000,1.11662707986,4.81257440451,1.64172570495,1.1618911869e-05,0.181319717557,2
204,0.0787120690721,-2.39651615219e-05,-4.706630502e-06,-0.02302333513,2.06348593672,0.387257750122,1000,1.08781579425,5.5459503779,1.66588003159,1.26112710987e-05,0.0989646298007,2
205,0.118745983542,-7.45784906053e-06,-1.11412976067e-06,-0.0529768992703,0.878794829763,0.415698985247,1000,1.36723128954,9.0686196062,1.34164209836,1.16045367189e-05,0.17096208267,2
206,0.115613290232,-2.58068864889e-05,-5.52517476216e-06,-0.0484542140151,1.94519262662,0.397692554299,1000,1.07790114466,5.03567130947,1.40910392346,1.42951650411e-05,0.171618753228,2
207,0.0872230146485,-2.54658261145e-05,-9.68610872065e-06,-0.0263402362528,2.29761649165,0.360819356751,1000,1.35078982432,3.55057118037,1.69848980154,1.49408618638e-05,0.123891413029,2
208,0.112125314008,-1.05501281322e-05,-1.31876620735e-06,-0.0393957467931,0.830619034535,0.340688666627,1000,1.17999444111,9.37602315578,1.65539535036,1.49799337335e-05,0.191390637251,2
209,0.12805608434,-1.3164922763e-05,-1.63708907541e-06,-0.0601764066552,1.09112552336,0.417238212541,1000,1.09439947754,8.81885716582,1.32270306681,1.31887597813e-05,0.190743562742,2
210,0.106752556253,-9.45873546154e-06,-1.43245262874e-06,-0.0423624928063,0.892247470767,0.399025826724,1000,1.37466274802,8.99288322137,1.43013030514,1.45863982615e-05,0.151799263623,2
211,0.0945271717203,-1.81671386268e-05,-5.00221586375e-06,-0.0377626370021,2.06093153245,0.443626583753,1000,1.31823652169,4.79234205503,1.33669606315,1.16003361526e-05,0.11372679374,2
212,0.11427224179,-1.66437365279e-05,-4.38830763394e-06,-0.0447994814225,1.49673244716,0.375051024663,1000,1.3254866964,5.049511224,1.49766035847,1.47244056022e-05,0.17884052073,2
213,0.096150837598,-1.18006819594e-05,-2.18278520259e-06,-0.0324699288275,1.19383711295,0.369530852091,1000,1.29313460534,6.96989007069,1.59489942101,1.27735023924e-05,0.140097704434,2
214,0.0950006258737,-3.89718089744e-05,-1.38243055892e-05,-0.0381944419175,3.16573006716,0.444527528304,1000,1.20718435051,3.4026273518,1.33136411976,1.48299158964e-05,0.114284794475,2
215,0.126939051722,-1.36196695588e-05,-3.29691496326e-06,-0.0564618293719,1.33789299432,0.397050156097,1000,1.34836137365,5.57890549152,1.39129964136,1.37164446334e-05,0.197811272705,2
216,0.0808729669281,-7.63974786211e-06,-1.18234214086e-06,-0.0236651421619,1.01074887304,0.37668322496,1000,1.36489748985,8.6685646715,1.68806736082,1.0312396253e-05,0.106017772981,2
217,0.110203849782,-1.16187831578e-05,-1.568876834e-06,-0.0428519596278,0.99281122256,0.381803220264,1000,1.18613115491,8.82052392925,1.4829087108,1.38647832706e-05,0.166402945665,2
218,0.102211297884,-2.3419465256e-05,-4.09272213342e-06,-0.0384528063668,1.73865604513,0.391353382567,1000,1.05221597569,6.0397992992,1.4759968081,1.41581109805e-05,0.144963159296,2
219,0.0989362166541,-1.76441795896e-05,-3.00132946274e-06,-0.0341152485726,1.69815373998,0.368350169987,1000,1.0270726407,6.06056106706,1.58439654988,1.06650794626e-05,0.146691252266,2
220,0.102422927403,-1.3437770896e-05,-2.4328961068e-06,-0.037158005529,1.28032940416,0.376770718263,1000,1.22617599275,6.77098589992,1.53223989564,1.28580865021e-05,0.151070084502,2
221,0.108916291068,-2.24190219167e-05,-6.298244426e-06,-0.0407935478025,2.31619467587,0.3709671929,1000,1.10828454411,3.95169468823,1.53043956116,1.07108901854e-05,0.168231632921,2
222,0.0982340783811,-1.89174709231e-05,-5.54791226848e-06,-0.0370238097203,2.28059522438,0.405007453709,1000,1.22360990941,4.17805724893,1.44436897688,1.01258601751e-05,0.13197918889,2
223,0.113233831127,-2.18051135481e-05,-1.07775013913e-05,-0.0428695583325,2.56538931291,0.364528795395,1000,1.37180886216,2.77775050528,1.54374625924,1.16438652942e-05,0.181471473959,2
224,0.0832609531263,-5.87305615252e-05,-2.88536904092e-05,-0.0295928816395,5.14157513569,0.44428153297,1000,1.15041947437,2.34165599888,1.40966394826,1.30830278439e-05,0.0937368908355,2
225,0.109971417156,-9.14041259348e-06,-1.38697789365e-06,-0.0470843117276,0.960145820779,0.421053129727,1000,1.34992744426,8.84730570864,1.3453439652,1.28294956166e-05,0.150417618258,2
226,0.104839846723,-6.50288062287e-05,-3.76530431834e-05,-0.0356675953146,5.11044868835,0.346886389337,1000,1.04551252368,1.80627760284,1.65270348469,1.32655627854e-05,0.16974013862,2
227,0.121809766219,-6.22548503026e-05,-4.15638663764e-05,-0.0512844222726,5.8084810812,0.385757903909,1000,1.06996076193,1.60267032201,1.43957509816,1.1438795885e-05,0.191219225973,2
228,0.0622248557388,-1.51203342902e-05,-2.27373453399e-06,-0.0183633845238,1.84787035618,0.515165182669,1000,1.22789617793,8.2052026567,1.46807481188,1.00228577516e-05,0.0522798750171,2
229,0.126659659186,-1.17779444531e-05,-1.38697803242e-06,-0.0584035076687,1.09271615979,0.412170626817,1000,1.0620458434,9.0132737883,1.34063354962,1.14422234219e-05,0.189944017613,2
230,0.116376882482,-1.44836886928e-05,-2.68300659467e-06,-0.0469725576779,1.40836737181,0.381265777645,1000,1.15471355471,6.20557507824,1.46805061948,1.18736203371e-05,0.180828394759,2
231,0.109060796519,-2.16232147465e-05,-7.70795968719e-06,-0.0416832146299,1.98662736755,0.378182570952,1000,1.36213692503,3.81973736916,1.50072285862,1.4814446457e-05,0.165334791891,2
232,0.110726304987,-2.96494975793e-05,-1.27329130573e-05,-0.0457678422004,2.90558162331,0.404457414601,1000,1.27263716589,2.9655466674,1.39816106161,1.29649666064e-05,0.15812457116,2
233,0.117074844646,-1.28238625274e-05,-2.81943079994e-06,-0.0445490977814,1.35696848974,0.357970071861,1000,1.23999494938,5.61456643084,1.56187015864,1.17192559205e-05,0.194335458526,2
234,0.106686554189,-9.98169435995e-06,-1.65982630418e-06,-0.0380755710788,1.08766508138,0.359036362384,1000,1.22681663984,7.43917694789,1.58968905889,1.12555141575e-05,0.168553740745,2
235,0.102720587741,-2.39651613831e-05,-4.95674112866e-06,-0.04180224463,2.09861959096,0.421657397403,1000,1.08071367726,5.23498092339,1.36787693189,1.23279676296e-05,0.135547932319,2
236,0.0690542123016,-1.61889894545e-05,-3.54702572869e-06,-0.0191719699795,1.78241240539,0.425612058311,1000,1.33721750097,6.12817694479,1.64389056941,1.21127879846e-05,0.0739872722173,2
237,0.0914944261688,-1.47337993195e-05,-2.97859209519e-06,-0.0359784602927,1.59217433919,0.449495615407,1000,1.30541045078,6.45327408888,1.33603872037,1.20682170875e-05,0.106892773996,2
238,0.108453498221,-2.03953982869e-05,-3.63797519887e-06,-0.0453824896805,1.78568110334,0.415778361318,1000,1.06533954059,5.99100087526,1.36693660005,1.21567444536e-05,0.149152825362,2
239,0.0805079828992,-1.12322483259e-05,-2.02362376855e-06,-0.0237091843985,1.31456479687,0.380858233476,1000,1.28940503579,7.1476226405,1.67349579617,1.09908042064e-05,0.104132835495,2
240,0.0845519229643,-1.54841317546e-05,-1.70530090049e-06,-0.0281621342177,1.24606106505,0.410073925303,1000,1.06272206247,9.61379964238,1.51633863888,1.32023799354e-05,0.104089547284,2
241,0.0792532961018,-0.00012148563322,-8.23546629503e-05,-0.0230887049962,8.21464536138,0.382946044689,1000,1.0032767846,1.47979734361,1.6773137127,1.47206303039e-05,0.100802816445,2
242,0.0947932570645,-1.35059828599e-05,-2.52384529942e-06,-0.0330390218306,1.2844242408,0.386099896312,1000,1.28319775574,6.86934287005,1.53432791119,1.34751688323e-05,0.131247182711,2
243,0.0579365687613,-3.62433275752e-05,-7.7306972629e-06,-0.0143735262065,3.56350479422,0.476865398632,1000,1.03231738747,4.8400302148,1.68480245802,1.04384403031e-05,0.0506881955598,2
244,0.0991965974168,-1.99861259487e-05,-4.29735816376e-06,-0.0364001698268,1.72093924248,0.391136422823,1000,1.18186150312,5.51128028072,1.49076004389,1.37168219153e-05,0.138673110645,2
245,0.0921201814651,-1.35059827211e-05,-2.45563319679e-06,-0.0320913292991,1.3317420878,0.395775841607,1000,1.26627523284,6.98069897836,1.51329285558,1.28124198627e-05,0.122658369252,2
246,0.0915558664762,-1.73485940891e-05,-3.45607639729e-06,-0.03145275097,1.87297438573,0.392454074692,1000,1.1163382387,5.59770105899,1.52983097999,1.03362172857e-05,0.122553668142,2
247,0.113496424631,-1.27783879311e-05,-1.75077563558e-06,-0.0395806014064,0.987758961807,0.335231340076,1000,1.1142183177,8.16570305957,1.67796809039,1.43875120227e-05,0.198079438241,2
248,0.122627591775,-3.0468042117e-05,-9.32231153383e-06,-0.0544007345395,2.83770462366,0.404715824525,1000,1.0601180448,3.46694920358,1.37099054161,1.13647028299e-05,0.184213248233,2
249,0.0610072619863,-4.84987565386e-05,-2.36695760214e-05,-0.0154231047801,4.66166773043,0.452977839764,1000,1.31276970856,2.68995344937,1.69627845646,1.35635538558e-05,0.0575998210999,2
250,0.0854540352709,-1.11412988557e-05,-2.023623491e-06,-0.0274383590576,1.19704694392,0.391252474231,1000,1.3582775409,7.43134648766,1.58132907028,1.26235416617e-05,0.110853545673,2
251,0.115217632952,-2.02362367141e-05,-6.91215279458e-06,-0.0479252524249,2.25722418977,0.395642214231,1000,1.26184838244,3.6935511239,1.4173636803,1.12983668907e-05,0.17163036996,2
252,0.0913889971822,-1.54841318933e-05,-2.34194663662e-06,-0.0329378633837,1.45093372765,0.412413211549,1000,1.13042120925,7.50809940643,1.4568723096,1.20526699957e-05,0.116308904438,2
253,0.0641600256097,-2.430622148e-05,-4.52473156165e-06,-0.0181217092858,2.5556991113,0.473972776363,1000,1.10748193493,5.95450508498,1.55749813515,1.04956992402e-05,0.0594782834205,2
254,0.129758676241,-3.41969666473e-05,-2.19642751209e-05,-0.0611513840007,3.60587251662,0.41511468096,1000,1.3610014056,2.11861908938,1.32749554055,1.28847703642e-05,0.195455167128,2
255,0.0673893118443,-9.34277498421e-05,-5.00903704626e-05,-0.0211698322559,7.53589214509,0.49591424589,1000,1.10323240345,2.05713219992,1.43435269034,1.35479413688e-05,0.0610100060353,2
256,0.114295322643,-1.34832453536e-05,-1.68256353295e-06,-0.0453637768459,1.01919813858,0.379644832334,1000,1.11490724958,8.92532443061,1.47952265903,1.4730433888e-05,0.176753955481,2
257,0.0998874500769,-2.53066648193e-05,-4.41104500148e-06,-0.0416855565767,1.89444710216,0.442294652832,1000,1.07871392796,6.18060719197,1.31533277976,1.43980094508e-05,0.123906023876,2
258,0.10345617733,-1.33695587934e-05,-4.09272199464e-06,-0.039393905068,1.74249833808,0.392313808012,1000,1.38878711851,4.54963234699,1.46718149057,1.06469210165e-05,0.147279724836,2
259,0.0749364062926,-2.98541336097e-05,-1.17552072243e-05,-0.0218567274426,3.33547566934,0.40714674227,1000,1.25704437739,3.19447189251,1.62992145028,1.12161195308e-05,0.0873966676816,2
260,0.0626694413929,-6.21639008325e-05,-3.7630305677e-05,-0.0196027517145,6.93353877203,0.540984529089,1000,1.29927971494,2.1470115114,1.38933092319,1.15339485734e-05,0.0501792329338,2
261,0.0922639426273,-3.82442139069e-05,-9.48147269031e-06,-0.03489247923,3.13423088653,0.429051036238,1000,1.00374502899,4.04788464653,1.39489740691,1.22176738315e-05,0.113347136685,2
262,0.0663632707426,-7.42601681536e-05,-3.78349418462e-05,-0.0192907043946,6.27357992664,0.467595428629,1000,1.14957086184,2.256349841,1.53845524198,1.34990629003e-05,0.0632736690774,2
263,0.0818030558821,-4.60203859742e-05,-3.3719482484e-05,-0.0297464951415,5.97421631598,0.462673225488,1000,1.33525192976,1.82262854661,1.36575278653,1.02288853119e-05,0.0876679663833,2
264,0.0852477356262,-1.87810467178e-05,-3.54702586747e-06,-0.0265036268128,1.8408280548,0.379728210177,1000,1.09644110173,5.81387578937,1.63112523162,1.11686039455e-05,0.113786514473,2
265,0.07401354233,-1.79852396864e-05,-4.25188342867e-06,-0.0215419743782,2.18238610654,0.411908010485,1000,1.21637975708,5.14235337694,1.62344717042,1.00084479688e-05,0.0848399312533,2
266,0.115688074407,-1.29375495039e-05,-1.72803826803e-06,-0.0502001237733,1.16788061487,0.411572134427,1000,1.12079460522,8.3484733969,1.36149168495,1.24155060922e-05,0.166033971869,2
267,0.0660291704581,-1.9144844321e-05,-3.38786443344e-06,-0.0185054247166,1.93663581344,0.453656117497,1000,1.20631346863,6.81288674693,1.59239179117,1.18964446523e-05,0.0648924987232,2
268,0.116167363923,-4.12455433696e-05,-2.6034259748e-05,-0.0485944806949,3.96975720851,0.395632778233,1000,1.28998918522,2.04413931121,1.41499510183,1.33836543998e-05,0.173671451235,2
269,0.110955552285,-1.26192260808e-05,-1.68256325539e-06,-0.0483440061042,1.22754145223,0.425699210553,1000,1.12511435175,8.35595155163,1.32790459102,1.15570693765e-05,0.150772523285,2
270,0.0672065431914,-2.53066648193e-05,-6.36645652863e-06,-0.0206926663379,2.39202604001,0.48766713808,1000,1.33570328919,5.30524017224,1.46221435941,1.40838966006e-05,0.0619626936498,2
271,0.0608649171152,-1.97587526202e-05,-4.04724739833e-06,-0.0159351725224,1.95800825817,0.470567745292,1000,1.33984120002,6.55252851176,1.63652297157,1.34789515748e-05,0.0553474353401,2
272,0.0906379614057,-1.71212205524e-05,-4.68389299568e-06,-0.0327564875838,2.12416452037,0.416650111118,1000,1.26755988745,4.63724183735,1.44688236143,1.02060137255e-05,0.113696179354,2
273,0.0846055208478,-5.75027449268e-05,-3.30373620128e-05,-0.0257669595784,5.45935824663,0.374728654589,1000,1.10416056946,1.92222077262,1.65841526461,1.15764077246e-05,0.113859861979,2
274,0.0962138291881,-2.03953982869e-05,-2.88764276379e-06,-0.0357135702257,1.49872430678,0.405951485528,1000,1.05658458727,7.46070899115,1.45141466887,1.43764662613e-05,0.12763342583,2
275,0.0754406372635,-4.42696104774e-05,-2.60342598868e-05,-0.0263506044822,5.14974218531,0.483988122004,1000,1.34503014658,2.28675474887,1.36540937978,1.15060838457e-05,0.0742067836016,2
276,0.0909793972646,-1.0300017228e-05,-1.72803826803e-06,-0.0343202712108,1.28068801757,0.433416379067,1000,1.30053434712,7.78855656823,1.38882786222,1.04408432328e-05,0.109940431238,2
277,0.115237482101,-3.52201472154e-05,-1.28011252987e-05,-0.0466860898705,3.13715277176,0.385299428088,1000,1.08939997261,2.99614985169,1.45528188298,1.22093414346e-05,0.176240129477,2
278,0.0889826619172,-1.40062043907e-05,-3.91082319307e-06,-0.0290740609057,1.73060904869,0.383137379445,1000,1.36915589416,4.89174013507,1.58571650047,1.10536613567e-05,0.120276417566,2
279,0.112541232677,-1.44836886928e-05,-2.72848146854e-06,-0.0449885424447,1.48626335507,0.386589613244,1000,1.1505558398,6.08463928624,1.45763820507,1.12123849765e-05,0.169591041245,2
280,0.107595283329,-1.73713314566e-05,-3.25144036695e-06,-0.0367269282091,1.64534145909,0.341192162391,1000,1.033223261,5.52369553634,1.66912610469,1.09062245654e-05,0.179619745646,2
281,0.0819297692153,-1.22781662615e-05,-2.06909836487e-06,-0.0301363496555,1.51547725064,0.467279538698,1000,1.27766699398,7.60890415057,1.35159565306,1.03328483727e-05,0.0871280747308,2
282,0.114659467737,-4.31327432104e-05,-2.35104145874e-05,-0.0405196310095,3.75635599525,0.3372734947,1000,1.14188889502,2.09422896448,1.66408630589,1.30884144809e-05,0.199780711253,2
283,0.113432786277,-1.79625025964e-05,-5.04769073761e-06,-0.050137527863,1.71940851896,0.425054197556,1000,1.36636311513,4.84981862902,1.32346204497,1.42662335071e-05,0.156056979851,2
284,0.0918541113617,-1.60980401231e-05,-2.31920926907e-06,-0.0337682766906,1.28059804589,0.418748858992,1000,1.18595361245,8.21327463545,1.43189496811,1.48975835138e-05,0.115420344826,2
285,0.104052246756,-1.1277723061e-05,-1.97814889469e-06,-0.0378361695753,1.14318221954,0.372952276788,1000,1.26217241342,7.23578303046,1.54084439216,1.24428601801e-05,0.156282502699,2
286,0.0852554373719,-2.9444861549e-05,-7.54879825315e-06,-0.03045983386,2.70564491994,0.436329192098,1000,1.12964322349,4.40816667913,1.41934617438,1.22673666229e-05,0.0990014997555,2
287,0.0678766517374,-2.00316008225e-05,-2.72848146854e-06,-0.0199242122954,1.58780249348,0.459358870948,1000,1.17015196619,8.55985933982,1.54150546668,1.47274970762e-05,0.0667978151348,2
288,0.0940192531909,-1.34377706185e-05,-3.38786443344e-06,-0.0302468986256,1.5362191206,0.358941706817,1000,1.31565799749,5.22803798648,1.65548100743,1.14871117126e-05,0.139450560469,2
289,0.108635774504,-1.57797172551e-05,-2.36468372661e-06,-0.0376982903166,1.29054699849,0.344365545394,1000,1.04743260241,6.97919402628,1.64977377391,1.28013206863e-05,0.18055871535,2
290,0.103262461437,-1.02318051254e-05,-1.84172510576e-06,-0.0373914953231,0.99946314647,0.373623847004,1000,1.37309039938,7.65112540465,1.54145092265,1.40601709248e-05,0.15422863923,2
291,0.102250077842,-9.39052349769e-06,-1.52340223769e-06,-0.0425925719984,1.06290891046,0.433190415335,1000,1.36926277938,8.40571614595,1.33336354522,1.21045912144e-05,0.131071281303,2
292,0.0752304413747,-8.0535675212e-05,-0.000106410773665,-0.0235874259173,10.4325378782,0.435783996045,1000,1.34130412262,1.01494138407,1.51850906847,1.02419248368e-05,0.081934095232,2
293,0.0844934066294,-1.9576853888e-05,-4.09272199464e-06,-0.0265605383867,1.71265991586,0.387283898068,1000,1.21153731556,5.79406688873,1.60604349191,1.38174197361e-05,0.110077626929,2
294,0.108137300383,-1.50293849588e-05,-2.54658252818e-06,-0.0416872618775,1.41454790508,0.383878798785,1000,1.12322882801,6.63378090396,1.48164151357,1.19202280528e-05,0.160857610549,2
295,0.0616996555586,-1.31194479586e-05,-1.90993693083e-06,-0.0170326132069,1.53455231406,0.487294404787,1000,1.29970096785,8.87076890528,1.56280274551,1.11019617746e-05,0.0545755574992,2
296,0.105642434776,-5.13636616573e-05,-2.19870122109e-05,-0.0353102779406,3.73172062784,0.338796078258,1000,1.03851355404,2.42504977011,1.68875672833,1.42686942458e-05,0.175851544593,2
297,0.0753172598013,-4.34510659397e-05,-1.54841316158e-05,-0.0225288888298,3.48775589843,0.415222910721,1000,1.17903680363,3.31289208117,1.59321953074,1.46339958998e-05,0.0863108453616,2
298,0.124562300087,-8.29913082701e-06,-1.1823418633e-06,-0.0544531668567,0.8109608037,0.394854729031,1000,1.3340430381,9.34113728843,1.40233636919,1.36195974333e-05,0.193372971061,2
299,0.115139955865,-9.98169435995e-06,-1.3869781712e-06,-0.0474276683717,1.03774069338,0.391982297524,1000,1.17967702504,8.52232697841,1.43087236599,1.13443110471e-05,0.173103092385,2
300,0.110365956777,-1.42335777886e-05,-3.8880859643e-06,-0.0471768299835,1.59386190492,0.41926858922,1000,1.39699489673,5.11727195203,1.3498922409,1.24663862237e-05,0.151848579671,2
301,0.0944865618493,-1.23691155929e-05,-1.68256353295e-06,-0.0362868241628,1.24120923399,0.426632305709,1000,1.16914450713,8.63529328033,1.39023806953,1.16293733288e-05,0.11820926336,2
302,0.113514029541,-1.54613945258e-05,-2.72848146854e-06,-0.0497407839337,1.4311267491,0.421174979158,1000,1.17850047491,6.69256219265,1.33548998027,1.27160666981e-05,0.157683166802,2
303,0.0658388365563,-6.08678721314e-05,-6.26186476282e-05,-0.0178302847374,8.15935057171,0.439945089306,1000,1.39049446626,1.35133812429,1.64477931933,1.02643624553e-05,0.066454872388,2
304,0.0870597613563,-7.03948196956e-05,-6.02994384979e-05,-0.0274425427294,7.40219005474,0.377294109203,1000,1.15294058803,1.34573780042,1.62524937038,1.08977465914e-05,0.117992572863,2
305,0.118216068396,-2.56249875485e-05,-1.07320266562e-05,-0.0537869171791,2.80522234845,0.425223727198,1000,1.29151815354,3.08033044921,1.31247225913,1.17897620474e-05,0.165944696251,2
306,0.108411208431,-1.50066475912e-05,-2.04636099732e-06,-0.0463985761455,1.42826532247,0.425377477124,1000,1.05570999114,7.73614307568,1.33625418723,1.10706563699e-05,0.145719403128,2
307,0.101172740215,-2.38059999491e-05,-9.23136192488e-06,-0.0337006558272,2.26190012473,0.349369443815,1000,1.3030747269,3.36259913183,1.65848147354,1.36936289607e-05,0.15989091377,2
308,0.131051473598,-8.29913082701e-06,-1.13686698944e-06,-0.0620908001384,0.818532794268,0.414883715012,1000,1.31052945114,9.65066380786,1.32718099625,1.32827158908e-05,0.1986091495,2
309,0.0641041421161,-6.41647868171e-05,-2.6147946447e-05,-0.0185136101609,5.32148242106,0.485179513397,1000,1.14754084729,2.81567896586,1.52198242126,1.37329091328e-05,0.057910673581,2
310,0.0690266550694,-2.83762062459e-05,-5.34327609936e-06,-0.0220056343139,2.38360330895,0.488934290306,1000,1.14959140107,6.12043187562,1.43122431125,1.3643696402e-05,0.0643369295271,2
311,0.0752720629347,-3.75393562069e-05,-1.53477078269e-05,-0.0263922820352,3.54100396327,0.487031970354,1000,1.35860212726,3.32242374215,1.35876207992,1.43483984453e-05,0.0735171230735,2
312,0.111409583323,-9.39052335891e-06,-1.52340209891e-06,-0.0460684753735,0.921008188325,0.402811685584,1000,1.39011716091,8.51334096978,1.4020704926,1.41866757086e-05,0.160322725618,2
313,0.0595436714839,-1.36196695588e-05,-2.13731039811e-06,-0.0150828631524,1.66995197457,0.468925586038,1000,1.27532001864,8.13496877534,1.67312928742,1.03724142238e-05,0.053763152261,2
314,0.0933504098371,-1.82353505906e-05,-2.72848146854e-06,-0.0341107011038,1.45936543996,0.410263327385,1000,1.11293614899,7.46300678528,1.45229253773,1.38855002239e-05,0.120696385135,2
315,0.0903759769462,-1.42108405599e-05,-3.02406683028e-06,-0.0323164972249,1.66676572223,0.413336006688,1000,1.25828612369,5.91662869462,1.46026012995,1.07107777279e-05,0.114122671507,2
316,0.127465438487,-1.62117272384e-05,-4.43378250781e-06,-0.0594375793733,1.79839925989,0.415195080211,1000,1.26492296151,4.61582715351,1.32985812322,1.13946164136e-05,0.190337874589,2
317,0.0682694771357,-2.24644966518e-05,-4.61568103183e-06,-0.0227040800715,2.28355976487,0.516817573728,1000,1.2679473838,6.15698182104,1.36446625137,1.24412791418e-05,0.0598744103711,2
318,0.0952728583659,-9.29957401363e-05,-6.34599292559e-05,-0.03372914572,7.51579012676,0.390468376895,1000,1.01598881177,1.48909384796,1.5137406716,1.25050872937e-05,0.130514867599,2
319,0.0975022963153,-1.25510143945e-05,-1.70530062293e-06,-0.0362441234295,1.09376523814,0.40197054025,1000,1.20644304984,8.80918698574,1.45904286475,1.38426560816e-05,0.131517463161,2
320,0.10102969617,-1.93267431225e-05,-4.86579179726e-06,-0.0363178606388,1.95188738769,0.377467163135,1000,1.17553064029,4.67108929727,1.53575815333,1.16288609474e-05,0.147702430887,2
321,0.109560905521,-3.63115397473e-05,-1.34150335285e-05,-0.0381794807448,3.15017328953,0.343645339997,1000,1.04815096703,2.83625275513,1.6496724717,1.20627502273e-05,0.183173652873,2
322,0.105586014306,-1.34150335285e-05,-1.84172496698e-06,-0.0351489110047,1.02567005093,0.33756687466,1000,1.12523697019,8.1289041785,1.69545869644,1.47158430055e-05,0.176495690779,2
323,0.0869690686181,-1.47337993195e-05,-3.34238969835e-06,-0.0319899207411,1.81032285993,0.440705744439,1000,1.29892414813,5.73451993534,1.39252496157,1.05669568758e-05,0.101031895187,2
324,0.0766543797281,-1.93267432613e-05,-3.75166203659e-06,-0.0237474513501,1.8142585579,0.421892478811,1000,1.21207052819,6.25088316563,1.55218135304,1.28930804147e-05,0.087304425514,2
325,0.0716519518904,-2.4624544348e-05,-7.50332365684e-06,-0.0211279045922,2.51391573867,0.432914361232,1000,1.32922197993,4.36161062674,1.57654963052,1.29752894342e-05,0.0768551982581,2
326,0.0638117858276,-2.35104144486e-05,-3.20596549308e-06,-0.0206398929604,2.2342570841,0.546541263312,1000,1.08930020004,8.01057112351,1.35635852177,1.14286684963e-05,0.051161508901,2
327,0.0632417624578,-3.66753370729e-05,-7.54879853071e-06,-0.0163501063276,2.7105863134,0.441932856201,1000,1.09569374656,5.32767363891,1.68915783901,1.47761156079e-05,0.0623883736016,2
328,0.0650117399685,-0.000142654101171,-0.000126737959849,-0.0193405901287,11.3373146946,0.490966986195,1000,1.15908985052,1.30453090471,1.48691133442,1.43665367444e-05,0.0582235877963,2
329,0.108383869992,-1.59616159179e-05,-2.86490539625e-06,-0.0388413421146,1.38630816831,0.356249400556,1000,1.12421854723,6.26915213519,1.5956433057,1.29309007049e-05,0.173923289373,2
330,0.108396772659,-3.20141814447e-05,-1.1709732628e-05,-0.0385257477688,2.56847556641,0.35328122209,1000,1.17349150546,3.21225206792,1.60885696205,1.46012753814e-05,0.17534454236,2
331,0.107302677905,-1.4574638163e-05,-3.09227893291e-06,-0.0418476511078,1.53191230369,0.39062769747,1000,1.21890332034,5.76582939413,1.45890010663,1.15870367539e-05,0.156247988421,2
332,0.124694672843,-1.68256350519e-05,-3.77439912658e-06,-0.0577740242778,1.63668814861,0.418211484585,1000,1.20884880248,5.40502869653,1.32378273918,1.24201596107e-05,0.182835180777,2
333,0.0793041416342,-1.54613945258e-05,-2.45563333556e-06,-0.0267763840013,1.51930890252,0.443522151128,1000,1.22097956233,7.66149745488,1.4486326527,1.24091897802e-05,0.0874064810376,2
334,0.132852276793,-1.45064263379e-05,-3.43333916852e-06,-0.0646516618097,1.43105483088,0.422753769432,1000,1.31562842377,5.56343375529,1.30093158197,1.33155083865e-05,0.198918524402,2
335,0.114527504258,-3.92673946137e-05,-1.88265215917e-05,-0.0499349153833,3.34106059787,0.416460822722,1000,1.26243029275,2.63184637883,1.34797051474,1.48120471885e-05,0.161512101758,2
336,0.115256472045,-1.6575524564e-05,-3.56976323501e-06,-0.0437987654028,1.54953792959,0.361368850163,1000,1.15576663586,5.36644322328,1.55173611512,1.23525890255e-05,0.188026803338,2
337,0.0675398564659,-0.000118893575957,-0.000103182070665,-0.0191721291412,9.80750439023,0.446911538907,1000,1.16554248015,1.34301557228,1.58871218254,1.39584668682e-05,0.067831935857,2
338,0.111223589335,-3.24007162766e-05,-7.82164652491e-06,-0.0475010417832,2.49983722951,0.416536992827,1000,1.04255971703,4.32453793548,1.35625264256,1.34988064895e-05,0.154587335178,2
339,0.109219399413,-2.69664908459e-05,-1.11185616269e-05,-0.045015622622,2.65325703159,0.40738480227,1000,1.31469639799,3.18854161799,1.39261494123,1.33428989052e-05,0.153798968133,2
340,0.104730875415,-5.19775701646e-05,-3.62888022409e-05,-0.0356156859561,5.39459899171,0.347022540559,1000,1.11813921113,1.60116779627,1.65261031513,1.07360395609e-05,0.169445191373,2
341,0.0777522701118,-1.43927393614e-05,-2.29647176275e-06,-0.0230021666618,1.49015396488,0.396792678404,1000,1.17374160682,7.34162181408,1.63709925315,1.13337141025e-05,0.0948517686015,2
342,0.0840451642919,-1.55978187311e-05,-3.11501630046e-06,-0.0283697943879,1.60609561961,0.418049071731,1000,1.26964427794,6.38161264681,1.49169600397,1.23233732131e-05,0.101176367826,2
343,0.0834153585104,-1.36196695588e-05,-2.52384529942e-06,-0.0302306868991,1.40335235482,0.452182828502,1000,1.36635405925,7.36971174127,1.38416977737,1.32366698031e-05,0.092491067364,2
344,0.0592492700395,-2.58978358203e-05,-6.77572879748e-06,-0.0151529623865,2.75534607268,0.476648234252,1000,1.2928616746,4.94741197216,1.65282710165,1.2098191047e-05,0.0524585516798,2
345,0.0652214635413,-7.9603444253e-05,-3.51291976064e-05,-0.0201204583185,6.70476845519,0.507063616603,1000,1.08194720337,2.45184460011,1.43707773471,1.27302522152e-05,0.0568405779198,2
346,0.0909681825673,-2.3851474823e-05,-7.43511169299e-06,-0.0356270546288,2.68959392338,0.450024599733,1000,1.2477524379,4.00953535437,1.337514947,1.10417094015e-05,0.105817172534,2
347,0.114672433435,-1.69620592572e-05,-4.66115576692e-06,-0.0470311063407,1.99471490467,0.391399539377,1000,1.19936233276,4.36111933011,1.43410395469,1.01857413108e-05,0.172277369179,2
348,0.103191283912,-3.24689283793e-05,-1.74395435593e-05,-0.0344683140624,3.46808691283,0.344840164729,1000,1.22419488372,2.27988391734,1.67024987434,1.14308541748e-05,0.166834710103,2
349,0.106329855121,-3.33102102845e-05,-1.26419638646e-05,-0.0429323816165,3.4258308308,0.407232985019,1000,1.11663570984,2.94410361136,1.40261204828,1.08340726725e-05,0.147780763165,2
350,0.0779865377866,-9.75432096206e-06,-1.34150343611e-06,-0.023970391016,1.00145082242,0.410935466035,1000,1.34511455618,9.86234862536,1.57811486187,1.3091913835e-05,0.0920128999387,2
351,0.0946625328933,-1.24373276955e-05,-1.93267457593e-06,-0.03650007772,1.15073458778,0.427647869215,1000,1.29917000519,8.3947374792,1.38596564374,1.40219555441e-05,0.118253259342,2
352,0.082987822327,-1.06638145536e-05,-1.90993693083e-06,-0.0249830441415,1.33455412892,0.377545334126,1000,1.2560337708,7.0571157273,1.66212119348,1.00209864272e-05,0.109944236405,2
353,0.122737680908,-1.16415205254e-05,-1.84172496698e-06,-0.0541978719493,1.00672672769,0.402612597392,1000,1.27790679258,8.0680869939,1.37807336493,1.47813472713e-05,0.185481552019,2
354,0.079991244647,-1.49156982598e-05,-2.50110793187e-06,-0.0235402231896,1.50598761515,0.383123168605,1000,1.16770488542,6.95132709936,1.6692748273,1.15490004948e-05,0.102511860103,2
355,0.0898918868427,-3.3469371441e-05,-1.33922958834e-05,-0.0343156327921,3.72011237204,0.443446822305,1000,1.19732280994,2.99200937614,1.36397962823,1.07411770776e-05,0.105455633583,2
356,0.121988102077,-1.59388788279e-05,-3.4106016622e-06,-0.052027455963,1.66169788639,0.390404257583,1000,1.13789831122,5.33761867105,1.42241579116,1.08969274116e-05,0.189520882758,2
357,0.093747494579,-1.25964889908e-05,-1.88719956329e-06,-0.0364256811275,1.35557162096,0.434620798959,1000,1.18616978634,7.96971778794,1.36871479472,1.10026333487e-05,0.114675440533,2
358,0.11345011871,-1.07775015301e-05,-2.16004769626e-06,-0.044431295598,1.06252028376,0.376578201165,1000,1.37968896068,6.88778940893,1.49385076492,1.39835841218e-05,0.176220229285,2
359,0.0768121714237,-4.14729169063e-05,-1.65755242865e-05,-0.0244456469971,3.6626221553,0.432443834618,1000,1.23764394559,3.09917655067,1.51223142922,1.39589103046e-05,0.0853573354807,2
360,0.100911503339,-1.88492588205e-05,-5.47970016584e-06,-0.038915556808,1.74573868256,0.405324435033,1000,1.38556471069,4.76143183779,1.43069909983,1.49408273597e-05,0.137298385387,2
361,0.122780099003,-4.89535036119e-05,-5.01358454752e-05,-0.0539890066999,5.88761484004,0.400833331949,1000,1.33905123965,1.3075674632,1.38383682584,1.1104250103e-05,0.186236661058,2
362,0.0719558949023,-2.40333734858e-05,-2.52384529942e-06,-0.0234205338065,1.64040172545,0.475541675892,1000,1.01114748624,9.64153160049,1.4313564651,1.47891796958e-05,0.0704327028669,2
363,0.0885483198577,-3.05362542197e-05,-7.63974800089e-06,-0.027368737308,2.67046872412,0.364090533074,1000,1.01663360505,4.06391776452,1.67209513164,1.16020907382e-05,0.125601770241,2
364,0.106684072269,-2.61024717119e-05,-1.61207773519e-05,-0.0362946230721,3.18522306571,0.342256633926,1000,1.35347652892,2.1922466168,1.66745970314,1.1067900642e-05,0.176725057255,2
365,0.0672687634693,-0.000104728210132,-6.03449129555e-05,-0.0204608818448,9.0720510572,0.48121680347,1000,1.0261303353,1.78084084811,1.48002313053,1.17108100569e-05,0.0626933250772,2
366,0.0876254010161,-1.7575967487e-05,-5.18411452655e-06,-0.0338456064003,2.26361588477,0.459490542912,1000,1.35095166079,4.57864497534,1.33106543965,1.04701350583e-05,0.0979883375068,2
367,0.0943703336494,-1.90538949896e-05,-5.93444696162e-06,-0.0340446945915,1.93531484192,0.401195446903,1000,1.37723586198,4.42158675506,1.47897664427,1.35445914338e-05,0.125435423753,2
368,0.124958801862,-1.97814900571e-05,-6.70751676424e-06,-0.0564496194173,2.19673566759,0.407217910159,1000,1.26655389185,3.73763673335,1.35912463071,1.13932999851e-05,0.188353321893,2
369,0.115381920377,-8.36734306842e-06,-1.75077577436e-06,-0.0428560978247,1.06039566079,0.352939684433,1000,1.36500866538,6.48304660318,1.588513451,1.07627888342e-05,0.192860466914,2
370,0.112699243668,-2.80124086427e-05,-1.5893403954e-05,-0.041205139218,3.17356174094,0.353226516038,1000,1.30256109551,2.29613507869,1.59469924977,1.14718767626e-05,0.185928743865,2
371,0.106565077161,-1.37788308541e-05,-4.20640869359e-06,-0.038153810282,1.5659344201,0.360497327737,1000,1.39190843805,4.57407471259,1.58366868783,1.22315764512e-05,0.167559238733,2
372,0.0808085637172,-1.88265215917e-05,-4.04724739833e-06,-0.0306113782628,1.81359851551,0.48802397797,1000,1.35280688806,6.31303999853,1.30331730959,1.40166792265e-05,0.0816911008148,2
373,0.107739463633,-5.24095797316e-05,-3.17413333117e-05,-0.044101263038,4.4564353403,0.408739425062,1000,1.234670163,2.0398359046,1.39250323419,1.44839818851e-05,0.150089676035,2
374,0.0938029232189,-1.60070907917e-05,-3.02406696906e-06,-0.0300955588588,1.31907026995,0.358694188081,1000,1.22967144168,6.51847598067,1.65804922369,1.48951739273e-05,0.139058101709,2
375,0.0796424104812,-3.03770927856e-05,-6.11634590197e-06,-0.0238433802079,2.48175647019,0.391527482416,1000,1.00859299241,4.9969979578,1.63714111632,1.23195819009e-05,0.0996130948853,2
376,0.0769409240124,-7.59654690541e-05,-6.47559580957e-05,-0.0266430294736,8.25498823227,0.469676123053,1000,1.25184104804,1.46846765054,1.39059736081,1.14255181794e-05,0.0786721650021,2
377,0.0775526151469,-1.95768537492e-05,-3.47881376483e-06,-0.0235964526432,1.80148571803,0.409210292735,1000,1.14442071626,6.42959742152,1.58966622563,1.24128222222e-05,0.0916020846767,2
378,0.0596642371619,-0.000119211898755,-5.87987735584e-05,-0.0161665250059,8.64428961494,0.500216788173,1000,1.02089392605,2.06985367304,1.5643467748,1.38933428521e-05,0.050299489921,2
379,0.0793788533819,-1.8280825187e-05,-4.52473142287e-06,-0.0229018494967,1.99445081041,0.378620310314,1000,1.22520115601,4.96035514397,1.69608495088,1.12060312782e-05,0.102524988695,2
380,0.0775081691948,-1.36651440164e-05,-2.79669329362e-06,-0.0231361805721,1.38274936457,0.401704763427,1000,1.3873035147,6.78815627241,1.61993443617,1.36964691911e-05,0.0932441864795,2
381,0.111642929047,-1.19598432546e-05,-2.20552229258e-06,-0.0456421501584,1.29775630567,0.397647329721,1000,1.23393156198,6.71093928221,1.41960560117,1.1359665423e-05,0.162910191415,2
382,0.0791014632277,-6.13226189272e-05,-4.26097841733e-05,-0.0265472370402,6.56501079601,0.442033991911,1000,1.22220583756,1.75895632622,1.45502258519,1.13482018226e-05,0.0872066435405,2
383,0.0953502103605,-2.70347029485e-05,-1.22554287552e-05,-0.0330145109731,2.76180163688,0.381617501631,1000,1.35240291306,2.98414947175,1.54886475205,1.32100397181e-05,0.133897684651,2
384,0.094140415606,-2.69892283522e-05,-1.17779445918e-05,-0.0350110544831,3.09563267484,0.414474079008,1000,1.30999622646,3.00345948936,1.4328297409,1.13989919806e-05,0.120944832367,2
385,0.0667426258989,-5.87987736278e-05,-3.21278681437e-05,-0.0225440091639,5.40869448566,0.539533136158,1000,1.37598710799,2.51877731441,1.32778313076,1.4858554867e-05,0.0553177603776,2
386,0.101761206957,-5.06133296385e-05,-4.10181701105e-05,-0.0376966987026,5.73554413558,0.386722012803,1000,1.24202380056,1.53219742651,1.49538680641,1.09222234633e-05,0.145604527999,2
387,0.125271466708,-5.56610196822e-05,-4.74073638679e-05,-0.0586115088985,5.44215187464,0.421098217883,1000,1.29550067003,1.52116240629,1.31365950772,1.32228562627e-05,0.182682882311,2
388,0.107846963683,-8.32186805577e-06,-1.20507909207e-06,-0.0421855053143,0.856042842106,0.390300620765,1000,1.34112531306,9.349980198,1.45828618613,1.30301449708e-05,0.157592603438,2
389,0.106887145034,-1.37333562578e-05,-2.47837056433e-06,-0.0386252236523,1.48951488632,0.363016352693,1000,1.10368932186,6.09798161202,1.57146646394,1.0177062538e-05,0.167165911987,2
390,0.0964277920934,-6.27095968209e-05,-4.55429016721e-05,-0.0328937074601,5.79371197067,0.372361742469,1000,1.16289369339,1.60182346977,1.58068628564,1.25385298633e-05,0.139437335739,2
391,0.104715693496,-3.74256693692e-05,-1.93040056162e-05,-0.044032687206,3.93128571204,0.429145555381,1000,1.25243432562,2.4281225262,1.33647128482,1.18936229118e-05,0.137021701515,2
392,0.117326488975,-3.61069037169e-05,-1.89174709231e-05,-0.0521628568516,3.99375708986,0.417641618512,1000,1.20080155915,2.29283444386,1.33803054133,1.08376159336e-05,0.167020778725,2
393,0.0765697468265,-1.9849702021e-05,-3.38786429466e-06,-0.0224330054467,1.57790333567,0.39945933694,1000,1.18831473073,6.9465299421,1.64041114109,1.49360363969e-05,0.0920547607033,2
394,0.110528060142,-1.0459178662e-05,-1.27329133348e-06,-0.0485007346224,1.01872717996,0.429940430217,1000,1.18748652277,9.65461360721,1.31598075337,1.2188523917e-05,0.148428175536,2
395,0.101561231796,-1.45519006567e-05,-1.63708879786e-06,-0.0419731157764,1.36587823199,0.432124784196,1000,1.0083191835,8.88911571126,1.33938001754,1.0733126028e-05,0.130063093853,2
396,0.096774037567,-1.38015684992e-05,-1.84172496698e-06,-0.0395060229155,1.27213593375,0.444254748378,1000,1.16531140658,8.69767467414,1.32358988452,1.26327736967e-05,0.117664624524,2
397,0.11274288914,-3.79486284063e-05,-1.9031157622e-05,-0.0402369148643,4.03988031676,0.344697647052,1000,1.07194963947,2.13746481199,1.63399233647,1.00482260165e-05,0.190624347749,2
398,0.11019223957,-3.42424412436e-05,-8.52650436367e-06,-0.0427059631368,2.50143730194,0.380571856619,1000,1.01437351801,4.07718253352,1.48760207091,1.38652821505e-05,0.166844031761,2
399,0.101393762995,-6.88259425841e-05,-3.61978529095e-05,-0.0430056186039,5.5678905965,0.444076669494,1000,1.08895473441,2.0711160036,1.30360186526,1.34132993204e-05,0.126076016834,2
400,0.0903948742354,-2.25099712481e-05,-3.47881376483e-06,-0.0291412270224,1.64456638848,0.372575791833,1000,1.02558839615,6.63091435234,1.6198423993,1.40210733663e-05,0.126631103709,2
401,0.11233766284,-1.98042274246e-05,-3.93356083817e-06,-0.0479594266543,1.60854816057,0.413401990462,1000,1.1716486557,5.90872623049,1.36358995943,1.44123769933e-05,0.158140639931,2
402,0.123262569636,-1.53931825619e-05,-4.02451003079e-06,-0.0516161601331,1.59187622986,0.380757120504,1000,1.26832598298,4.85018782181,1.45627173587,1.22705220935e-05,0.197372373226,2
403,0.0757853104748,-5.7480007698e-05,-2.40561108533e-05,-0.0228336147251,4.71980180056,0.415415905304,1000,1.09698794971,2.62101469358,1.58651092949,1.32947779799e-05,0.0870424661493,2
404,0.129246959941,-3.41514919122e-05,-1.88265217305e-05,-0.0597949194844,3.55813280092,0.408479741847,1000,1.26034075874,2.28600165336,1.34960603383,1.2079905146e-05,0.197466452204,2
405,0.101086422972,-2.98086590134e-05,-6.25276969091e-06,-0.0375694832583,2.09556364635,0.39007895439,1000,1.05173887295,5.02354786546,1.48577988518,1.49345382423e-05,0.143019033559,2
406,0.0997473549615,-1.35741949625e-05,-2.43289596802e-06,-0.0333871305795,1.18917202371,0.355153415062,1000,1.23816494754,6.89606194658,1.63891466775,1.41239020426e-05,0.154022958842,2
407,0.0948782409329,-1.25055396594e-05,-3.25144036695e-06,-0.0308262234341,1.47415587812,0.359638606435,1000,1.36262168826,5.2469817749,1.64668617625,1.15608314774e-05,0.14109530826,2
408,0.109247226114,-6.06404987336e-05,-4.29508442701e-05,-0.0428417278225,6.26934564186,0.387538851916,1000,1.09189204634,1.54227745694,1.46363817142,1.05256630415e-05,0.161635069067,2
409,0.0694921060118,-1.24373275567e-05,-2.38742123293e-06,-0.0200289177683,1.49618468179,0.438531144782,1000,1.38711210049,7.2313567741,1.58859383982,1.15118535477e-05,0.0725043356844,2
410,0.11061767837,-3.64024889399e-05,-2.03726609194e-05,-0.037822572643,4.00011038148,0.334810562773,1000,1.12700100086,2.01334492963,1.68937310571,1.02355592714e-05,0.190724854767,2
411,0.0898523012391,-1.31649226243e-05,-2.27373453399e-06,-0.0311897481028,1.26313189973,0.40339462563,1000,1.28816663152,7.46670152453,1.49989020455,1.3423912388e-05,0.115922689055,2
412,0.103854810426,-3.49018242085e-05,-1.2846599895e-05,-0.0380670673118,3.1071484806,0.376502849604,1000,1.11697078585,3.03610064912,1.5269577101,1.25215429509e-05,0.154283904627,2
413,0.0800013837293,-3.40832799484e-05,-6.32098193232e-06,-0.0265007846448,2.42907542925,0.431192052837,1000,1.02398448753,5.52607127833,1.48289925483,1.43381985113e-05,0.0910492843016,2
414,0.0904320225617,-9.5269474254e-06,-1.70530076171e-06,-0.0348857489757,1.24576836721,0.445666964864,1000,1.38571475313,7.75061346369,1.3540027879,1.05769105073e-05,0.10595464078,2
415,0.0673685745036,-2.16004776565e-05,-4.43378223025e-06,-0.0206449179137,2.04455682432,0.4839503098,1000,1.29874668303,6.33004603386,1.47096383484,1.36830714137e-05,0.0626795723748,2
416,0.0709401838857,-0.000111322040336,-8.79935244114e-05,-0.0226161320219,11.1623327501,0.473481831614,1000,1.05979717622,1.34071539539,1.45003208128,1.04348839628e-05,0.0690013024531,2
417,0.0960637847131,-1.48247487897e-05,-3.27417759571e-06,-0.0383764998374,1.45141866974,0.437485931779,1000,1.39276222356,6.30349312236,1.34754253038,1.42226525727e-05,0.118158290169,2
418,0.105891316241,-2.38742121905e-05,-9.02672589453e-06,-0.0420001277419,2.76875351185,0.401309861222,1000,1.23221696595,3.26105004857,1.42493725098,1.06078706534e-05,0.149059276133,2
419,0.109926955663,-1.06865521987e-05,-1.61435143031e-06,-0.0392522286728,1.0369136452,0.351259576551,1000,1.18145752496,7.8100701421,1.6128207929,1.21764301163e-05,0.180195704465,2
420,0.0869492785015,-5.7047998131e-05,-2.73757631841e-05,-0.0290387952842,5.73354997949,0.400229700919,1000,1.01079589794,2.10640139737,1.53318792807,1.00121741045e-05,0.111091747763,2
421,0.10349493584,-3.61978530483e-05,-8.91303919559e-06,-0.0431407921188,2.76998232891,0.429340778223,1000,1.03417387041,4.20268166981,1.34037538507,1.34907308006e-05,0.134596889662,2
422,0.0806669249452,-1.5552343996e-05,-3.137753668e-06,-0.0253455228924,1.48899579274,0.40551756604,1000,1.32074998869,6.55194674232,1.57002572509,1.37850543441e-05,0.0980710297567,2
423,0.107767222227,-6.22093755676e-05,-5.43877287651e-05,-0.0415011112354,6.14052375878,0.384466695572,1000,1.22532199076,1.40155919622,1.48024556666,1.23669987784e-05,0.159589150755,2
424,0.0750487411019,-2.0281711588e-05,-3.95629792815e-06,-0.0263583806541,2.27272744369,0.489448950106,1000,1.17444280999,6.03485724349,1.35470400213,1.04564951614e-05,0.0728967570987,2
425,0.106387260584,-1.3119448028e-05,-1.68256367172e-06,-0.0377366027425,1.25703726814,0.357607320262,1000,1.00862365185,7.8082837026,1.59721589409,1.05278068662e-05,0.16851189824,2
426,0.0694522240246,-1.71439580587e-05,-3.52428849992e-06,-0.0225138594451,2.11403428292,0.493546833549,1000,1.28050008207,6.23683733409,1.41198101674,1.03622115267e-05,0.0643533121137,2
427,0.11342219022,-1.06638146924e-05,-1.93267429838e-06,-0.0426849765674,1.03895761881,0.361929212026,1000,1.29656035127,7.20500707135,1.55440315079,1.33030413534e-05,0.183288923358,2
428,0.0844810981452,-2.16459521141e-05,-4.11545936219e-06,-0.0298772121363,2.02230646796,0.435767875267,1000,1.12524286823,5.94352321418,1.42742808017,1.20238943239e-05,0.09780564518,2
429,0.116411920055,-1.02318052642e-05,-1.68256367172e-06,-0.0456743235015,1.01440808489,0.370539844504,1000,1.26661865682,7.63382588659,1.51048659335,1.27867582475e-05,0.186160166105,2
430,0.121975075718,-1.11185616269e-05,-1.22781645961e-06,-0.0530915182254,1.05073008372,0.398459280304,1000,1.04307716132,9.40184071014,1.39371972073,1.10200563479e-05,0.185681171395,2
431,0.0961043352782,-9.79979569715e-06,-1.52340223769e-06,-0.0390872010242,1.19921529081,0.445238479601,1000,1.29766482428,8.33309422208,1.32393230369,1.06090076359e-05,0.116196906406,2
432,0.0853119230846,-3.04225671044e-05,-1.08002386201e-05,-0.0269560090251,3.03981281166,0.385636759336,1000,1.17906120242,3.32030283934,1.60541853585,1.17672069498e-05,0.112119970426,2
433,0.109342294959,-1.31194478892e-05,-2.52384516064e-06,-0.0418031313865,1.32542176532,0.377571345648,1000,1.22546243727,6.34773514439,1.50230820794,1.21249865575e-05,0.166290077574,2
434,0.104257761678,-9.54968479294e-06,-1.31876620735e-06,-0.036828018444,0.925313072554,0.361739718994,1000,1.22647606213,8.91547884052,1.58773821407,1.26578922347e-05,0.161613622674,2
435,0.0698791582731,-2.4556332523e-05,-3.59250060256e-06,-0.0234648034168,1.98998201266,0.507563588078,1000,1.12851965491,7.70914131389,1.36721133792,1.38968953908e-05,0.0631403611544,2
436,0.0885818476846,-0.000138743278116,-0.000120280554128,-0.0307053744465,10.6482740121,0.408178062756,1000,1.0002048318,1.15376842678,1.49032355023,1.29240491451e-05,0.111765794808,2
437,0.100329746196,-1.17779445918e-05,-1.77351286434e-06,-0.036724631737,1.01312203793,0.386538727067,1000,1.27987302449,8.49891780139,1.50304706461,1.48736058482e-05,0.142763782959,2
438,0.10686303693,-8.61290617993e-05,-0.000100385377233,-0.038148853541,7.59520530571,0.358681728017,1000,1.23069764853,1.05600167255,1.58987589297,1.38957825896e-05,0.168803783421,2
439,0.10005344334,-1.25510143945e-05,-1.3869781712e-06,-0.0345107646851,0.964000846642,0.365063395846,1000,1.09925723452,9.83560647613,1.59287885049,1.43268235281e-05,0.150542652837,2
440,0.0697205286473,-8.16043305152e-05,-8.50831441412e-05,-0.0198195977723,7.99054709141,0.430854062206,1000,1.38063994578,1.32407620649,1.61219197579,1.39678706298e-05,0.0738888467121,2
441,0.0996438384198,-1.62117265445e-05,-2.68300659467e-06,-0.0328511431502,1.34675876254,0.350113773534,1000,1.10859571041,6.70708480625,1.66305462173,1.33358793929e-05,0.155992609091,2
442,0.0975763440734,-3.79713657739e-05,-2.933117485e-05,-0.0401894847629,5.1503858568,0.445103283349,1000,1.387094552,1.79605556257,1.31704815244,1.01933061607e-05,0.118800072113,2
443,0.0818326900866,-1.69165845221e-05,-3.02406683028e-06,-0.0308084428305,1.59733201027,0.478840182504,1000,1.30127840018,7.26713003243,1.31970779127,1.3765316021e-05,0.0848565237087,2
444,0.103312210804,-7.6852225972e-06,-1.09139267068e-06,-0.0439619058519,0.979579793183,0.438898398375,1000,1.3263243016,9.49152670961,1.31202942554,1.03971483256e-05,0.131396198673,2
445,0.109908121397,-1.79852396864e-05,-4.93400376111e-06,-0.0393597308387,1.69932380374,0.352326253608,1000,1.24572230836,4.53221801216,1.6079313457,1.31701176431e-05,0.179568245921,2
446,0.0889867755326,-3.42651786112e-05,-1.43017898913e-05,-0.0290250391906,3.39783301937,0.382457510098,1000,1.1920820207,2.85263671154,1.58831060339,1.19887825614e-05,0.120427216108,2
447,0.102057290692,-5.54336467007e-05,-3.3287472917e-05,-0.0368789046218,4.80606244371,0.376355693508,1000,1.15150992391,1.91775565845,1.5352201396,1.32398194697e-05,0.150266467051,2
448,0.105684112627,-1.74168060529e-05,-2.2282597989e-06,-0.0422928937936,1.25402418342,0.4055105402,1000,1.07448726353,8.35914285574,1.41099161546,1.49235776063e-05,0.147115827374,2
449,0.0837356894613,-2.01225501539e-05,-2.72848132976e-06,-0.0255312869993,1.43418571778,0.378991633892,1000,1.05733474644,7.79520434354,1.64838760043,1.48156902119e-05,0.11098333349,2
450,0.0788697308283,-3.26963019159e-05,-1.59161414603e-05,-0.0292330858956,4.26922036326,0.489683713191,1000,1.33746456271,2.74830693533,1.31578798349,1.02040841295e-05,0.078452278343,2
451,0.12244876066,-1.13459351636e-05,-1.1823418633e-06,-0.0519239328325,0.996673024151,0.3872170048,1000,1.02237069085,9.80844245295,1.43337142809,1.16361765294e-05,0.19218666205,2
452,0.115991727711,-5.77528556922e-05,-3.55612071734e-05,-0.0482480090347,5.63908970412,0.393817223988,1000,1.06647220154,1.73245175305,1.42187430278,1.08908287572e-05,0.174048686084,2
453,0.0811317479298,-0.000118075031696,-0.000140471316246,-0.0307713582212,10.4827566466,0.486630724429,1000,1.31729535841,1.10729346186,1.30328165651,1.46971857674e-05,0.082084084179,2
454,0.104751706952,-1.05956025898e-05,-1.38697803242e-06,-0.0421528544871,1.07054226912,0.410573055496,1000,1.18425238926,9.03604096751,1.39702589393,1.17139649447e-05,0.143401358547,2
455,0.0892608109917,-1.87810467178e-05,-3.25144022817e-06,-0.0345360486127,1.63974934555,0.452382257754,1000,1.2028368206,6.92860439802,1.34115535097,1.37525991517e-05,0.102333156146,2
456,0.0853799410717,-2.25781833507e-05,-5.29780136427e-06,-0.0313687819559,1.99315673717,0.448058728902,1000,1.27459197078,5.44540552996,1.38127354528,1.4410874081e-05,0.0966335592183,2
457,0.108393240874,-8.20818135683e-06,-1.06865516436e-06,-0.0416778031419,0.950940720421,0.382207876789,1000,1.19438864725,9.23117488012,1.48729125621,1.02956564019e-05,0.162158864796,2
458,0.111562186707,-4.48380438334e-05,-3.80850526116e-05,-0.0434964496661,5.45009170997,0.379425621592,1000,1.2631663992,1.48663205432,1.48774480841,1.0360587371e-05,0.170406530999,2
459,0.101546231865,-2.44199083177e-05,-5.59338686479e-06,-0.0418856452107,2.19769418309,0.431339140721,1000,1.12835169884,4.92568589698,1.34179527989,1.25189803176e-05,0.130233007274,2
460,0.0830575650713,-3.14912225463e-05,-1.46428499881e-05,-0.0315070932246,3.53542701555,0.475331560089,1000,1.39810708463,3.00595825361,1.31935277178,1.24109408353e-05,0.0873533443575,2
461,0.0986170968101,-1.81216638917e-05,-2.79669343239e-06,-0.0345316603054,1.55885562528,0.375058664411,1000,1.03183250752,6.70277573865,1.55771722998,1.19771457775e-05,0.143368535865,2
462,0.0816250045325,-2.64435320863e-05,-5.5479121297e-06,-0.0269440491815,2.28638037797,0.420930211641,1000,1.10443670494,5.2616681944,1.50318764651,1.27545492928e-05,0.0961435728347,2
463,0.0782756539579,-2.60342598868e-05,-5.11590270147e-06,-0.0253419531293,2.39154603193,0.431149852325,1000,1.06934723483,5.43286814299,1.50086570175,1.16175488042e-05,0.0881442832777,2
464,0.102423320436,-1.92357935136e-05,-5.6388614611e-06,-0.0394287159428,2.20616070628,0.399792507254,1000,1.22350644047,4.17625374393,1.44395057166,1.06611001892e-05,0.142348543188,2
465,0.119437089855,-1.05273906259e-05,-2.20552243135e-06,-0.0470571406004,1.08907052213,0.365689127575,1000,1.3565198463,6.46869788715,1.52361282123,1.31082610402e-05,0.19602776473,2
466,0.114495902075,-1.26192264971e-05,-2.56932003451e-06,-0.0439880992731,1.44004524523,0.36703481459,1000,1.17773132582,5.7750052965,1.52981533425,1.03243908563e-05,0.183308974566,2
467,0.122187855697,-2.2623657947e-05,-3.93356056061e-06,-0.0521879361425,1.61906270461,0.39055457417,1000,1.0417803682,5.98114926447,1.42149404683,1.4560116579e-05,0.189895391415,2
468,0.0869465896696,-1.09594001929e-05,-1.54613946646e-06,-0.0274721922268,1.21632011782,0.37866119206,1000,1.15328379586,8.2645404978,1.62096969087,1.03691167372e-05,0.117564153603,2
469,0.0873124517283,-5.21139942311e-05,-2.18278510544e-05,-0.0299809399035,4.55837733899,0.409869539311,1000,1.07079273883,2.55845820412,1.49433831145,1.21989074816e-05,0.109165928842,2
470,0.085058408227,-2.6307107881e-05,-7.36689986791e-06,-0.0264608806044,2.35109768249,0.380781767786,1000,1.18378420893,4.23071509146,1.62821953591,1.3213548044e-05,0.113058872765,2
471,0.0908811826103,-1.79397650901e-05,-4.20640869359e-06,-0.0347711982325,1.87271624866,0.440016916578,1000,1.28417755059,5.47677431281,1.36852378416,1.22786119544e-05,0.108088041876,2
472,0.100930915333,-1.57797172551e-05,-2.59205726327e-06,-0.0389203316503,1.56652027053,0.405233190068,1000,1.09994779256,6.6826168215,1.43099754468,1.10687902195e-05,0.137396523647,2
473,0.1074850185,-1.23918529604e-05,-2.16004783504e-06,-0.0460917129401,1.45498793265,0.428963793046,1000,1.19401136831,6.79999230624,1.3279539112,1.01629414885e-05,0.142655497077,2
474,0.100477989392,-2.48973926198e-05,-8.93577656313e-06,-0.0389103726935,2.30010286578,0.40844768219,1000,1.34633536088,3.75449514495,1.42162455911,1.45550888933e-05,0.135347622617,2
475,0.111019075331,-8.3900801584e-06,-1.29602856225e-06,-0.0458803011079,0.975850436626,0.403604923332,1000,1.31693274522,8.51276839744,1.4004378423,1.12988056035e-05,0.159173271593,2
476,0.112567839377,-1.52112837604e-05,-1.97814903347e-06,-0.0434676187132,1.22005902406,0.373368461148,1000,1.03364241259,7.96865754796,1.50918513696,1.28892931818e-05,0.175662116515,2
477,0.104422692268,-0.0001067518339,-9.99078932085e-05,-0.0424043977325,9.35738690844,0.415342259044,1000,1.07476808566,1.14832165256,1.38152296971,1.21935975508e-05,0.140771950679,2
478,0.109036701487,-9.18588718979e-06,-1.63708865908e-06,-0.0382491024944,0.998544262155,0.347158737254,1000,1.29672684172,7.33283459552,1.63505982952,1.19256096144e-05,0.180115867979,2
479,0.0866838213447,-3.55612073122e-05,-9.68610885943e-06,-0.0269056912809,2.6504202295,0.373052298368,1000,1.08367595767,3.97778495129,1.6473566012,1.45059643853e-05,0.118703886661,2
480,0.114740409288,-1.87583094891e-05,-4.13819686851e-06,-0.0433176886612,1.74185830456,0.360132234191,1000,1.10330278466,4.99448977344,1.55843305382,1.18777353806e-05,0.187400576605,2
481,0.0852028352091,-2.34194653947e-05,-6.86667833705e-06,-0.0290025519567,2.55880619221,0.415960919459,1000,1.21342692923,4.13849854699,1.48933087093,1.10794024406e-05,0.103768292085,2
482,0.0805410350087,-2.12594172821e-05,-5.13863979146e-06,-0.0294316511276,1.97184620622,0.472380821167,1000,1.35488503647,5.6200548656,1.34880732717,1.45826464902e-05,0.0839687527567,2
483,0.102809842654,-1.22781662615e-05,-2.06909836487e-06,-0.0431535022943,1.43896581252,0.434609180176,1000,1.19349431915,7.12558899655,1.32684265279,1.01689910681e-05,0.131712904161,2
484,0.125954238856,-1.54159193744e-05,-4.36557012762e-06,-0.0567758093659,1.60433568091,0.404323719014,1000,1.34869642086,4.75431630275,1.36752007522,1.29529648712e-05,0.191987785468,2
485,0.107336503014,-2.3419465256e-05,-3.59250060256e-06,-0.0440716817526,1.72138691806,0.411160520274,1000,1.00598973989,6.54223302874,1.38589148995,1.36765059683e-05,0.148496916782,2
486,0.0704795166715,-1.47565368258e-05,-2.45563319679e-06,-0.0201167521313,1.34347001025,0.427142577201,1000,1.34601461769,8.02856885875,1.61546189344,1.47845442853e-05,0.0760240014985,2
487,0.0889213691615,-1.46655874944e-05,-2.79669329362e-06,-0.0327993702164,1.39408161175,0.432802357071,1000,1.33993429649,7.01374757845,1.40414715722,1.407799153e-05,0.106361671487,2
488,0.0864550174221,-3.86534862451e-05,-9.20862469611e-06,-0.0305139487407,2.76458275521,0.425272021319,1000,1.0606381409,4.44723546597,1.44677729124,1.47993000679e-05,0.103706835188,2
489,0.058902308883,-0.000155796286636,-0.000145246158642,-0.0153705587762,12.2934832763,0.490259490974,1000,1.16544546729,1.25015428245,1.61309965712,1.4489990786e-05,0.0501877363716,2
490,0.0707667125581,-2.88991651443e-05,-9.50421005785e-06,-0.0239756888171,2.89178519365,0.504603003886,1000,1.39523216753,4.23476707365,1.36353441499,1.3895021787e-05,0.0646957471377,2
491,0.0707120793956,-1.35969321913e-05,-2.31920926907e-06,-0.0197914489392,1.26939951704,0.417248739931,1000,1.3773662241,8.09866962495,1.65016541709,1.47323499749e-05,0.0782164230357,2
492,0.0942585814482,-1.35287202274e-05,-1.6598261654e-06,-0.037514868156,1.18303262228,0.443071087682,1000,1.16173358294,9.48090492696,1.33985262921,1.32581391511e-05,0.113407602436,2
493,0.105484277037,-6.14590431325e-05,-7.02356582616e-05,-0.0352919743782,6.27639480992,0.339520421851,1000,1.30889293154,1.14555634769,1.68562225209,1.2772311379e-05,0.174979652454,2
494,0.107754951671,-1.07547640238e-05,-2.16004769626e-06,-0.0380383727827,1.19023090185,0.352457629987,1000,1.27921340022,6.36807066917,1.61519735539,1.15351833416e-05,0.174281151797,2
495,0.0788493412053,-1.84172493922e-05,-2.1373104675e-06,-0.0274397460361,1.48685109269,0.459889696999,1000,1.07501611081,9.24664557096,1.40145759668,1.32956466995e-05,0.0835679935363,2
496,0.11314953833,-4.00632013675e-05,-2.15095280476e-05,-0.0495122508809,3.69535586006,0.421551509588,1000,1.28080951393,2.38792084793,1.33500181875,1.38607934448e-05,0.156682307881,2
497,0.112460064454,-1.55978185923e-05,-3.81987400044e-06,-0.0434132082469,1.54061820565,0.373514457639,1000,1.26338782017,5.16662387236,1.50888054809,1.27888438628e-05,0.175327471273,2
498,0.112217573586,-1.43700018551e-05,-3.3196523308e-06,-0.0425603304433,1.41521049405,0.36753637768,1000,1.27255017607,5.50088217411,1.53415271522,1.29086235809e-05,0.177608105311,2
499,0.0660207927925,-3.16503839803e-05,-7.45784919931e-06,-0.0205037644772,3.14482505676,0.502776899512,1000,1.14958608695,4.87193193039,1.43676737275,1.15263468244e-05,0.0585074547085,2
500,0.10434258357,-1.99633889975e-05,-5.43422543076e-06,-0.043492925378,2.01040117148,0.426587012918,1000,1.26885154479,4.67249593923,1.34597098777,1.25783892179e-05,0.137171373019,2
501,0.118524925589,-1.39607297944e-05,-1.59161420155e-06,-0.0494902638681,1.04035710239,0.38955008375,1000,1.06072983305,9.2605438311,1.43213230233,1.42230021927e-05,0.181913706979,2
502,0.122129853214,-9.25409929242e-06,-1.34150329734e-06,-0.0560471911516,0.847822177828,0.419765195568,1000,1.36538281549,9.37239688723,1.32272421919,1.4900322349e-05,0.176588797221,2
503,0.110545595269,-2.51929779815e-05,-6.6393046616e-06,-0.0397981523213,2.08208422075,0.352696849591,1000,1.10083324354,4.17734563591,1.60403477147,1.32983247057e-05,0.180923841174,2
504,0.0975381967865,-1.87810469954e-05,-3.04680419783e-06,-0.0337241435046,1.51626205284,0.373768638416,1000,1.07490658114,6.62860903168,1.56890104924,1.32875603152e-05,0.141502631353,2
505,0.112016327682,-1.89174707843e-05,-3.84261136799e-06,-0.0433499529538,1.65116701694,0.37551227444,1000,1.11530284679,5.50049592766,1.50213733063,1.27639430605e-05,0.173358271638,2
506,0.0972613338976,-2.98086588746e-05,-9.14041259348e-06,-0.0391902694079,2.48318235182,0.436632894813,1000,1.24881933184,4.07289637968,1.34420009834,1.49635363959e-05,0.120563121972,2
507,0.0965240033035,-2.20324872235e-05,-8.34460556209e-06,-0.034946207576,2.33885205344,0.394865597482,1000,1.36199968744,3.59955570243,1.49040235751,1.28013107905e-05,0.131825401496,2
508,0.0741407253302,-3.3628532875e-05,-1.57342426588e-05,-0.0235634152812,3.85312340626,0.448922838953,1000,1.342603567,2.86829989564,1.48776301866,1.16758185149e-05,0.0779803023703,2
509,0.0980040725488,-3.38559062729e-05,-1.60753026168e-05,-0.0383821386989,3.34367889407,0.421678770507,1000,1.31312753085,2.76596559987,1.38820740957,1.32657060586e-05,0.126251382019,2
510,0.0705541209307,-1.70075338535e-05,-2.27373439521e-06,-0.020640211283,1.51514992383,0.437251737127,1000,1.14356234648,8.5712577721,1.57699697846,1.28059402633e-05,0.0743853477011,2
511,0.112504918882,-1.85309362299e-05,-3.50155140993e-06,-0.0395414022242,1.53690735729,0.339969097876,1000,1.0614207714,5.60981332653,1.65762724795,1.27944854132e-05,0.192743423856,2
512,0.0908768605389,-8.53332549067e-05,-0.000103955140329,-0.0283508314423,7.68579220619,0.358804441466,1000,1.301945938,1.06853520696,1.67752833423,1.43685307298e-05,0.132236201678,2
513,0.0660251967661,-3.9472030644e-05,-1.52567583567e-05,-0.017432426678,4.01677235323,0.427413970149,1000,1.19890936021,3.10542512488,1.68995082483,1.17175831544e-05,0.0688022376613,2
514,0.0656913970897,-1.80307144215e-05,-3.20596563186e-06,-0.0223602004686,1.9792083311,0.554469661759,1000,1.32149799528,7.45655822692,1.30775052658,1.20132395341e-05,0.052681691524,2
515,0.0767931599271,-4.47698320083e-05,-1.88492586817e-05,-0.0238119571971,3.80211315089,0.421451942755,1000,1.23131328151,2.92447889161,1.55186131695,1.44420271075e-05,0.0875401249908,2
516,0.0662946082359,-1.6166252087e-05,-2.02362362978e-06,-0.0203131118408,1.518404752,0.493512500158,1000,1.19269844265,9.54715567916,1.45947631825,1.26705617749e-05,0.060020419442,2
517,0.0990464088438,-1.08911885066e-05,-1.63708893663e-06,-0.0332057547803,1.07978752363,0.357800769592,1000,1.19720357716,7.94151266961,1.63055783234,1.20778956993e-05,0.151287148796,2
518,0.062968160734,-2.53066646805e-05,-6.88941542704e-06,-0.0176592999046,3.09214742642,0.482073592097,1000,1.23377586436,4.53166432633,1.55389517865,1.00515770761e-05,0.0568432164178,2
519,0.0967818858709,-6.49833316324e-05,-7.35325732248e-05,-0.0343616077034,7.28295084837,0.386347005775,1000,1.31730862374,1.16385282001,1.52140292181,1.16922041225e-05,0.135090236807,2
520,0.0695088738622,-7.91032224445e-05,-6.82347717218e-05,-0.0188533288298,8.16694723229,0.41257821646,1000,1.21633075687,1.4098695608,1.68730804748,1.16661533959e-05,0.0768589346686,2
521,0.0718959287251,-2.58296237177e-05,-4.4565195978e-06,-0.020022710473,2.32425811141,0.407287713808,1000,1.00932342569,5.83628774324,1.67215602343,1.11950961906e-05,0.0821301510164,2
522,0.0710416310334,-1.66664737566e-05,-3.47881376483e-06,-0.0207449849682,1.76458716834,0.432975229103,1000,1.31553854838,6.31145835651,1.58529673849,1.23960415817e-05,0.0758938985205,2
523,0.0881451595335,-4.74528387417e-05,-1.90084203933e-05,-0.0269970271954,3.84685465209,0.362333459279,1000,1.07012071762,2.6707106695,1.68336406877,1.3158554773e-05,0.125280603399,2
524,0.100154392485,-3.63797518499e-05,-1.12322484647e-05,-0.0351083930565,2.80146270575,0.370704576567,1000,1.0792664724,3.49447434814,1.56793406379,1.39879392025e-05,0.148388693735,2
525,0.110541463927,-1.9304005755e-05,-3.61523783132e-06,-0.0384892770675,1.52983013134,0.341119243727,1000,1.06565265659,5.68207268683,1.65854586146,1.3431928395e-05,0.187081174562,2
526,0.10600237461,-3.20596561798e-05,-7.50332379562e-06,-0.0382233410826,2.23253427548,0.36454605304,1000,1.02944307635,4.39654368586,1.56817951617,1.47616996673e-05,0.164338204844,2
527,0.108786512632,-1.63026761535e-05,-2.31920926907e-06,-0.046573176216,1.44042177566,0.424408843498,1000,1.07174239157,7.52585949503,1.33815348267,1.21289350937e-05,0.146806387982,2
528,0.0641215231973,-7.94442826801e-05,-4.30417936015e-05,-0.0169416410903,7.47138914004,0.443719511281,1000,1.06632771834,1.96768475289,1.66374168275,1.12236676313e-05,0.063318606551,2
529,0.0907035976195,-1.52340209891e-05,-1.77351286434e-06,-0.0333897453743,1.37430737498,0.424117214313,1000,1.03873739775,8.90508613735,1.42102882483,1.14984256604e-05,0.111833200225,2
530,0.0684266650001,-6.33007678219e-05,-2.72166017501e-05,-0.0201981973001,5.18133483916,0.457465009287,1000,1.14171293899,2.65486900685,1.53856669774,1.38596321986e-05,0.0677614115131,2
531,0.0821693847863,-1.54386571583e-05,-1.68256367172e-06,-0.0252485026421,1.30013929309,0.389205726663,1000,1.01537296,9.2836679288,1.62035110799,1.20319491e-05,0.105067942568,2
532,0.0942933819117,-1.04364411557e-05,-2.43289582924e-06,-0.0295860831735,1.27637053685,0.349187704217,1000,1.36621356307,5.88742857649,1.69989800339,1.11742876068e-05,0.143986215793,2
533,0.0992491782611,-2.79214594501e-05,-5.25232662918e-06,-0.0412261485246,2.13838995825,0.442564590589,1000,1.05521790012,5.61787541825,1.31724834475,1.37521686087e-05,0.122638368653,2
534,0.0846058607438,-5.6183978997e-05,-2.6034259748e-05,-0.0258763034697,4.38871049897,0.376315925892,1000,1.10924398894,2.39249609719,1.65142760628,1.41501810868e-05,0.113384109245,2
535,0.0769385835984,-1.51430717965e-05,-2.27373453399e-06,-0.0275751469245,1.35432584184,0.486136710139,1000,1.32485364548,8.81554087496,1.34418202821,1.48098313822e-05,0.0761958373868,2
536,0.104459959767,-1.54386571583e-05,-1.70530090049e-06,-0.0416683216693,1.18952081457,0.407873200437,1000,1.03238925678,9.27936501108,1.40734779768,1.33895243146e-05,0.143737114335,2
537,0.0932916755147,-5.53199597242e-05,-2.26009205795e-05,-0.0329250167835,4.19521348914,0.396472900386,1000,1.06698049404,2.61243631831,1.50286278635,1.40266744744e-05,0.124653343949,2
538,0.111807809623,-7.9580705914e-06,-1.38697803242e-06,-0.0413075482189,0.982174647185,0.35896874152,1000,1.30976936514,7.53695347853,1.57208849625,1.05962070369e-05,0.18088000647,2
539,0.102952695116,-4.88852913705e-05,-2.48064432884e-05,-0.0344405972394,4.560122794,0.345995858491,1000,1.03991048747,2.0489753275,1.66570887632,1.11161450921e-05,0.165659498546,2
540,0.0967394392226,-2.287376899e-05,-3.72892466904e-06,-0.0389083490697,1.78282922639,0.437823331238,1000,1.07669126959,6.6186140763,1.34314322881,1.37983694915e-05,0.119304353043,2
