zdelrosario/hyperspace/scripts/as_data1.csv
,F,G1,G2,G3,G4,G5,N,Q1,Q2,Q3,Q4,Q5,bnd_idx
0,0.0253618818309,-0.0032599440743,-0.016021460746,-0.00493520890231,171.541540806,1.87809972431,1000,1.20655945108,0.245440331273,1.31138969059,1.08576082811e-05,0.00134263849085,1
1,0.026225490936,-0.00386832720935,-0.0342601081962,-0.00401334599456,-43.6915502897,1.35774226432,1000,1.33355874505,0.150507839082,1.65744523187,1.36077193088e-05,0.0010949694771,1
2,0.0281368343501,-0.00433414719239,-0.031738400233,-0.00541030572211,-20.6665544022,1.43206618798,1000,1.22169103645,0.16676750345,1.37275696106,1.39280088093e-05,0.00148274161121,1
3,0.0331721452588,-0.00746121422375,-0.116247017272,-0.00597175897746,284.31334851,0.921109483196,1000,1.09294146473,0.0700821161188,1.54141936892,1.36449637864e-05,0.00113811941425,1
4,0.0248876993184,-0.00323966236282,-0.0182243001856,-0.0047405317562,176.656551674,1.93128526146,1000,1.27412253151,0.226432290711,1.31939381497,1.06893461878e-05,0.00109348371307,1
5,0.0248911251496,-0.0029526033846,-0.0181401265351,-0.00408492315591,151.029425152,1.66498984465,1000,1.39772716046,0.227439542807,1.53151581419,1.36740952913e-05,0.00127098088611,1
6,0.0237699729638,-0.00222102931539,-0.00916346828,-0.00407878407285,131.237015583,1.96670313252,1000,1.36526142307,0.330851254356,1.46119913228,1.17861217141e-05,0.00147643835736,1
7,0.0237073865714,-0.00290637836263,-0.00940527994202,-0.00361421464382,132.373586806,1.76151758132,1000,1.13745263116,0.351435933875,1.63211108488,1.26908072462e-05,0.00146123468628,1
8,0.0330009660329,-0.00784374731277,-0.105699481339,-0.00577510368222,249.143463458,0.905493815842,1000,1.03885859191,0.0770250975379,1.58060291828,1.44523993456e-05,0.00107978015045,1
9,0.0255866556501,-0.00388215151498,-0.015275584887,-0.00476724813632,159.502151974,1.758437285,1000,1.11022901796,0.282096950676,1.36572124961,1.3506855683e-05,0.0012438176111,1
10,0.0254113753916,-0.00319618855944,-0.0178492022083,-0.00491404043429,172.975068119,1.85716915714,1000,1.27227110727,0.227757349237,1.31735867777,1.11196830175e-05,0.00128760254343,1
11,0.0254999721492,-0.00429490253528,-0.0204533330464,-0.00475869889466,-29.2275109656,1.77678573109,1000,1.04817346405,0.220042016968,1.3552038273,1.02640420054e-05,0.00108913846127,1
12,0.0228897990823,-0.00279607950293,-0.00924425406616,-0.0033239724374,131.116616067,1.84777281297,1000,1.17694725261,0.355931436866,1.67970565159,1.23908370839e-05,0.00123055967114,1
13,0.0266604314402,-0.00376782814535,-0.0301308926925,-0.00511583436953,-0.483428133052,1.63148607149,1000,1.25491561241,0.156858878718,1.34703123721,1.0255504982e-05,0.00131882932641,1
14,0.0238145859626,-0.0026308926929,-0.0123889652771,-0.00379104297434,141.666420392,1.81663547445,1000,1.32490635796,0.28129375132,1.56070708139,1.21228447178e-05,0.0013282976681,1
15,0.0248522314638,-0.00408676488092,-0.0159518389962,-0.00410045276251,157.766616606,1.68088188443,1000,1.08366459954,0.277572826792,1.5118493595,1.37426018493e-05,0.00104687842793,1
16,0.0240915015453,-0.0025915798238,-0.0118442239701,-0.00382539910238,137.831408804,1.7565821223,1000,1.31380873999,0.287407133528,1.5780313986,1.2484332598e-05,0.00148768056352,1
17,0.0276628311648,-0.00473391518881,-0.0346573068726,-0.00521374137627,41.0294382346,1.4628991644,1000,1.08141104824,0.147647347475,1.39106235712,1.02408444272e-05,0.00145198567873,1
18,0.0245110284057,-0.00422846401376,-0.0168718147044,-0.00391189196199,169.724514931,1.68658907166,1000,1.03204141547,0.258597857843,1.55233868145,1.18897096595e-05,0.00100662050554,1
19,0.0262700923661,-0.00353863570959,-0.0264816625377,-0.00442591511607,172.392549668,1.48758073409,1000,1.33688776474,0.178577588582,1.52066633803,1.35526907003e-05,0.00133763942536,1
20,0.0264849520231,-0.00357392406877,-0.027957270741,-0.00467025062335,-32.0191841577,1.52490672312,1000,1.27782586591,0.16328443643,1.46495622547,1.11989548277e-05,0.0014844179881,1
21,0.0325961460054,-0.00693036543438,-0.0830332362092,-0.00666590737691,197.464812178,1.08652596314,1000,1.11542280305,0.0930321805699,1.35173617594,1.47202802523e-05,0.00117571713226,1
22,0.0231766218808,-0.00223228430112,-0.00782342012649,-0.00363665640307,123.965459146,1.9277448295,1000,1.29342704527,0.369000229635,1.58039499769,1.19426563602e-05,0.00147112964443,1
23,0.0276844624742,-0.00439985811895,-0.045237766481,-0.00440529234438,-2.49831660145,1.23364870304,1000,1.29459653251,0.125847179678,1.62950949131,1.38030672259e-05,0.00119735453702,1
24,0.0237978833297,-0.0034801552588,-0.0126734321979,-0.00358556558933,151.129962642,1.72343700802,1000,1.08007516692,0.296534730375,1.63812355879,1.18432327053e-05,0.0012184900595,1
25,0.0280298920364,-0.00494484953661,-0.0447111241006,-0.0046947842184,37.6671346517,1.25967486835,1000,1.14263906571,0.126305466461,1.5613512565,1.19521960039e-05,0.00132889150895,1
26,0.0281381614266,-0.00515928543547,-0.0350760378146,-0.00532506341643,-4.43442865124,1.40949066485,1000,1.14490934202,0.168340725007,1.37810064019,1.49365637527e-05,0.0010116527462,1
27,0.0260128590272,-0.00392144164685,-0.0197578658808,-0.00497640897122,165.486076636,1.73072018884,1000,1.21923217834,0.241926841983,1.32990187506,1.44613550449e-05,0.00105531145577,1
28,0.0318383945676,-0.00592896729448,-0.0970623371165,-0.00550361978532,166.019411844,0.96748298005,1000,1.25030938041,0.076305862666,1.58434111566,1.44066475256e-05,0.00134764498152,1
29,0.0237235927799,-0.00290910684399,-0.00875537841543,-0.00386250644906,136.345439033,1.87680512811,1000,1.10646907961,0.367586967954,1.53184734499,1.17984344748e-05,0.00142631711887,1
30,0.0253972500185,-0.00392887675855,-0.0134441827121,-0.00488036642671,152.272358127,1.84831675847,1000,1.09847168504,0.320959877977,1.31820386446,1.44252059427e-05,0.00113821061037,1
31,0.0224976033083,-0.00216314003553,-0.00724607346712,-0.00324948489575,126.809254104,1.92807136051,1000,1.23236976048,0.367838414566,1.69703641858,1.03111201982e-05,0.0014642407188,1
32,0.0230678782192,-0.00247925734043,-0.00786587074929,-0.0037473190603,131.02388881,2.02118883651,1000,1.20686424248,0.380337550925,1.51877243373,1.13208081492e-05,0.0013236067404,1
33,0.0243769062816,-0.00308391155092,-0.0136778771421,-0.00406495976726,156.886679293,1.78721164497,1000,1.18519415858,0.267162574744,1.50449451983,1.11119044292e-05,0.00136724769441,1
34,0.023249261281,-0.00264296622296,-0.0098086859136,-0.00400827556663,133.198387263,2.09876083535,1000,1.31986454648,0.355583797147,1.42104952071,1.30463583253e-05,0.00104250054179,1
35,0.0241182802007,-0.00332258545923,-0.0112302247109,-0.0036392939351,133.815035173,1.66503643347,1000,1.12767113042,0.333579718148,1.64896256835,1.44535377607e-05,0.00134495495114,1
36,0.0253244573164,-0.0032113543685,-0.023508345432,-0.00468412040371,183.633128557,1.7928130126,1000,1.36638421785,0.186590298087,1.36504411528,1.09204555183e-05,0.00111188560515,1
37,0.0294892704321,-0.00630019992318,-0.051790510093,-0.00469778554793,62.6156894662,1.06190225999,1000,1.00047546448,0.121641408001,1.67239176669,1.36925927635e-05,0.00145873860046,1
38,0.0258236112383,-0.00354397898562,-0.0216026603517,-0.00462643575987,176.429399051,1.65174081657,1000,1.24139918443,0.203591034825,1.42539155773,1.19049093383e-05,0.00132140600597,1
39,0.0281723764011,-0.00434824434618,-0.0660592398771,-0.00463227925754,102.667267867,1.22164017902,1000,1.3226130037,0.0869899813274,1.59222605074,1.00271905759e-05,0.00132533066167,1
40,0.0277210166668,-0.00456061114658,-0.0479706361654,-0.00466256540075,65.1295565881,1.29946328909,1000,1.18121942495,0.112232280105,1.55245159096,1.00889562924e-05,0.00141927533293,1
41,0.0260772421859,-0.00391057319603,-0.0272613943033,-0.00452370843607,-30.0386424158,1.56036674921,1000,1.21021840566,0.173537646329,1.47029981035,1.13254767469e-05,0.00122320380887,1
42,0.0229741099344,-0.00249360460496,-0.0111768601627,-0.00370707395992,136.793198653,2.03076198627,1000,1.39306129442,0.310739508434,1.50837047766,1.23119128281e-05,0.00103372835131,1
43,0.0245622303005,-0.00298125243901,-0.012449764937,-0.00417480388003,141.386975263,1.78527765189,1000,1.24913591281,0.299063000468,1.48029437847,1.34238868906e-05,0.00136628571561,1
44,0.0240467645847,-0.00341210238577,-0.0139475420514,-0.00364145398286,164.388822989,1.6842370525,1000,1.0599219151,0.259238383555,1.64506155355,1.00581031988e-05,0.0013999573177,1
45,0.0303570582292,-0.00483962110481,-0.0857832498516,-0.00552790326951,147.749055233,1.13457831732,1000,1.38139613904,0.0778648834921,1.47905945829,1.21888679178e-05,0.00131034799517,1
46,0.0267825295539,-0.00453901066913,-0.0285627434959,-0.00482868444195,-25.0939828773,1.51608526998,1000,1.14766882383,0.182317425534,1.42342854354,1.29604112397e-05,0.00109239732999,1
47,0.0243392105856,-0.00231145573574,-0.00898829977565,-0.00457154780954,126.795206995,2.01930864,1000,1.38697792888,0.356621329973,1.3478079828,1.34504376875e-05,0.00145200191319,1
48,0.0241367762554,-0.0032123548117,-0.0183833706498,-0.00369495495523,167.284568164,1.68569574412,1000,1.24165161483,0.21690679481,1.61726090643,1.08851241105e-05,0.00117101478723,1
49,0.0293070405519,-0.00578729089901,-0.0515132054357,-0.00484078070937,42.3757242088,1.11705801081,1000,1.10221258759,0.123764258423,1.6044467685,1.47172519194e-05,0.00123891012799,1
50,0.0254280586023,-0.00462598101297,-0.0184940787817,-0.00445731538921,176.414548837,1.68185904456,1000,1.01233746619,0.253163021461,1.43470928103,1.252070572e-05,0.00101187300363,1
51,0.0242706919153,-0.00317092736939,-0.010224938485,-0.00416145705857,140.007541413,1.85869772062,1000,1.12465454856,0.348720337701,1.46238271848,1.28794451309e-05,0.00134557853103,1
52,0.022443968122,-0.00229053737845,-0.00906140033917,-0.00338461293593,130.479499045,2.0260644281,1000,1.34554029618,0.340064840039,1.60720926326,1.1433351478e-05,0.00115291221546,1
53,0.0239605884631,-0.00271622594798,-0.0147173375973,-0.00425718128028,163.854234065,1.99291208334,1000,1.33036158447,0.245467161909,1.39925212848,1.00627311584e-05,0.00116644562988,1
54,0.0238519845384,-0.00313577543435,-0.0110450972495,-0.00356542030178,134.173486731,1.69945010969,1000,1.15715472696,0.32846841836,1.65822470697,1.37761304824e-05,0.0013345159649,1
55,0.0300146080322,-0.00516415122716,-0.109692682046,-0.00496151601029,226.289078993,1.05749207912,1000,1.33010785238,0.0625507129906,1.61224852002,1.03356916472e-05,0.00106612679715,1
56,0.0260795355882,-0.00390911800589,-0.0386787246245,-0.00435033618188,14.7201748105,1.50048667837,1000,1.29084101364,0.130394601832,1.51900499728,1.00671399757e-05,0.00103596371046,1
57,0.0270024949477,-0.00469367008846,-0.0303829361597,-0.00457386701874,0.121452346803,1.39597597363,1000,1.05495000482,0.162908331095,1.53066223074,1.10385424893e-05,0.00146174455589,1
58,0.0251539466003,-0.00378488115391,-0.0143961498645,-0.00396205054466,144.329885582,1.55514418575,1000,1.10309751429,0.289957986932,1.60393727827,1.49882449779e-05,0.00139375742278,1
59,0.0262557074416,-0.0043681622602,-0.0311984565059,-0.00418612707768,-18.7435995452,1.41014934299,1000,1.1447924043,0.160221195627,1.59728762478,1.16111452725e-05,0.00118998483782,1
60,0.0265500911054,-0.00392435202688,-0.0274010016003,-0.00504948679734,-36.0807552924,1.63409527276,1000,1.27733889406,0.182876247429,1.34774054594,1.28551359365e-05,0.00109136013375,1
61,0.0234208743536,-0.00292497751068,-0.00919398179679,-0.0039013190967,132.667863004,1.9880588653,1000,1.18746119305,0.377726133565,1.47759745632,1.31618693823e-05,0.00114290967629,1
62,0.0232131694455,-0.00286376857842,-0.0124172277966,-0.00348386144607,145.655830374,1.83695349756,1000,1.24345878684,0.286718884965,1.62819168259,1.15629730609e-05,0.00114043377144,1
63,0.0270204023825,-0.00439640204252,-0.0244479889435,-0.00456647738168,173.032452425,1.39050843802,1000,1.11895318631,0.201156120599,1.53577760305,1.44245622891e-05,0.00149920216514,1
64,0.0312679835829,-0.00623787686109,-0.0939896123393,-0.0052209263772,192.321381797,0.973071091808,1000,1.14956290276,0.0762258957775,1.62866073437,1.26103619535e-05,0.00136614621669,1
65,0.0235034886838,-0.00304523532738,-0.0139343998662,-0.00346933228271,145.248616602,1.74670497424,1000,1.25426738787,0.274048842265,1.65757130074,1.26615034034e-05,0.00109762326835,1
66,0.0238915575023,-0.00309841797684,-0.00831591101504,-0.00429499348472,143.099622719,2.03168114344,1000,1.04918835964,0.39086547125,1.39195178962,1.11318486097e-05,0.00133139433749,1
67,0.0235498939356,-0.00320562455761,-0.0128609016058,-0.00364411425213,146.593886637,1.82066262201,1000,1.19111491004,0.296833123105,1.58306530989,1.24993871632e-05,0.00106334599727,1
68,0.0293325495222,-0.00444894804639,-0.0521613107121,-0.0053184923238,25.0417083158,1.22333461143,1000,1.35465347364,0.115473327586,1.47224415424,1.45613395869e-05,0.0014695002866,1
69,0.0231398492278,-0.00268537137107,-0.00942080954854,-0.00360848483288,132.397128712,1.92458674873,1000,1.23142770663,0.35095860172,1.57341493679,1.23978139602e-05,0.00122161572813,1
70,0.0264110589016,-0.00477231856418,-0.0251203322294,-0.00458046084867,-30.1591110244,1.51061598359,1000,1.04797801042,0.199032561862,1.4736399232,1.23604580631e-05,0.00115193921035,1
71,0.0367588528381,-0.00705844489766,-0.219843044106,-0.00795850269193,552.580679998,0.895060603279,1000,1.35576328077,0.0434590005567,1.33803023481,1.33488847237e-05,0.00120406181951,1
72,0.0254238082241,-0.00315603440861,-0.0277297153942,-0.00393135512918,187.719790983,1.48516086669,1000,1.33815887252,0.152232581323,1.64242940172,1.01686891786e-05,0.00149611215515,1
73,0.0242021578769,-0.00238119117233,-0.00847166182698,-0.00462520794334,122.122976313,2.0854313398,1000,1.38642884466,0.389636151342,1.31761954716,1.46013811375e-05,0.00132815312815,1
74,0.0256802712217,-0.00374897888646,-0.0283545603668,-0.00391653038036,-31.800843869,1.42753288438,1000,1.19439385138,0.157854684124,1.66611330668,1.04372836086e-05,0.00142731185965,1
75,0.025835822825,-0.00447234477417,-0.0218243039889,-0.00430743081231,169.680039821,1.53603447062,1000,1.10778649214,0.226954756976,1.51412382433,1.43519310114e-05,0.00101526190774,1
76,0.0310612630767,-0.00520771597987,-0.0930620196206,-0.00511972245546,121.316722793,0.975036121359,1000,1.35817423431,0.0759344165708,1.64592108235,1.4560763981e-05,0.00138527546461,1
77,0.0267191661787,-0.00482695640382,-0.0290897269365,-0.00444567386872,0.693083459376,1.40788445334,1000,1.01407249139,0.168205703766,1.55022711966,1.0680996281e-05,0.00141202772408,1
78,0.0244942855481,-0.00384543070314,-0.0132474819422,-0.00402119037853,163.24778024,1.73748964208,1000,1.00041762302,0.290341880535,1.52597418899,1.10657193223e-05,0.0013087370942,1
79,0.0237738193859,-0.00269553496416,-0.0122191855233,-0.00377603632678,136.073294503,1.82104754252,1000,1.34352995852,0.29632187602,1.55786100525,1.34106003664e-05,0.00123240373763,1
80,0.0327735741358,-0.00659437569023,-0.0993682904147,-0.00694587230371,287.659670675,1.11271463225,1000,1.15881685646,0.0768342382558,1.31081952516,1.22242665702e-05,0.00131198733182,1
81,0.0242901373315,-0.00334948373818,-0.0158486569254,-0.00384597639937,169.001002092,1.71381140321,1000,1.12966793045,0.23868590628,1.57668097853,1.0199986975e-05,0.00132151871111,1
82,0.0241107675092,-0.00255685989822,-0.0107909619466,-0.00455469943702,143.027682829,2.0826029278,1000,1.33700965209,0.316737427237,1.32660774476,1.18464266282e-05,0.00124938696351,1
83,0.029483449449,-0.00575534492956,-0.0628361530388,-0.00470146899779,63.9656604602,1.06347513856,1000,1.16078867037,0.106254755345,1.658571147,1.46854413401e-05,0.00104745152608,1
84,0.0389229978484,-0.00974488492421,-0.264624813137,-0.00764977502433,715.802093277,0.726618396651,1000,1.09242287034,0.0401591181459,1.50527221755,1.402101592e-05,0.00119523952659,1
85,0.0268965856893,-0.00485687874953,-0.0279411499635,-0.00466156495762,-40.0274641185,1.44235656454,1000,1.1177092478,0.194225658691,1.47786325621,1.47647075542e-05,0.00100813855522,1
86,0.0384160584641,-0.00932087891793,-0.245500227783,-0.00748861272409,660.985586224,0.739097379076,1000,1.10282454812,0.041800954891,1.51290328921,1.3894002229e-05,0.00141935903397,1
87,0.026681618496,-0.00356939933718,-0.0285791825962,-0.00455094777516,173.051010305,1.44817350494,1000,1.36622305716,0.170568665538,1.51153583685,1.41210828826e-05,0.00137632573643,1
88,0.0233383972433,-0.00294926099494,-0.0114985708544,-0.00347756320157,150.833643926,1.79709718311,1000,1.13414376067,0.290837915733,1.65333673719,1.03011563632e-05,0.00132787726041,1
89,0.0266828517628,-0.00431338799664,-0.0319427407508,-0.00414151640721,-20.2424550957,1.3182188246,1000,1.13747426577,0.153533817277,1.66007371411,1.17021552156e-05,0.00148729506135,1
90,0.0230945712071,-0.00294564575707,-0.015095368692,-0.00330250838385,153.611609109,1.77584415491,1000,1.27355292541,0.248455563204,1.69612216909,1.11574689875e-05,0.00103387856307,1
91,0.0242527949283,-0.00361560162185,-0.0101686408193,-0.00381023329339,138.088835315,1.70753178058,1000,1.01769270033,0.361804230684,1.5912922609,1.35841915295e-05,0.0013865909209,1
92,0.0316539501156,-0.00563244958104,-0.1093037825,-0.00588594823832,241.477674246,1.05407952199,1000,1.30287938526,0.0670685545832,1.46939941618,1.19516798888e-05,0.0012403886123,1
93,0.0329504876041,-0.00656495356618,-0.145476419718,-0.0054387956152,300.5037208,0.856982644779,1000,1.23265228567,0.0555574969551,1.6757660347,1.29700034097e-05,0.00119029548649,1
94,0.0279735250808,-0.00400584267077,-0.0383675413235,-0.00523325001816,-21.7757789349,1.41327686477,1000,1.39808312244,0.14590332947,1.39752938704,1.49028099567e-05,0.00120735206036,1
95,0.0338919682953,-0.00676397354502,-0.190268238655,-0.00620349799564,499.599062443,0.894526866847,1000,1.24675202654,0.044252018204,1.52978720871,1.05801035608e-05,0.0011796690051,1
96,0.0318579120156,-0.00649558192713,-0.0744987056238,-0.00607603244072,148.392664092,1.06577483909,1000,1.11911859475,0.0975097851974,1.44017298607,1.46699539413e-05,0.00138661551058,1
97,0.0311672655809,-0.00533488594939,-0.109285001454,-0.00582769516078,233.06530359,1.09733470569,1000,1.36287764877,0.066461714757,1.44880308367,1.16980107163e-05,0.00106583076113,1
98,0.0342733831139,-0.00611927887063,-0.153419233642,-0.00702413424453,377.920484824,0.978005300267,1000,1.34788286585,0.0536915062547,1.38033147546,1.24833260447e-05,0.0014775359321,1
99,0.0247191677699,-0.00423119249516,-0.0135381334209,-0.00435754392021,160.189803609,1.82056005385,1000,1.00685487721,0.314629476195,1.41577227917,1.28120726909e-05,0.00104152734376,1
100,0.0273176741733,-0.0040544778513,-0.0306988260912,-0.00466986408855,-42.2251064365,1.36891575936,1000,1.25350885445,0.16548898734,1.52328357124,1.40297915443e-05,0.00147766321773,1
101,0.0319823820914,-0.00588215110155,-0.113127294403,-0.00599431442351,279.304572349,1.03839227747,1000,1.2492744468,0.0648878269019,1.46706353419,1.13294174749e-05,0.00138910992069,1
102,0.0237484314942,-0.00273230125077,-0.0141103641776,-0.0039604361932,155.993063648,1.9168322455,1000,1.3213181266,0.255794200823,1.48319694399,1.07721871641e-05,0.00117183782581,1
103,0.0258888665402,-0.00378833723034,-0.0186123129747,-0.00502283862926,168.433563686,1.77649146437,1000,1.20039201021,0.244266648783,1.31406664456,1.32856028606e-05,0.00114863632786,1
104,0.0249623615419,-0.00328763816029,-0.015725511466,-0.00422061962973,152.483257027,1.70226346958,1000,1.23824427058,0.258811730449,1.4908480727,1.33174011607e-05,0.00129682241169,1
105,0.0263228538335,-0.00359306891309,-0.0298453571164,-0.00477247772558,-26.5096495345,1.59218616261,1000,1.33100217534,0.160172431126,1.41323947561,1.1438493449e-05,0.00122607816702,1
106,0.026373852411,-0.00371685101828,-0.0440873705206,-0.00398435587988,4.75773314706,1.32140189371,1000,1.36217198415,0.114772532264,1.68811079485,1.07207749559e-05,0.00125318655641,1
107,0.032471743023,-0.00610838768234,-0.0954015787145,-0.00663277906571,231.798978586,1.09434233469,1000,1.22414387083,0.0783113679109,1.35598860673,1.30345769092e-05,0.00138260710998,1
108,0.0342484347215,-0.00773515375391,-0.147069102509,-0.00695760477357,463.294851867,0.970968478585,1000,1.1030657205,0.0579475617179,1.38529673833,1.14847450067e-05,0.00113700905056,1
109,0.0253705935354,-0.00377039746528,-0.0112489375457,-0.00496951955566,150.208960593,1.8887516474,1000,1.04533959634,0.350322315895,1.30281874831,1.33800610624e-05,0.00133205096793,1
110,0.0308225814967,-0.00653750959097,-0.0947233464563,-0.00568406335361,272.877131915,1.10983003626,1000,1.09880764609,0.075769123612,1.4610227491,1.04444810471e-05,0.00100753663968,1
111,0.0342048678702,-0.0059605494665,-0.177779183586,-0.00739579888269,499.894429066,1.03607497824,1000,1.38564388415,0.0463870307315,1.30643055842,1.0468207136e-05,0.00135161099525,1
112,0.024112263133,-0.00250208563455,-0.00955341374342,-0.00456772793561,133.298125081,2.08799963659,1000,1.34418344405,0.351988190507,1.32458544867,1.29876315226e-05,0.00127619637709,1
113,0.0235565987489,-0.00267250203394,-0.0113053034235,-0.00398258236702,139.918922816,1.9861233943,1000,1.32326435228,0.31275081386,1.45860855675,1.24139924767e-05,0.00113484298863,1
114,0.0251880502823,-0.00330187173814,-0.0151109892479,-0.00427316563363,145.374142093,1.66836188384,1000,1.24657863043,0.272327250931,1.49226449789,1.46224579699e-05,0.00134686068897,1
115,0.0262693671084,-0.00351830852341,-0.0306256345782,-0.00426250181894,-33.8338976421,1.43301695005,1000,1.30832156845,0.150234246711,1.58311502605,1.12718748048e-05,0.00148974282941,1
116,0.0242394987521,-0.00346458017757,-0.0129065127194,-0.00462216113901,164.756214689,2.07275345109,1000,1.12593859744,0.30218611461,1.30415178524,1.09446488282e-05,0.00101796072741,1
117,0.0291568324339,-0.00556537441371,-0.0478140668091,-0.00584129209294,81.7059042371,1.37051214834,1000,1.11969339025,0.130263646057,1.32232558358,1.24886688295e-05,0.00108519671232,1
118,0.0231410994771,-0.00219547253984,-0.00871363265036,-0.00350673521488,123.541331177,1.87018289917,1000,1.35950461453,0.34248123681,1.6313407898,1.24084066178e-05,0.00145096395935,1
119,0.0288676801762,-0.00561935287028,-0.0417854644696,-0.00531039782904,28.7227200972,1.2888137989,1000,1.09400935399,0.147060223794,1.43355510451,1.43818044438e-05,0.00113291537223,1
120,0.0253138541194,-0.00371282650822,-0.0182051553413,-0.00429501622202,160.776009784,1.64722222404,1000,1.18979958311,0.242590772162,1.48677409311,1.3550665042e-05,0.00118790071029,1
121,0.0225319803774,-0.00271972749911,-0.0109028978951,-0.00325917100467,140.504969557,1.92312848912,1000,1.24782094292,0.31121058731,1.66690531036,1.12860744774e-05,0.00105107493176,1
122,0.0246499351198,-0.00305096513824,-0.0195153720984,-0.0036319725101,146.57080614,1.5346651595,1000,1.39914711276,0.218674407459,1.69073040982,1.47030926587e-05,0.00121277392719,1
123,0.0260956880956,-0.00423871855629,-0.0245045594574,-0.00444519638442,179.283317721,1.52963897848,1000,1.15512264972,0.199747359571,1.49280057068,1.31377438163e-05,0.00113148957526,1
124,0.0343798554967,-0.00595636579503,-0.151012372007,-0.00720628311371,355.77391581,0.993732926307,1000,1.39443688175,0.0549303949405,1.35099475025,1.31144220842e-05,0.0014364274883,1
125,0.0242241772878,-0.00299823723564,-0.0191447079035,-0.00360373272786,151.206248617,1.62276977857,1000,1.39704517734,0.218726397954,1.66025650268,1.35012667208e-05,0.00109888021115,1
126,0.0319579780901,-0.00539714079942,-0.10168231547,-0.00597760247509,179.735717897,1.03804669257,1000,1.36995192017,0.0726457573233,1.46815787088,1.39943723155e-05,0.00132870035123,1
127,0.0278828963209,-0.00422910065936,-0.0542030560637,-0.00473293748294,45.3850167526,1.29296400098,1000,1.3587802989,0.105949198508,1.53273986776,1.17807796569e-05,0.00116197774767,1
128,0.0227252680877,-0.00274032753354,-0.00810938771214,-0.00339805070672,128.257001465,1.94053547271,1000,1.15834766649,0.391378872599,1.62897811441,1.22651003923e-05,0.00120613919265,1
129,0.026600306354,-0.00385700401159,-0.0227059445338,-0.00476167748679,168.382805701,1.5311460097,1000,1.22846092498,0.2086119453,1.44171803893,1.42445104996e-05,0.00138223727278,1
130,0.0262226492886,-0.00417803258299,-0.022321183185,-0.00454769633486,174.46307702,1.53809276876,1000,1.13773701452,0.212898119784,1.47496422548,1.33485081494e-05,0.00126409947929,1
131,0.023279115442,-0.00217062062196,-0.00882349950045,-0.00395259180917,129.694073212,2.05964557644,1000,1.39333823967,0.342707673735,1.45955486889,1.17348132659e-05,0.00132074182289,1
132,0.0264683092371,-0.0040620266498,-0.0253815161093,-0.00419563128788,169.537319668,1.37371943272,1000,1.19164927931,0.190646934336,1.61982585991,1.43501489606e-05,0.00141732039659,1
133,0.0255027267126,-0.00381939644332,-0.0282646114308,-0.00392578447962,184.544455502,1.46687076463,1000,1.24233499573,0.167813281968,1.63443804782,1.18589314836e-05,0.00113370729288,1
134,0.0230107250949,-0.00281251860329,-0.0101440844869,-0.00334123008205,143.55551917,1.82084754484,1000,1.1367643677,0.31511739567,1.68866487957,1.04753963066e-05,0.00133209565565,1
135,0.0247950219214,-0.00318322827295,-0.0189808625967,-0.00397871701835,159.543138357,1.64484405693,1000,1.31054900184,0.219725005938,1.5612139631,1.26503594681e-05,0.00123260809093,1
136,0.025824449305,-0.00461604479331,-0.0174390432453,-0.00445404121155,165.843977222,1.59042301794,1000,1.007706389,0.266681146381,1.47273829277,1.39040548828e-05,0.00119318437209,1
137,0.027923125903,-0.00535011997045,-0.0434127080254,-0.00442204976751,34.4688404629,1.20235331724,1000,1.06191088167,0.130803481437,1.6464607763,1.20968595509e-05,0.00132559324959,1
138,0.0266806010294,-0.00479198636744,-0.0306989170405,-0.00447016198907,-19.3656332606,1.42287552583,1000,1.107470421,0.172809683353,1.5251005513,1.28468089923e-05,0.00105680564077,1
139,0.0324211804296,-0.00745646211858,-0.0922969761798,-0.0061692555544,254.456431879,1.02310418705,1000,1.03350444111,0.0834277452288,1.44837633839,1.29155995278e-05,0.00119877272368,1
140,0.0226179905278,-0.00254303559259,-0.0103871239655,-0.00336217117661,134.341412981,1.95495047183,1000,1.31707662859,0.322396045622,1.62733366374,1.20026666884e-05,0.0010759421519,1
141,0.0252973641466,-0.00361159984915,-0.0167329350024,-0.0047434421363,163.058183708,1.82233465814,1000,1.20285097197,0.259561808239,1.34694300416,1.30167566657e-05,0.00111490876329,1
142,0.029293434252,-0.00560114025702,-0.0636405093486,-0.00552669819014,153.593427802,1.27681059542,1000,1.13240510106,0.0995990168241,1.40522472344,1.05786160321e-05,0.00111123091605,1
143,0.0271273761238,-0.00426698107583,-0.0401798213913,-0.00482099921942,26.636831368,1.44774499694,1000,1.24315086955,0.131952767277,1.45249141035,1.09077474552e-05,0.00116767955701,1
144,0.0242645402016,-0.00278814416957,-0.0143722983898,-0.00407903418369,143.813824093,1.82398502557,1000,1.38195139359,0.268029022668,1.48181962334,1.33936118211e-05,0.00119288169894,1
145,0.0246096365276,-0.00276533861275,-0.0114171711599,-0.00450101656592,137.997267275,1.91026858796,1000,1.30896447136,0.316982081329,1.38036444106,1.35503774903e-05,0.00134766607049,1
146,0.023298399357,-0.00272848137684,-0.00894614473838,-0.00387633075472,128.336803816,2.01429830691,1000,1.25071921047,0.38139991541,1.47692996698,1.35354502142e-05,0.0011382467248,1
147,0.0274582344585,-0.00484144009241,-0.0305040579955,-0.00511656196456,2.31906714862,1.47296510063,1000,1.08055437478,0.171437006896,1.3975679883,1.20132355423e-05,0.00129729299276,1
148,0.0249664895774,-0.00359309165053,-0.0165173167616,-0.00424424373108,161.15505335,1.71075268464,1000,1.16655497805,0.253705668054,1.47904604877,1.2601504835e-05,0.00121165493549,1
149,0.0267503531142,-0.00413196672235,-0.0360368725314,-0.00407773815499,-35.3371417723,1.2866502496,1000,1.27640535027,0.146287069425,1.68005988221,1.37990641492e-05,0.00122056775658,1
150,0.0229305669391,-0.00299248468744,-0.0100481783665,-0.00340189331802,132.113949702,1.8783157973,1000,1.19148136033,0.35478695573,1.63521263514,1.33385047367e-05,0.00105468634664,1
151,0.0233434315256,-0.00206248181006,-0.0080631626901,-0.00402087205566,126.401662801,2.07340558087,1000,1.3982235759,0.357591855975,1.44563675935,1.16537026656e-05,0.00139998433868,1
152,0.0228295100439,-0.00294055259184,-0.00768167551898,-0.00352055952054,140.283049479,1.97543286321,1000,1.02321375715,0.39163994263,1.58982132231,1.01166533413e-05,0.00129863943548,1
153,0.0230115943004,-0.00336649127214,-0.00930084731735,-0.00338775068952,132.995112376,1.84597642631,1000,1.06683884925,0.386100458224,1.65023109387,1.33476903424e-05,0.00107428974442,1
154,0.0336307785424,-0.00757988042624,-0.150248419959,-0.00570639142612,386.730286573,0.843085943431,1000,1.09325233057,0.0550848487326,1.64613395786,1.1995078617e-05,0.0013105315568,1
155,0.0318524795865,-0.005846703581,-0.0800938659593,-0.00664844509626,186.258454064,1.16655809721,1000,1.22095660478,0.0890592746049,1.31886049204,1.31105729003e-05,0.00139364701493,1
156,0.0273373013518,-0.00508641224535,-0.0354300355359,-0.00438398745226,-4.87243138617,1.28232215054,1000,1.07963713633,0.154931979372,1.61108255027,1.3058165796e-05,0.00122076220575,1
157,0.0233604398258,-0.0023150937109,-0.00963933816951,-0.0040074342849,136.047539526,2.06114314892,1000,1.36124675184,0.326872610718,1.44327275973,1.14066577128e-05,0.00126594051147,1
158,0.0253277759251,-0.0032614447391,-0.0161974250575,-0.00475387857756,174.899579334,1.81823211354,1000,1.17398590944,0.236326959249,1.3615487206,1.02231655047e-05,0.00144448492957,1
159,0.0268519449873,-0.00340303018525,-0.0310750381983,-0.00515084988054,-17.6311611773,1.60204223315,1000,1.38285959764,0.151369329261,1.353870459,1.10947413423e-05,0.00140837347542,1
160,0.0309890005776,-0.00559772965539,-0.120376073614,-0.00560598331152,294.155749494,1.07556754065,1000,1.29843883511,0.0603112803356,1.49213552037,1.02854389836e-05,0.00101706525284,1
161,0.0314441844673,-0.00520146321022,-0.0866556817719,-0.0065407837687,198.108325745,1.19642041638,1000,1.33028556344,0.0797804000056,1.31788054119,1.20143186018e-05,0.00141767002512,1
162,0.029119663062,-0.00471563436362,-0.0642123535706,-0.00509866767424,69.109027141,1.20195491348,1000,1.34840381042,0.0989569330189,1.5081168229,1.32901860666e-05,0.00110377069569,1
163,0.0240132692016,-0.00363044910801,-0.0119929262051,-0.00428573938532,159.351746575,1.99020963622,1000,1.06375095005,0.321961668699,1.38696323575,1.13080467177e-05,0.00103800265081,1
164,0.0256339199984,-0.00330842009347,-0.021426286768,-0.00440181353055,174.058860393,1.6137115842,1000,1.2743746106,0.196710525536,1.48642313621,1.15403440853e-05,0.00143379089068,1
165,0.0244020000839,-0.00383031036885,-0.0122722090114,-0.0036944319963,140.086137184,1.61937632081,1000,1.04952516214,0.327517689611,1.64468036024,1.46611850018e-05,0.00126180346998,1
166,0.0230774013559,-0.00304500795394,-0.00918563719126,-0.00365859794085,144.213304825,1.97089987793,1000,1.07948492561,0.357793191485,1.54597479213,1.07374821534e-05,0.00119172921837,1
167,0.0250572316716,-0.00398360554755,-0.0255701451218,-0.00378592707177,182.94992205,1.50733221078,1000,1.17483708551,0.182966850901,1.64995516058,1.16297095187e-05,0.00103365914325,1
168,0.0345591138401,-0.00611018393278,-0.176234885864,-0.00740700839365,464.969813508,1.00508306777,1000,1.38722810138,0.0480257707724,1.3219049105,1.15393582666e-05,0.00130627274852,1
169,0.0239118602141,-0.00250367724879,-0.00973913237588,-0.00430845399281,125.511992835,2.03179460279,1000,1.39997863431,0.359839544741,1.38154119374,1.47508355291e-05,0.00119458736957,1
170,0.0256922245531,-0.00356683001721,-0.0174852227926,-0.00424840466511,151.033339977,1.54524616481,1000,1.21205619771,0.247188729386,1.54216072291,1.47904097229e-05,0.00143446892109,1
171,0.0226558677565,-0.00268130138634,-0.010277166166,-0.00353940877936,139.084718057,2.04416494618,1000,1.27048939692,0.331413600974,1.54781259879,1.15825436963e-05,0.00100428185175,1
172,0.024125369598,-0.00265706337679,-0.00891765484536,-0.00456106589355,145.31493648,2.08066998064,1000,1.17509962856,0.350069100166,1.33478404016,1.0522473971e-05,0.00141342324277,1
173,0.0380109080766,-0.00936617170898,-0.250143034431,-0.00776396196986,764.799267296,0.790501604418,1000,1.07945899963,0.04034865021,1.43753615198,1.20068763196e-05,0.00132738827196,1
174,0.0237206324549,-0.00261852357738,-0.00792760264039,-0.00443937562419,137.675233872,2.1555223884,1000,1.18006738536,0.389725695087,1.33640725713,1.11369715067e-05,0.00130701437796,1
175,0.0331201047766,-0.00624292455162,-0.131015741269,-0.00592282821142,278.720952624,0.918096762271,1000,1.26615957429,0.0602636423675,1.55682928592,1.32085265945e-05,0.00143113269172,1
176,0.0228623935991,-0.00234951805091,-0.00783065060211,-0.00408435472238,134.599560857,2.27624720741,1000,1.28337358271,0.385008156481,1.37326218965,1.08421278061e-05,0.0011278810507,1
177,0.0340797303237,-0.00697904608965,-0.131565962276,-0.00678882546304,320.523833223,0.962094456704,1000,1.21592698655,0.0644318273442,1.40936360613,1.40941633067e-05,0.00112254620645,1
178,0.0314649126744,-0.00555334635825,-0.094540606416,-0.00630397432241,249.617719771,1.15076000814,1000,1.25150773634,0.0734444892093,1.3681051882,1.08707035091e-05,0.00145143139822,1
179,0.0250274111414,-0.00411366315976,-0.0171613975279,-0.00421691344253,180.709761828,1.68490564413,1000,1.00768330766,0.24148743986,1.49592313444,1.04178656657e-05,0.0012757781479,1
180,0.0366495813062,-0.00914625611005,-0.209345666755,-0.00725714655411,650.296051299,0.823600743789,1000,1.05218584046,0.0459007190024,1.45891204178,1.19420199206e-05,0.0011688119347,1
181,0.024527427968,-0.00393292400591,-0.0144920787222,-0.00362164975547,146.789064096,1.5583129076,1000,1.06721992112,0.289570925716,1.68480434965,1.4342995051e-05,0.00121492408244,1
182,0.0287328652543,-0.00468632592617,-0.0676025144186,-0.00449133045709,71.1079825052,1.10796896185,1000,1.31231124919,0.0909040175069,1.68212553674,1.23856212226e-05,0.00126438316548,1
183,0.0232964223222,-0.00230583961154,-0.0111004626841,-0.00384515785493,142.749425545,1.99871861003,1000,1.38717505187,0.288088364453,1.49608348081,1.07107690431e-05,0.00126692995545,1
184,0.0227491194033,-0.00319973558538,-0.00903293318352,-0.00345971438585,147.546360878,1.96770632691,1000,1.02032274747,0.361378667236,1.59916407021,1.01228961089e-05,0.00114242599956,1
185,0.0236627139576,-0.00275860835872,-0.00825040472465,-0.00450092561659,140.195966449,2.20505821791,1000,1.17004243353,0.391161725567,1.30898947662,1.13007139039e-05,0.00119706090554,1
186,0.0223573472875,-0.00236429732507,-0.0079123004073,-0.00350664426552,123.076282649,2.12946143495,1000,1.32789677337,0.396738451986,1.53973410203,1.27273015687e-05,0.00105077959084,1
187,0.0277201677885,-0.00450058455642,-0.0434394471429,-0.00499250701131,26.9279463027,1.39125886134,1000,1.25768180812,0.130237931809,1.44186199065,1.2230452706e-05,0.0011011940997,1
188,0.0247365281442,-0.00360623383575,-0.0120034081211,-0.00461188385925,143.942635789,1.92111079988,1000,1.14577009126,0.344174772668,1.34298937842,1.46580786462e-05,0.00106557544407,1
189,0.0234962509413,-0.00256115725641,-0.0146979426422,-0.00390677605943,159.697034961,1.96724707802,1000,1.38013066424,0.240427901065,1.48094920431,1.00316621582e-05,0.0011348859694,1
190,0.0269211743087,-0.00431363810734,-0.0336369230496,-0.00452509541404,-22.2451995351,1.39581844931,1000,1.22257020375,0.156719423256,1.52955845129,1.30891290375e-05,0.00117536455588,1
191,0.0266553592911,-0.00419563128785,-0.038908826554,-0.00423742252759,6.43565451552,1.3535447231,1000,1.22390200873,0.131909865123,1.61217280662,1.10199640942e-05,0.00124795849778,1
192,0.0280728361141,-0.00503657198551,-0.0388143756237,-0.00498498095011,14.3207527968,1.33028564718,1000,1.13412268405,0.147099906761,1.47227730125,1.32338807405e-05,0.00121859752986,1
193,0.024515360045,-0.00339902841255,-0.0164840975008,-0.00389070075664,160.086284025,1.67628257432,1000,1.18558497183,0.244406519105,1.57292151003,1.19943651449e-05,0.00123881856675,1
194,0.0289465488722,-0.00555077703832,-0.0489460000457,-0.00472138691181,27.6343573332,1.13580813483,1000,1.12440063884,0.127449524407,1.61661067844,1.47838541758e-05,0.00122128495701,1
195,0.0259036657913,-0.00369577349963,-0.0312028902882,-0.00430909063844,-11.4614337704,1.52227555758,1000,1.25284582296,0.148324971416,1.53044805483,1.00164693216e-05,0.00128394206453,1
196,0.0282703434163,-0.0043757110587,-0.0674033125408,-0.00449337681813,69.0547066769,1.17122414142,1000,1.38292860958,0.0897097900685,1.64091240223,1.18894611578e-05,0.00112503990888,1
197,0.036469002512,-0.00805606863857,-0.175382167222,-0.00763063017988,493.395280045,0.878862405152,1000,1.1562642154,0.0530427314629,1.38294403445,1.3720316899e-05,0.00140644278093,1
198,0.0233087733138,-0.00260051560026,-0.01375179625,-0.00354386529896,150.806062276,1.83985732934,1000,1.33754988548,0.252872639977,1.61416764684,1.07202355357e-05,0.0012091283442,1
199,0.0278590407012,-0.00542942782907,-0.0348952304487,-0.00482224977338,-0.836052414919,1.32114807673,1000,1.06056955872,0.164955119311,1.50191143182,1.40329031669e-05,0.00111921061459,1
200,0.0234530646949,-0.00214656451114,-0.0074326333813,-0.0040121636526,125.966347535,2.03320086209,1000,1.30711286573,0.377438351182,1.46202786596,1.14384419779e-05,0.00149193830983,1
201,0.0257397153972,-0.00428537558776,-0.0181941277291,-0.0043780757426,176.935366432,1.5817168204,1000,1.0101361294,0.237864593501,1.50071250965,1.16125706483e-05,0.00140932710953,1
202,0.0277612239322,-0.00468082348867,-0.0428617139487,-0.00439228658312,11.6421392154,1.21833516953,1000,1.17667607355,0.128436021017,1.64785263032,1.25543028835e-05,0.00141495251337,1
203,0.0256852300275,-0.00397505630589,-0.0230501424595,-0.00397923997732,179.621522674,1.44926969507,1000,1.11662707986,0.19250297618,1.64172570495,1.1618911869e-05,0.00143773239186,1
204,0.0250339610928,-0.00414158461918,-0.02030335752,-0.00375859678325,169.374711159,1.50146984116,1000,1.08781579425,0.221838015116,1.66588003159,1.26112710987e-05,0.00116321543267,1
205,0.023801883463,-0.00216200316826,-0.00814751823931,-0.00445922532618,130.418509642,2.13786893199,1000,1.36723128954,0.362744784248,1.34164209836,1.16045367189e-05,0.00140320694223,1
206,0.0276365120561,-0.00481677007325,-0.0257683010818,-0.00513170503622,-37.2712131402,1.44471531395,1000,1.07790114466,0.201426852379,1.40910392346,1.42951650411e-05,0.00140539584409,1
207,0.0269870534552,-0.00397676160668,-0.0378058379574,-0.00408287679492,-44.1113205319,1.24925825405,1000,1.35078982432,0.142022847215,1.69848980154,1.49408618638e-05,0.0012463047101,1
208,0.0238563769068,-0.00288966641417,-0.00909045866589,-0.00359027221977,121.748439925,1.70995614997,1000,1.17999444111,0.375040926231,1.65539535036,1.49799337335e-05,0.00147130212417,1
209,0.0252768912708,-0.00336644579744,-0.0104426030869,-0.00489303112777,144.481544149,1.88456113201,1000,1.09439947754,0.352754286633,1.32270306681,1.31887597813e-05,0.00146914520914,1
210,0.0240208968532,-0.00245868004334,-0.00939438875386,-0.00420386220664,123.656462859,1.94991130779,1000,1.37466274802,0.359715328855,1.43013030514,1.45863982615e-05,0.00133933087874,1
211,0.0259479037877,-0.00341942381084,-0.0235067310805,-0.00495994713353,182.883462496,1.74026382552,1000,1.31823652169,0.191693682201,1.33669606315,1.16003361526e-05,0.0012124226458,1
212,0.0263630053583,-0.00348845438963,-0.0228855922951,-0.00452939277223,161.144241742,1.50334705909,1000,1.3254866964,0.20198044896,1.49766035847,1.47244056022e-05,0.00142946840243,1
213,0.0239407682469,-0.00282272767105,-0.013089798456,-0.00372701461134,141.767034029,1.75178747567,1000,1.29313460534,0.278795602828,1.59489942101,1.27735023924e-05,0.00130032568145,1
214,0.0296082863714,-0.00521540120244,-0.046235867706,-0.00594049512827,39.8791651961,1.32398510619,1000,1.20718435051,0.136105094072,1.33136411976,1.48299158964e-05,0.00121428264825,1
215,0.0261284489397,-0.00315210084798,-0.0190401843294,-0.0048442822605,158.433295565,1.65862329716,1000,1.34836137365,0.223156219661,1.39129964136,1.37164446334e-05,0.00149270424235,1
216,0.0218504643123,-0.00203562900591,-0.00801157165477,-0.0031124014439,127.847448566,2.06506741,1000,1.36489748985,0.34674258686,1.68806736082,1.0312396253e-05,0.00118672590994,1
217,0.0242959008732,-0.00298479946481,-0.0100328988708,-0.0041129355648,132.873341253,1.83021624039,1000,1.18613115491,0.35282095717,1.4829087108,1.38647832706e-05,0.00138800981888,1
218,0.0263489059853,-0.00450986139305,-0.0196372215292,-0.00458034716197,168.244755617,1.52307488894,1000,1.05221597569,0.241591971968,1.4759968081,1.41581109805e-05,0.00131654386432,1
219,0.0247475266504,-0.00393306042998,-0.0166592432679,-0.00391996371935,173.745908445,1.63194645725,1000,1.0270726407,0.242422442682,1.58439654988,1.06650794626e-05,0.00132230417422,1
220,0.0245803488425,-0.00314609818895,-0.0142402853659,-0.00402610164502,148.960889456,1.71755053682,1000,1.22617599275,0.270839435997,1.53223989564,1.28580865021e-05,0.00133690028167,1
221,0.0266654484262,-0.00439201373499,-0.0307818401371,-0.00449121677036,-2.37741495973,1.43228217001,1000,1.10828454411,0.158067787529,1.53043956116,1.07108901854e-05,0.00139410544307,1
222,0.0258801997192,-0.00369979800966,-0.0270779494053,-0.00456925133771,-20.178188884,1.61885147468,1000,1.22360990941,0.167122289957,1.44436897688,1.01258601751e-05,0.00127326396297,1
223,0.027807069477,-0.00393467478151,-0.0485490969546,-0.00471129153072,25.5924526173,1.29908928251,1000,1.37180886216,0.111110020211,1.54374625924,1.16438652942e-05,0.00143823824653,1
224,0.0310438195974,-0.00617696351433,-0.0758122420334,-0.00596868943593,166.017472157,1.13839553098,1000,1.15041947437,0.0936662399552,1.40966394826,1.30830278439e-05,0.00114578963612,1
225,0.0240682849677,-0.0024168205915,-0.00921746947394,-0.00449442273596,131.479633739,2.06848712939,1000,1.34992744426,0.353892228346,1.3453439652,1.28294956166e-05,0.00133472539419,1
226,0.0326586367805,-0.00744943627909,-0.107696820656,-0.00546362479571,254.056626979,0.885494411148,1000,1.04551252368,0.0722511041137,1.65270348469,1.32655627854e-05,0.0013991337954,1
227,0.0335908822921,-0.00746962704128,-0.124536962239,-0.00654501291483,386.378548617,0.970351068724,1000,1.06996076193,0.0641068128802,1.43957509816,1.1438795885e-05,0.00147073075324,1
228,0.0226159957828,-0.00266577177992,-0.0099715307772,-0.00373313095721,148.120029362,2.16923198414,1000,1.22789617793,0.328208106268,1.46807481188,1.00228577516e-05,0.00100759958339,1
229,0.0247125221875,-0.00319245963498,-0.00940291525822,-0.00468837228717,147.72463046,1.95919771689,1000,1.0620458434,0.360530951532,1.34063354962,1.14422234219e-05,0.00146648005871,1
230,0.0252852231639,-0.00345982807255,-0.0160909233344,-0.00438166824306,163.409760743,1.68693158703,1000,1.15471355471,0.24822300313,1.46805061948,1.18736203371e-05,0.0014360946492,1
231,0.0275619817501,-0.00388622149974,-0.0346310679767,-0.00478784817071,-40.3524181303,1.36091175924,1000,1.36213692503,0.152789494766,1.50072285862,1.4814446457e-05,0.0013844493063,1
232,0.0291133524916,-0.0046847570493,-0.0502321834293,-0.00553970395147,51.3953539695,1.30646798291,1000,1.27263716589,0.118621866696,1.39816106161,1.29649666064e-05,0.0013604152372,1
233,0.0250268814681,-0.00316283287467,-0.017458142615,-0.00405838867453,161.684323758,1.62197572228,1000,1.23999494938,0.224582657233,1.56187015864,1.17192559205e-05,0.00148111819509,1
234,0.0236464064678,-0.00270458442739,-0.0111482338456,-0.003694613895,143.093722901,1.81766133797,1000,1.22681663984,0.297567077916,1.58968905889,1.12555141575e-05,0.00139517913582,1
235,0.0267132153267,-0.00447361806554,-0.0230817018941,-0.00504275654341,-34.8931777616,1.597250747,1000,1.08071367726,0.209399236936,1.36787693189,1.23279676296e-05,0.0012851597744,1
236,0.0235322381691,-0.00287797941895,-0.0156959529178,-0.00350264249282,150.243452577,1.75538925298,1000,1.33721750097,0.245127077791,1.64389056941,1.21127879846e-05,0.00107995757406,1
237,0.0248582538089,-0.00303825496248,-0.0153612819396,-0.00468921356883,159.189716982,1.91862983724,1000,1.30541045078,0.258130963555,1.33603872037,1.20682170875e-05,0.00118964257999,1
238,0.0261658644775,-0.00420629510261,-0.0186948040617,-0.00491808768179,177.755526243,1.67535282156,1000,1.06533954059,0.23964003501,1.36693660005,1.21567444536e-05,0.00133050941787,1
239,0.0228430264381,-0.00259326238726,-0.0116929751525,-0.00332138037996,142.759982858,1.86065142697,1000,1.28940503579,0.28590490562,1.67349579617,1.09908042064e-05,0.00118044278498,1
240,0.0236838846311,-0.00339286659212,-0.00937510748551,-0.00385761791993,136.726098292,1.88632675505,1000,1.06272206247,0.384551985695,1.51633863888,1.32023799354e-05,0.00118029849095,1
241,0.0352373392885,-0.00908165931346,-0.153754473054,-0.00596466492593,384.722859689,0.762693126862,1000,1.0032767846,0.0591918937442,1.6773137127,1.47206303039e-05,0.00116934272148,1
242,0.0244067592057,-0.00301745029196,-0.0140884453772,-0.00397446513492,144.249049751,1.74000205047,1000,1.28319775574,0.274773714802,1.53432791119,1.34751688323e-05,0.00127082394237,1
243,0.0247168660571,-0.00444674252385,-0.0237034773251,-0.0036344508806,191.378527144,1.52076663917,1000,1.03231738747,0.193601208592,1.68480245802,1.04384403031e-05,0.0010022939852,1
244,0.0259866178052,-0.0038992499983,-0.020898416571,-0.00444851603679,166.889351479,1.55355273077,1000,1.18186150312,0.220451211229,1.49076004389,1.37168219153e-05,0.00129557703548,1
245,0.0242354638511,-0.00299896483067,-0.0135971140934,-0.00399158635554,146.425022971,1.79296730822,1000,1.26627523284,0.279227959134,1.51329285558,1.28124198627e-05,0.00124219456417,1
246,0.0246873241094,-0.00363888466286,-0.0181375117404,-0.00404206326101,177.545883399,1.69740559039,1000,1.1163382387,0.22390804236,1.52983097999,1.03362172857e-05,0.00124184556047,1
247,0.0243631609314,-0.0033153322463,-0.01130764537,-0.0036383162293,133.731914125,1.60411233197,1000,1.1142183177,0.326628122383,1.67796809039,1.43875120227e-05,0.00149359812747,1
248,0.0287697136476,-0.00533486321213,-0.0407629660737,-0.00557512873471,65.9184350838,1.36833882197,1000,1.0601180448,0.138677968143,1.37099054161,1.13647028299e-05,0.00144737749411,1
249,0.027923450474,-0.00459869619919,-0.0560727706645,-0.00426181969854,24.1046691331,1.15893913128,1000,1.31276970856,0.107598137975,1.69627845646,1.35635538558e-05,0.001025332737,1
250,0.0233673687929,-0.00256120273108,-0.0117008422738,-0.00363179061127,136.222948591,1.86760068714,1000,1.3582775409,0.297253859507,1.58132907028,1.26235416617e-05,0.00120284515224,1
251,0.0271738372367,-0.00393710767738,-0.0336112525874,-0.00498807322901,-2.16550091416,1.48874040689,1000,1.26184838244,0.147742044956,1.4173636803,1.12983668907e-05,0.00140543456653,1
252,0.0243491011896,-0.0033758817955,-0.0127044004615,-0.00417528136423,153.218189266,1.84311293058,1000,1.13042120925,0.300323976257,1.4568723096,1.20526699957e-05,0.00122102968146,1
253,0.0240560465623,-0.00370450464006,-0.0172208102099,-0.00380648163153,173.917350163,1.75777403666,1000,1.10748193493,0.238180203399,1.55749813515,1.04956992402e-05,0.00103159427807,1
254,0.0313710719053,-0.0050140620142,-0.0804602100589,-0.00647993863387,158.146724966,1.19427098697,1000,1.3610014056,0.0847447635751,1.32749554055,1.28847703642e-05,0.00148485055709,1
255,0.0323118418271,-0.00706558442413,-0.0946546796749,-0.00618560370549,234.984230652,1.03692840174,1000,1.10323240345,0.0822852879968,1.43435269034,1.35479413688e-05,0.00103670002012,1
256,0.0247756724137,-0.00336376279074,-0.0105030389493,-0.00423212472622,134.385008111,1.75369400203,1000,1.11490724958,0.357012977225,1.47952265903,1.4730433888e-05,0.00142251318494,1
257,0.026877716217,-0.00454489964139,-0.0198261006526,-0.00528856997799,172.276684252,1.6392328895,1000,1.07871392796,0.247224287679,1.31533277976,1.43980094508e-05,0.00124635341292,1
258,0.0251663987162,-0.0029553546033,-0.0225449413951,-0.00434137766799,177.751776332,1.70007711471,1000,1.38878711851,0.18198529388,1.46718149057,1.06469210165e-05,0.00132426574945,1
259,0.0265316784968,-0.00417089305666,-0.0410106894453,-0.00415070229447,6.55952339887,1.34779251592,1000,1.25704437739,0.127778875701,1.62992145028,1.12161195308e-05,0.00112465555894,1
260,0.029877891377,-0.00517081326933,-0.0781676035819,-0.00573112965741,161.673047347,1.23963767419,1000,1.29927971494,0.0858804604561,1.38933092319,1.15339485734e-05,0.00100059744311,1
261,0.028153868946,-0.00565789266976,-0.0350609856923,-0.00528945673449,35.2629660261,1.39740065019,1000,1.00374502899,0.161915385861,1.39489740691,1.22176738315e-05,0.00121115712228,1
262,0.0306960222409,-0.00621386622494,-0.0790885115214,-0.00536580873838,148.117115198,1.06202931628,1000,1.14957086184,0.0902539936401,1.53845524198,1.34990629003e-05,0.00104424556359,1
263,0.0302809971315,-0.00505003249364,-0.092403682539,-0.00595575188674,227.807958215,1.23228828223,1000,1.33525192976,0.0729051418644,1.36575278653,1.02288853119e-05,0.00112555988794,1
264,0.0244804428321,-0.00375675505839,-0.0177076167622,-0.00373592765054,169.746478342,1.61843210709,1000,1.09644110173,0.232555031575,1.63112523162,1.11686039455e-05,0.00121262171491,1
265,0.0239792486655,-0.00328818385662,-0.0194388154584,-0.00364184051773,175.764148839,1.70209387172,1000,1.21637975708,0.205694135078,1.62344717042,1.00084479688e-05,0.00111613310418,1
266,0.0248275351285,-0.00324943942108,-0.0109042621358,-0.00462511699387,147.478237155,1.90089402617,1000,1.12079460522,0.333938935876,1.36149168495,1.24155060922e-05,0.00138677990623,1
267,0.0235807341562,-0.00320621572854,-0.0141894901376,-0.00362615174977,152.665561488,1.80301621418,1000,1.20631346863,0.272515469877,1.59239179117,1.18964446523e-05,0.00104964166241,1
268,0.0316239696122,-0.00551351053028,-0.0869120680719,-0.00612746431476,169.964762211,1.10056857003,1000,1.28998918522,0.0817655724484,1.41499510183,1.33836543998e-05,0.00141223817078,1
269,0.0246097018997,-0.00315212358527,-0.0106088812894,-0.00468634866347,150.875807399,1.9882731193,1000,1.12511435175,0.334238062065,1.32790459102,1.15570693765e-05,0.00133590841095,1
270,0.0254326173809,-0.00349807228649,-0.0220113186499,-0.00437573379607,163.403885481,1.65019274445,1000,1.33570328919,0.21220960689,1.46221435941,1.40838966006e-05,0.0010398756455,1
271,0.0235969549416,-0.00296640495289,-0.0151605566596,-0.00352353811271,143.710971509,1.74793822509,1000,1.33984120002,0.26210114047,1.63652297157,1.34789515748e-05,0.00101782478447,1
272,0.025188116473,-0.00336421753764,-0.0229817030516,-0.00439308239016,187.304141111,1.71493751568,1000,1.26755988745,0.185489673494,1.44688236143,1.02060137255e-05,0.00121232059785,1
273,0.0305830889688,-0.00635481502538,-0.0911783897647,-0.0049594696493,201.350805395,0.993694159134,1000,1.10416056946,0.0768888309049,1.65841526461,1.15764077246e-05,0.0012128662066,1
274,0.0254585786197,-0.00410688743104,-0.0145377807853,-0.00444728822015,153.402877715,1.6707878221,1000,1.05658458727,0.298428359646,1.45141466887,1.43764662613e-05,0.0012587780861,1
275,0.0294596160777,-0.00477156823182,-0.0701116713674,-0.00573206188851,130.222960285,1.29931210849,1000,1.34503014658,0.091470189955,1.36540937978,1.15060838457e-05,0.00108068927867,1
276,0.0234605700878,-0.00249683330796,-0.0104210026093,-0.00418344407102,147.188492601,2.11703774975,1000,1.30053434712,0.311542262729,1.38882786222,1.04408432328e-05,0.00119980143746,1
277,0.0293911729319,-0.00559040823033,-0.0507890437409,-0.00539134277652,84.0527459784,1.23180038428,1000,1.08939997261,0.119845994067,1.45528188298,1.22093414346e-05,0.00142080043159,1
278,0.0244452045065,-0.00293277641991,-0.0205145874533,-0.00384297506987,167.834153753,1.67324115887,1000,1.36915589416,0.195669605403,1.58571650047,1.10536613567e-05,0.00123425472522,1
279,0.0251314016839,-0.00343609028456,-0.0162392845093,-0.00437441503003,167.645352482,1.72146229236,1000,1.1505558398,0.24338557145,1.45763820507,1.12123849765e-05,0.00139863680415,1
280,0.0250409138227,-0.0040073433355,-0.0187345489404,-0.00378297121694,175.518334859,1.50952913851,1000,1.033223261,0.220947821454,1.66912610469,1.09062245654e-05,0.00143206581882,1
281,0.0235568823199,-0.00265469869292,-0.0111420492879,-0.00431222839208,152.866521872,2.14886543954,1000,1.27766699398,0.304356166023,1.35159565306,1.03328483727e-05,0.0011237602491,1
282,0.0308617469278,-0.00603940257825,-0.0822590296186,-0.00502715872482,146.07131313,0.977758963874,1000,1.14188889502,0.0837691585793,1.66408630589,1.30884144809e-05,0.00149926903751,1
283,0.0269950552748,-0.003524220233,-0.0248141738817,-0.00530225785961,171.635447154,1.61869833866,1000,1.36636311513,0.193992745161,1.32346204497,1.42662335071e-05,0.00135352326617,1
284,0.0247397692845,-0.00337024293404,-0.0121640929369,-0.00433935404439,139.237594414,1.80740750032,1000,1.18595361245,0.328530985418,1.43189496811,1.48975835138e-05,0.00121806781609,1
285,0.0241007623453,-0.00283245925464,-0.0123493795597,-0.00390518444526,142.770650856,1.79052272533,1000,1.26217241342,0.289431321218,1.54084439216,1.24428601801e-05,0.001354275009,1
286,0.0268806262811,-0.00456315772928,-0.0292236498974,-0.00487659202748,-14.6587416906,1.51163031928,1000,1.12964322349,0.176326667165,1.41934617438,1.22673666229e-05,0.00116333833252,1
287,0.023842398974,-0.00336308067037,-0.0114917496509,-0.00380623152069,135.731697502,1.81625971709,1000,1.17015196619,0.342394373593,1.54150546668,1.47274970762e-05,0.00105599271712,1
288,0.024336541908,-0.00299741869117,-0.0188520782757,-0.00366093988732,161.398299033,1.62058683431,1000,1.31565799749,0.209121519459,1.65548100743,1.14871117126e-05,0.0012981685349,1
289,0.0247649888607,-0.00378485841657,-0.0141978574805,-0.00377508135831,152.8767944,1.56793514728,1000,1.04743260241,0.279167761051,1.64977377391,1.28013206863e-05,0.00143519571783,1
290,0.0240224935674,-0.0025804157875,-0.0115749455956,-0.00388642613588,130.840037732,1.8033764192,1000,1.37309039938,0.306045016186,1.54145092265,1.40601709248e-05,0.00134742879743,1
291,0.023916832569,-0.00239258258199,-0.00974188359454,-0.00448862471303,136.393660281,2.1142759809,1000,1.36926277938,0.336228645838,1.33336354522,1.21045912144e-05,0.00127023760434,1
292,0.0337324604463,-0.0062728014226,-0.206890965747,-0.00620336157157,515.934949295,0.907779828489,1000,1.34130412262,0.0405976553629,1.51850906847,1.02419248368e-05,0.00110644698411,1
293,0.0250524815833,-0.00363342770014,-0.01898879793,-0.00391205112339,157.367281279,1.55824117127,1000,1.21153731556,0.231762675549,1.60604349191,1.38174197361e-05,0.00120025875643,1
294,0.0249728663271,-0.00351532993121,-0.0148770447072,-0.00426102389151,160.442660641,1.71579625972,1000,1.12322882801,0.265351236159,1.48164151357,1.19202280528e-05,0.0013695253685,1
295,0.022189952147,-0.00242120889917,-0.00886717793986,-0.00341360305058,133.756015028,2.13361954962,1000,1.29970096785,0.354830756211,1.56280274551,1.11019617746e-05,0.00101525185833,1
296,0.0309014120303,-0.00674203200744,-0.0721318844536,-0.00495453564554,120.865968342,0.959642529652,1000,1.03851355404,0.0970019908043,1.68875672833,1.42686942458e-05,0.00141950514864,1
297,0.0283447854263,-0.00513477457768,-0.0456635459999,-0.00464739959179,11.2813297293,1.20043799152,1000,1.17903680363,0.132515683247,1.59321953074,1.46339958998e-05,0.00112103615121,1
298,0.0241634260197,-0.00236786708817,-0.00845278983079,-0.00434860814368,123.953489457,1.97311820151,1000,1.3340430381,0.373645491537,1.40233636919,1.36195974333e-05,0.00147790990354,1
299,0.0240096747503,-0.00275017280383,-0.00951553332702,-0.0042113427931,141.629573274,1.95662237153,1000,1.17967702504,0.340893079136,1.43087236599,1.13443110471e-05,0.00141034364128,1
300,0.025878221718,-0.00306888216596,-0.0209382296618,-0.00491324462733,168.560423131,1.7403982487,1000,1.39699489673,0.204690878081,1.3498922409,1.24663862237e-05,0.00133949526557,1
301,0.023883720367,-0.00294337202264,-0.00996107159847,-0.00427971398893,144.504477535,2.02707103309,1000,1.16914450713,0.345411731213,1.39023806953,1.16293733288e-05,0.0012273642112,1
302,0.0256541756939,-0.0034872493104,-0.0153484580771,-0.00491649606763,160.836938365,1.79612152364,1000,1.17850047491,0.267702487706,1.33548998027,1.27160666981e-05,0.00135894388934,1
303,0.0305033032598,-0.0051156069961,-0.131427810169,-0.00497045178686,265.806737358,1.00447325219,1000,1.39049446626,0.0540535249714,1.64477931933,1.02643624553e-05,0.00105484957463,1
304,0.0326548106538,-0.00685651453856,-0.146668174908,-0.00554359203743,377.099667121,0.898772611243,1000,1.15294058803,0.0538295120168,1.62524937038,1.08977465914e-05,0.00122664190954,1
305,0.0287774311231,-0.00438116802143,-0.0458979225501,-0.00582589891045,54.7836441004,1.42836134228,1000,1.29151815354,0.123213217969,1.31247225913,1.17897620474e-05,0.00138648232084,1
306,0.0248940947264,-0.00355734854442,-0.0121341478537,-0.00472079574081,162.317122095,1.92131934681,1000,1.05570999114,0.309445723027,1.33625418723,1.10706563699e-05,0.00131906467709,1
307,0.0273216869236,-0.0041136631598,-0.0398334406805,-0.0042661170567,-22.893688373,1.25042308823,1000,1.3030747269,0.134503965273,1.65848147354,1.36936289607e-05,0.0013663030459,1
308,0.0244122486874,-0.00238419250172,-0.00809292587448,-0.00467281994335,125.838988664,2.04122191522,1000,1.31052945114,0.386026552315,1.32718099625,1.32827158908e-05,0.00149536383167,1
309,0.0293748303357,-0.00572110248832,-0.0582577840259,-0.00510398821294,76.2887417389,1.16857333081,1000,1.14754084729,0.112627158634,1.52198242126,1.37329091328e-05,0.00102636891194,1
310,0.0254683567489,-0.00403953941575,-0.0189639914868,-0.004483281437,166.227635878,1.68204151175,1000,1.14959140107,0.244817275025,1.43122431125,1.3643696402e-05,0.00104778976509,1
311,0.0284859189518,-0.00439062675699,-0.0448629186146,-0.00550286945292,13.444990454,1.3967954048,1000,1.35860212726,0.132896949686,1.35876207992,1.43483984453e-05,0.00107839041024,1
312,0.0242504744504,-0.00245549681505,-0.0100220304199,-0.00434947216275,127.51371755,1.94788206798,1000,1.39011716091,0.340533638791,1.4020704926,1.41866757086e-05,0.00136774241873,1
313,0.0219417709202,-0.00246936659537,-0.00967633182952,-0.00313227388325,138.563583071,2.04546208896,1000,1.27532001864,0.325398751014,1.67312928742,1.03724142238e-05,0.00101254384087,1
314,0.0250453953034,-0.00373738284064,-0.0139310120019,-0.00434719842835,150.914334443,1.73215909896,1000,1.11293614899,0.298520271411,1.45229253773,1.38855002239e-05,0.00123565461712,1
315,0.0243713502613,-0.00305617199017,-0.0162445823106,-0.00416889217036,166.034303032,1.83420778127,1000,1.25828612369,0.236665147785,1.46026012995,1.07107777279e-05,0.00121374223836,1
316,0.0266927016078,-0.00355239180322,-0.0243288225193,-0.0052169473419,-37.3833779201,1.65646952491,1000,1.26492296151,0.18463308614,1.32985812322,1.13946164136e-05,0.0014677929153,1
317,0.024867821795,-0.003380133679,-0.0173980250753,-0.00456222549818,164.501498947,1.86460015343,1000,1.2679473838,0.246279272842,1.36446625137,1.24412791418e-05,0.00103291470124,1
318,0.0347126634247,-0.0085823926961,-0.146224182776,-0.00648951105603,438.886257137,0.86881606851,1000,1.01598881177,0.0595637539186,1.5137406716,1.25050872937e-05,0.001268382892,1
319,0.0241147956162,-0.00298539063578,-0.0102198225824,-0.00412544110442,133.971322109,1.88674523588,1000,1.20644304984,0.352367479429,1.45904286475,1.38426560816e-05,0.0012717248772,1
320,0.0258624579714,-0.00387678550158,-0.0243826190771,-0.00428990031939,183.549729522,1.5241043677,1000,1.17553064029,0.186843571891,1.53575815333,1.16288609474e-05,0.00132567476962,1
321,0.0289399748828,-0.00576307562679,-0.0532135268177,-0.00464305675896,76.2074697215,1.11784472294,1000,1.04815096703,0.113450110205,1.6496724717,1.20627502273e-05,0.00144391217624,1
322,0.0242483653525,-0.00334157114219,-0.0115619398343,-0.00356871721684,133.00094521,1.60106314034,1000,1.12523697019,0.32515616714,1.69545869644,1.47158430055e-05,0.0014216523026,1
323,0.0245253819754,-0.003007559547,-0.0170262922251,-0.00440958970251,169.908549022,1.89536587279,1000,1.29892414813,0.229380797414,1.39252496157,1.05669568758e-05,0.00117010631729,1
324,0.0245148484092,-0.00345111966948,-0.0167256590521,-0.00392910413198,156.763681945,1.69293072177,1000,1.21207052819,0.250035326625,1.55218135304,1.28930804147e-05,0.00112434808505,1
325,0.025589844947,-0.00360566540219,-0.0274609372413,-0.00408806090955,175.891606209,1.50869053975,1000,1.32922197993,0.17446442507,1.57654963052,1.29752894342e-05,0.00108951732753,1
326,0.0240445397446,-0.00357990399043,-0.0121681174469,-0.00438776185139,159.448994313,2.0275251206,1000,1.08930020004,0.32042284494,1.35635852177,1.14286684963e-05,0.00100387169634,1
327,0.0256771993337,-0.00455836014959,-0.0234304927634,-0.00381978297822,166.803155637,1.39316425084,1000,1.09569374656,0.213106945556,1.68915783901,1.47761156079e-05,0.00104129457867,1
328,0.0359512452925,-0.00813710453559,-0.180510211546,-0.00691892855016,454.371349699,0.832153077715,1000,1.15908985052,0.0521812361883,1.48691133442,1.43665367444e-05,0.00102741195932,1
329,0.0251284442283,-0.00366760192941,-0.0164384409124,-0.00398069516738,157.40619172,1.56812252574,1000,1.12421854723,0.250766085408,1.5956433057,1.29309007049e-05,0.00141307763124,1
330,0.0288224842578,-0.00509175552135,-0.046478929922,-0.00473564322697,14.1199073831,1.15580396976,1000,1.17349150546,0.128490082717,1.60885696205,1.46012753814e-05,0.0014178151412,1
331,0.0251649399473,-0.00331808346511,-0.0175313796026,-0.00437127727654,166.836640561,1.71204562101,1000,1.21890332034,0.230633175765,1.45890010663,1.15870367539e-05,0.0013541599614,1
332,0.0265646899155,-0.00368317701054,-0.0205878244409,-0.00520532855861,176.242753508,1.68082206248,1000,1.20884880248,0.216201147861,1.32378273918,1.24201596107e-05,0.00144278393592,1
333,0.0239426499054,-0.00307304310006,-0.0122411043237,-0.00409435915408,147.11411936,1.92263440662,1000,1.22097956233,0.306459898195,1.4486326527,1.24091897802e-05,0.00112468827013,1
334,0.0265832556851,-0.00329780175345,-0.019490747554,-0.00531503624741,165.569594882,1.71181647405,1000,1.31562842377,0.222537350212,1.30093158197,1.33155083865e-05,0.00149639508134,1
335,0.0310889294413,-0.00541344347571,-0.0648756019185,-0.00628753522216,99.2761865331,1.19336745036,1000,1.26243029275,0.105273855153,1.34797051474,1.48120471885e-05,0.00137170700586,1
336,0.0257281870996,-0.00373665524554,-0.0201131823681,-0.00423201103956,169.770581883,1.53166114698,1000,1.15576663586,0.214657728931,1.55173611512,1.23525890255e-05,0.00146008934446,1
337,0.0347307507392,-0.00765648254096,-0.165906333299,-0.0061677548898,385.875176945,0.824484703543,1000,1.16554248015,0.0537206228911,1.58871218254,1.39584668682e-05,0.00105943978619,1
338,0.0285322569102,-0.00541278409268,-0.032611082264,-0.00556237308418,11.6593630172,1.40401985506,1000,1.04255971703,0.172981517419,1.35625264256,1.34988064895e-05,0.00134862445059,1
339,0.02867743485,-0.00438264594893,-0.0451523650139,-0.00544905015769,23.8715940006,1.35211699974,1000,1.31469639799,0.12754166472,1.39261494123,1.33428989052e-05,0.00134599656044,1
340,0.0314689913584,-0.0064856911821,-0.113107421964,-0.00519170888912,284.143170644,0.947759947781,1000,1.11813921113,0.0640467118507,1.65261031513,1.07360395609e-05,0.00139815063791,1
341,0.0232479254688,-0.00304580376094,-0.0121712779378,-0.00347199255204,148.028268055,1.82054989026,1000,1.17374160682,0.293664872563,1.63709925315,1.13337141025e-05,0.00114950589534,1
342,0.0243802617953,-0.00312322442006,-0.0155306751584,-0.00407250856576,155.117391384,1.789762866,1000,1.26964427794,0.255264505872,1.49169600397,1.23233732131e-05,0.00117058789275,1
343,0.0242138920385,-0.00276347415049,-0.0128061046049,-0.00435988586671,142.757625314,1.96352201882,1000,1.36635405925,0.294788469651,1.38416977737,1.32366698031e-05,0.00114163689121,1
344,0.0243954817532,-0.00340348493218,-0.0222278918593,-0.00364345486926,168.279391232,1.59887658084,1000,1.2928616746,0.197896478886,1.65282710165,1.2098191047e-05,0.00100819517227,1
345,0.0306580884804,-0.0065425572815,-0.0721289513361,-0.0057395879496,166.549882891,1.14041876813,1000,1.08194720337,0.0980737840045,1.43707773471,1.27302522152e-05,0.0010228019264,1
346,0.0267703825072,-0.00398199119605,-0.0309668311744,-0.0051606724135,-2.19130604519,1.62229163495,1000,1.2477524379,0.160381414175,1.337514947,1.10417094015e-05,0.00118605724178,1
347,0.026069867244,-0.00367947082341,-0.0252879064607,-0.00466704465771,-25.6724221343,1.61104740403,1000,1.19936233276,0.174444773205,1.43410395469,1.01857413108e-05,0.0014075912306,1
348,0.0288407369137,-0.0049551722911,-0.0664680573368,-0.00455820098815,94.0479447057,1.11026400123,1000,1.22419488372,0.0911953566938,1.67024987434,1.14308541748e-05,0.00138944903368,1
349,0.028797924126,-0.00524427763039,-0.0496979467756,-0.00543699936493,96.604665722,1.3301850799,1000,1.11663570984,0.117764144454,1.40261204828,1.08340726725e-05,0.00132593587722,1
350,0.0224778058795,-0.00229426630305,-0.00782169208832,-0.00345484859405,119.880482307,2.05595366829,1000,1.34511455618,0.394493945015,1.57811486187,1.3091913835e-05,0.0011400429998,1
351,0.024292973938,-0.00282177270258,-0.0109155625962,-0.00438751174069,135.060216416,1.95240238855,1000,1.29917000519,0.335789499168,1.38596564374,1.40219555441e-05,0.00122751086447,1
352,0.0227417492135,-0.0025784603758,-0.0114704447588,-0.0033290201279,147.669322574,1.89630249223,1000,1.2560337708,0.282284629092,1.66212119348,1.00209864272e-05,0.00119981412135,1
353,0.0251581699256,-0.00293407244858,-0.0116160774524,-0.00465515302639,135.270477329,1.82412843001,1000,1.27790679258,0.322723479756,1.37807336493,1.47813472713e-05,0.0014516051734,1
354,0.0234679294001,-0.00315871741523,-0.0132624203777,-0.00344718610882,150.260463862,1.74536062873,1000,1.16770488542,0.278053083974,1.6692748273,1.15490004948e-05,0.00117503953368,1
355,0.0282659893193,-0.00478739342381,-0.0478680907403,-0.00543845455499,79.956160883,1.41729741851,1000,1.19732280994,0.119680375046,1.36397962823,1.07411770776e-05,0.00118485211194,1
356,0.0258659928509,-0.0036898390526,-0.0196596405513,-0.00466795415155,181.086154128,1.65673500614,1000,1.13789831122,0.213504746842,1.42241579116,1.08969274116e-05,0.00146506960919,1
357,0.023988557314,-0.00294007510764,-0.0109376632953,-0.00437257330514,151.445181345,2.03766504416,1000,1.18616978634,0.318788711517,1.36871479472,1.10026333487e-05,0.00121558480178,1
358,0.0246899910999,-0.00270149214856,-0.0135253550331,-0.0041707338953,138.184640277,1.75025074948,1000,1.37968896068,0.275511576357,1.49385076492,1.39835841218e-05,0.00142073409762,1
359,0.0285529320119,-0.00491938371042,-0.0490875172797,-0.00495128420517,28.8167038352,1.24729713532,1000,1.23764394559,0.123967062027,1.51223142922,1.39589103046e-05,0.00111785778494,1
360,0.0266005132298,-0.00350180121109,-0.0254667356776,-0.00478714331301,165.903625577,1.53928581998,1000,1.38556471069,0.190457273512,1.43069909983,1.49408273597e-05,0.00129099461796,1
361,0.0335438833091,-0.00592555669282,-0.151502293576,-0.0067996939139,398.237433233,1.01246529246,1000,1.33905123965,0.0523026985278,1.38383682584,1.1104250103e-05,0.00145412220353,1
362,0.0244328471188,-0.00404249527058,-0.0105975353544,-0.00424713137381,140.997955119,1.85142420317,1000,1.01114748624,0.38566126402,1.4313564651,1.47891796958e-05,0.00106810900956,1
363,0.0265566358591,-0.00505373868084,-0.0315941090428,-0.0040610489439,-7.08932644416,1.31442994167,1000,1.01663360505,0.162556710581,1.67209513164,1.16020907382e-05,0.0012520059008,1
364,0.0283365895685,-0.00427998683706,-0.0660089221331,-0.00446131716191,75.8148609773,1.15362057075,1000,1.35347652892,0.0876898646722,1.66745970314,1.1067900642e-05,0.00142241685752,1
365,0.0325962082466,-0.00774190674534,-0.111418628416,-0.00606550505003,334.912494437,0.988858016843,1000,1.0261303353,0.0712336339246,1.48002313053,1.17108100569e-05,0.00104231108359,1
366,0.0255208359163,-0.00322927139623,-0.0238116843491,-0.00486586000076,-40.5297955928,1.81118239978,1000,1.35095166079,0.183145799013,1.33106543965,1.04701350583e-05,0.00115996112502,1
367,0.0262277174336,-0.00346974155494,-0.0270088506145,-0.00453439498817,173.472573888,1.53257207323,1000,1.37723586198,0.176863470203,1.47897664427,1.35445914338e-05,0.00125145141251,1
368,0.0275216253755,-0.00393842644341,-0.0333498413342,-0.00530657795508,1.79601644943,1.5152616324,1000,1.26655389185,0.149505469334,1.35912463071,1.13932999851e-05,0.00146117773964,1
369,0.0237529366581,-0.00237448365557,-0.0124956261615,-0.00373008415298,145.375691848,1.80469413928,1000,1.36500866538,0.259321864127,1.588513451,1.07627888342e-05,0.00147620155638,1
370,0.0288724564783,-0.00456706855268,-0.0647223522147,-0.00479348703224,85.2232241424,1.16306277614,1000,1.30256109551,0.0918454031475,1.59469924977,1.14718767626e-05,0.00145309581288,1
371,0.0253360541398,-0.00305255675237,-0.0232143288263,-0.00405259065171,167.325707819,1.5498208049,1000,1.39190843805,0.182962988503,1.58366868783,1.22315764512e-05,0.00139186412911,1
372,0.0254217550146,-0.00322474666459,-0.0172714690141,-0.00493875592818,156.378884807,1.86386228112,1000,1.35280688806,0.252521599941,1.30331730959,1.40166792265e-05,0.00110563700272,1
373,0.032600833691,-0.00617021052286,-0.0932896431794,-0.00648494084973,196.294411856,1.05659374936,1000,1.234670163,0.081593436184,1.39250323419,1.44839818851e-05,0.00133363225345,1
374,0.0247581665659,-0.00339116129129,-0.0159894010899,-0.00373765568881,143.419199989,1.55410415686,1000,1.22967144168,0.260739039227,1.65804922369,1.48951739273e-05,0.00129686033903,1
375,0.0258832219352,-0.00484812487177,-0.0244563562864,-0.00400104509104,-41.0290341679,1.41800273094,1000,1.00859299241,0.199879918312,1.63714111632,1.23195819009e-05,0.00116537698295,1
376,0.032970477309,-0.00639312745139,-0.136091307801,-0.00657070611434,367.707639211,1.03299677376,1000,1.25184104804,0.0587387060218,1.39059736081,1.14255181794e-05,0.00109557388334,1
377,0.0243580443694,-0.00360211837632,-0.0160250759838,-0.00380261628283,158.373555397,1.67755074973,1000,1.14442071626,0.257183896861,1.58966622563,1.24128222222e-05,0.00113867361559,1
378,0.0322652588011,-0.00772178419525,-0.0951378255148,-0.0056494343776,228.618260303,0.951598102534,1000,1.02089392605,0.0827941469218,1.5643467748,1.38933428521e-05,0.00100099829974,1
379,0.0243956820079,-0.00342719998277,-0.0211561898491,-0.00356667085581,171.160029647,1.56525636974,1000,1.22520115601,0.198414205759,1.69608495088,1.12060312782e-05,0.00117508329565,1
380,0.0236691371938,-0.00273125533291,-0.0139516347735,-0.00359225036873,138.015796097,1.7616401356,1000,1.3873035147,0.271526250896,1.61993443617,1.36964691911e-05,0.00114414728827,1
381,0.024667814765,-0.00297386280202,-0.0136669404792,-0.00438814838639,156.302459476,1.84684276462,1000,1.23393156198,0.268437571289,1.41960560117,1.1359665423e-05,0.00137636730472,1
382,0.0313519233661,-0.00597403271199,-0.103675289217,-0.0058557303069,256.033638123,1.08167747447,1000,1.22220583756,0.070358253049,1.45502258519,1.13482018226e-05,0.00112402214513,1
383,0.0279582911098,-0.00418551316942,-0.047394608272,-0.00471220102445,10.1946539557,1.27544619557,1000,1.35240291306,0.11936597887,1.54886475205,1.32100397181e-05,0.00127965894884,1
384,0.027784974876,-0.00420727280837,-0.0458505606609,-0.0050580133017,38.3160097358,1.39814052339,1000,1.30999622646,0.120138379574,1.4328297409,1.13989919806e-05,0.00123648277456,1
385,0.0305128030816,-0.00503914130551,-0.068775056553,-0.00618066970156,94.2204582915,1.24705559651,1000,1.37598710799,0.100751092576,1.32778313076,1.4858554867e-05,0.00101772586793,1
386,0.0319359953978,-0.00597012188859,-0.120850783899,-0.00585995945303,304.289229154,1.01991418304,1000,1.24202380056,0.0612878970606,1.49538680641,1.09222234633e-05,0.00131868176,1
387,0.0344892427026,-0.00641868422697,-0.136505559486,-0.00744854952266,354.881972251,1.01703747692,1000,1.29550067003,0.0608464962515,1.31365950772,1.32228562627e-05,0.00144227627437,1
388,0.0235320621093,-0.00231338841,-0.00829428780009,-0.00401652922276,124.092337804,2.0103808443,1000,1.34112531306,0.37399920792,1.45828618613,1.30301449708e-05,0.00135864201146,1
389,0.0244264490437,-0.00339077475639,-0.0153388174429,-0.00389668067834,168.652280481,1.70110891268,1000,1.10368932186,0.243919264481,1.57146646394,1.0177062538e-05,0.00139055303996,1
390,0.0326363813378,-0.00671706640289,-0.121781832694,-0.00570391305556,285.170551453,0.926374815607,1000,1.16289369339,0.0640729387907,1.58068628564,1.25385298633e-05,0.00129812445246,1
391,0.0301874165344,-0.00517899871339,-0.0667369719138,-0.00608467263172,138.61996576,1.27175362803,1000,1.25243432562,0.0971249010481,1.33647128482,1.18936229118e-05,0.00129007233838,1
392,0.0303465768521,-0.005371720448,-0.0702793820227,-0.00613364887245,177.924372345,1.25994271427,1000,1.20080155915,0.0917133777542,1.33803054133,1.08376159336e-05,0.00139006926242,1
393,0.0244627547035,-0.00355755318055,-0.0152112609385,-0.00370154878519,143.456901303,1.60789587162,1000,1.18831473073,0.277861197684,1.64041114109,1.49360363969e-05,0.00114018253568,1
394,0.0241543086059,-0.00275331055739,-0.00846504525958,-0.00461984192988,136.432468085,2.09813483077,1000,1.18748652277,0.386184544288,1.31598075337,1.2188523917e-05,0.00132809391845,1
395,0.0243244154317,-0.00350259701815,-0.00993135388885,-0.00456297583055,156.546450239,2.02022559164,1000,1.0083191835,0.35556462845,1.33938001754,1.0733126028e-05,0.00126687697951,1
396,0.0244569278473,-0.00313857212775,-0.0105109060707,-0.00464428457556,144.890327207,2.01571973202,1000,1.16531140658,0.347906986966,1.32358988452,1.26327736967e-05,0.00122554874841,1
397,0.0295199398019,-0.00585407048073,-0.0733382142823,-0.00481883917162,175.105668101,1.08541583502,1000,1.07194963947,0.0854985924796,1.63399233647,1.00482260165e-05,0.00146874782583,1
398,0.0285346883077,-0.00566657833542,-0.0352316067277,-0.00506160580217,10.7722554799,1.27770517351,1000,1.01437351801,0.163087301341,1.48760207091,1.38652821505e-05,0.00138948010587,1
399,0.0333822934674,-0.0073197424643,-0.0961366543347,-0.00715698855028,283.375395328,1.08183163367,1000,1.08895473441,0.0828446401442,1.30360186526,1.34132993204e-05,0.00125358672278,1
400,0.0252889188851,-0.00434735758975,-0.0168063766261,-0.00393249199641,158.174351768,1.51428488155,1000,1.02558839615,0.265236574093,1.6198423993,1.40210733663e-05,0.00125543701236,1
401,0.0266393391673,-0.00399411020081,-0.019794814066,-0.00505235170277,165.823120688,1.61580571639,1000,1.1716486557,0.23634904922,1.36358995943,1.44123769933e-05,0.00136046879977,1
402,0.0262063176427,-0.00346601263031,-0.0226514431182,-0.0046360081821,174.589143,1.57114222703,1000,1.26832598298,0.194007512872,1.45627173587,1.22705220935e-05,0.00149124124409,1
403,0.0297172160404,-0.00607571411793,-0.0635328707583,-0.00498006968368,100.216522175,1.09706551826,1000,1.09698794971,0.104840587743,1.58651092949,1.32947779799e-05,0.00112347488716,1
404,0.0308120402522,-0.00521687912983,-0.0718515557294,-0.00621859559263,153.06569252,1.21519700667,1000,1.26034075874,0.0914400661344,1.34960603383,1.2079905146e-05,0.00149155484068,1
405,0.0274927233135,-0.00507267888906,-0.0265427805205,-0.00481244997776,-40.6675277049,1.37980637909,1000,1.05173887295,0.200941914618,1.48577988518,1.49345382423e-05,0.0013100634452,1
406,0.0244394836154,-0.00315448826914,-0.0141563618261,-0.00372596869355,140.865674499,1.62393827346,1000,1.23816494754,0.275842477863,1.63891466775,1.41239020426e-05,0.00134674319614,1
407,0.0242514414992,-0.00284703389267,-0.0184784127511,-0.00366535093225,158.642490915,1.64342674728,1000,1.36262168826,0.209879270996,1.64668617625,1.15608314774e-05,0.00130365102753,1
408,0.0328281973189,-0.00709627983951,-0.125459598217,-0.00622614439116,389.193684679,0.99239556116,1000,1.09189204634,0.0616910982775,1.46363817142,1.05256630415e-05,0.00137211689689,1
409,0.0227990891204,-0.00245331402995,-0.0117622558421,-0.00348338396173,140.099900826,1.96485317667,1000,1.38711210049,0.289254270964,1.58859383982,1.15118535477e-05,0.00107501445228,1
410,0.0294356282972,-0.00557446935161,-0.0779438908463,-0.0046387139261,165.766384994,1.05497714689,1000,1.12700100086,0.0805337971853,1.68937310571,1.02355592714e-05,0.00146908284922,1
411,0.0241053665667,-0.00290794723936,-0.0125396229237,-0.00399765722661,140.319872791,1.83142166073,1000,1.28816663152,0.298668060981,1.49989020455,1.3423912388e-05,0.00121974229685,1
412,0.028850907394,-0.00535948775651,-0.0492669376676,-0.00499646330931,59.1636924265,1.21521890274,1000,1.11697078585,0.121444025965,1.5269577101,1.25215429509e-05,0.00134761301542,1
413,0.026684909713,-0.00504300665411,-0.023355618687,-0.00461224765672,-48.832367302,1.46703074459,1000,1.02398448753,0.221042851133,1.48289925483,1.43381985113e-05,0.00113683094767,1
414,0.0234323204126,-0.00230658994394,-0.0103077024201,-0.00428789943309,144.364767056,2.1790991505,1000,1.38571475313,0.310024538548,1.3540027879,1.05769105073e-05,0.00118651546927,1
415,0.0246065933227,-0.00328600107152,-0.0168508736099,-0.004162934986,153.329624356,1.76885289886,1000,1.29874668303,0.253201841354,1.47096383484,1.36830714137e-05,0.00104226524125,1
416,0.0339248756883,-0.00801354980366,-0.158160629417,-0.00654851446583,518.360177026,0.941346538618,1000,1.05979717622,0.0536286158158,1.45003208128,1.04348839628e-05,0.00106333767484,1
417,0.0253762985989,-0.00301444896246,-0.0166469651016,-0.00477991283734,150.73175677,1.81581001788,1000,1.39276222356,0.252139724894,1.34754253038,1.42226525727e-05,0.00122719430056,1
418,0.0274593912982,-0.00423805917322,-0.0400142707839,-0.00501956445159,34.4823310923,1.44494812163,1000,1.23221696595,0.130442001943,1.42493725098,1.06078706534e-05,0.00133019758711,1
419,0.0238584900156,-0.00288639223647,-0.0109138118206,-0.0036855416944,139.370407747,1.7544293505,1000,1.18145752496,0.312402805684,1.6128207929,1.21764301163e-05,0.00143398568155,1
420,0.0301920884471,-0.0066890085194,-0.0801828371895,-0.0052782926982,237.292587225,1.10311460695,1000,1.01079589794,0.0842560558949,1.53318792807,1.00121741045e-05,0.00120363915921,1
421,0.0287341708712,-0.00561450981582,-0.0345269082002,-0.00567455914344,24.3561903572,1.39850750413,1000,1.03417387041,0.168107266792,1.34037538507,1.34907308006e-05,0.00128198963221,1
422,0.0242370728684,-0.00303129733495,-0.0152726972441,-0.00383001478334,144.771246116,1.72055127517,1000,1.32074998869,0.262077869693,1.57002572509,1.37850543441e-05,0.00116023676586,1
423,0.0338477486684,-0.00671736198839,-0.146635910616,-0.00641918444858,368.756824032,0.929344039991,1000,1.22532199076,0.0560623678489,1.48024556666,1.23669987784e-05,0.00136529716918,1
424,0.0246716403028,-0.00348704467423,-0.0169611269948,-0.00455660937395,177.136413241,1.91638713923,1000,1.17444280999,0.24139428974,1.35470400213,1.04564951614e-05,0.00107632252366,1
425,0.0238917156041,-0.00344091060166,-0.0111099441569,-0.00372462719018,154.818161537,1.76386659915,1000,1.00862365185,0.312331348104,1.59721589409,1.05278068662e-05,0.0013950396608,1
426,0.023859330497,-0.00296463143999,-0.0152131708754,-0.00417328047789,165.69107781,1.98474414697,1000,1.28050008207,0.249473493364,1.41198101674,1.03622115267e-05,0.00104784437371,1
427,0.0243659347806,-0.00277479734821,-0.0124806649887,-0.00393665293051,138.248035291,1.73399695854,1000,1.29656035127,0.288200282854,1.55440315079,1.33030413534e-05,0.00144429641119,1
428,0.0253339438027,-0.00390854957233,-0.0184947381647,-0.00448109865193,173.116515663,1.71328100917,1000,1.12524286823,0.237740928567,1.42742808017,1.20238943239e-05,0.0011593521506,1
429,0.0242964273701,-0.0027422602078,-0.0113728106002,-0.00404399593534,138.268706789,1.79957421219,1000,1.26661865682,0.305353035463,1.51048659335,1.27867582475e-05,0.00145386722035,1
430,0.0242389196342,-0.00310198774001,-0.00860249250896,-0.00438951262702,144.899079038,1.96898819019,1000,1.04307716132,0.376073628406,1.39371972073,1.10200563479e-05,0.00145227057132,1
431,0.0236267796987,-0.00245513301751,-0.00955639233559,-0.00444371845702,144.553104166,2.18950432792,1000,1.29766482428,0.333323768883,1.32393230369,1.06090076359e-05,0.00122065635469,1
432,0.0271363955782,-0.0045864635078,-0.0406970050364,-0.00435490638828,13.1686636734,1.30683957933,1000,1.17906120242,0.132812113574,1.60541853585,1.17672069498e-05,0.00120706656809,1
433,0.0248154824759,-0.00315262380691,-0.0152120340082,-0.00416823278736,155.77059842,1.71742618629,1000,1.22546243727,0.253909405776,1.50230820794,1.21249865575e-05,0.00138763359191,1
434,0.0234038366245,-0.00261988781808,-0.009008831598,-0.00364827518633,129.054989591,1.86500396867,1000,1.22647606213,0.356619153621,1.58773821407,1.26578922347e-05,0.00137204540891,1
435,0.0248856351927,-0.00379245268974,-0.0138766697477,-0.00455888310848,153.179496444,1.85841789211,1000,1.12851965491,0.308365652556,1.36721133792,1.38968953908e-05,0.00104380120385,1
436,0.0376727536621,-0.01006964242,-0.217909369354,-0.00738347524176,673.826177135,0.771908049753,1000,1.0002048318,0.0461507370711,1.49032355023,1.29240491451e-05,0.00120588598269,1
437,0.0241816144653,-0.00284455552207,-0.0107074476791,-0.00401873474522,128.973765429,1.81976056333,1000,1.27987302449,0.339956712056,1.50304706461,1.48736058482e-05,0.00130921260986,1
438,0.0366650274258,-0.00775993745983,-0.225718101156,-0.00667170540002,515.308783014,0.756273646828,1000,1.23069764853,0.0422400669019,1.58987589297,1.38957825896e-05,0.0013960126114,1
439,0.023770204887,-0.00317918102559,-0.00888172984052,-0.00370279933916,127.228846996,1.78691824227,1000,1.09925723452,0.393424259045,1.59287885049,1.43268235281e-05,0.00133514217612,1
440,0.0332794776044,-0.0060024543929,-0.156267722725,-0.00572692324854,285.922503858,0.874472437778,1000,1.38063994578,0.0529630482596,1.61219197579,1.39678706298e-05,0.00107962948904,1
441,0.0246822177929,-0.00365755202295,-0.0151104208142,-0.00371764682528,150.87229839,1.56314077349,1000,1.10859571041,0.26828339225,1.66305462173,1.33358793929e-05,0.00135330869697,1
442,0.0305275814235,-0.00482581953652,-0.093084597804,-0.00626357006074,232.062376808,1.26170112957,1000,1.387094552,0.0718422225026,1.31704815244,1.01933061607e-05,0.00122933357371,1
443,0.0248567431715,-0.00312861317079,-0.0140025891632,-0.00473589333784,148.871140995,1.93807276816,1000,1.30127840018,0.290685201297,1.31970779127,1.3765316021e-05,0.00111618841236,1
444,0.0232758105985,-0.00214113028585,-0.00747876745394,-0.00441466013041,134.399977219,2.299110699,1000,1.3263243016,0.379661068384,1.31202942554,1.03971483256e-05,0.00127132066224,1
445,0.0261594879438,-0.00373413140031,-0.02564988499,-0.00416448112547,173.143498002,1.42110358181,1000,1.24572230836,0.181288720487,1.6079313457,1.31701176431e-05,0.00143189415307,1
446,0.0281444970717,-0.00489409978297,-0.0510999541939,-0.00462868675704,50.3016181524,1.22483263866,1000,1.1920820207,0.114105468462,1.58831060339,1.19887825614e-05,0.00123475738703,1
447,0.0320458438761,-0.00649762828812,-0.0974508046525,-0.00573317601851,213.967506425,0.986967838632,1000,1.15150992391,0.0767102263381,1.5352201396,1.32398194697e-05,0.00133422155684,1
448,0.0253578168006,-0.00384020111387,-0.0123385338463,-0.00456677296722,144.267576366,1.73983474909,1000,1.07448726353,0.33436571423,1.41099161546,1.49235776063e-05,0.00132371942458,1
449,0.0245073586415,-0.00393967699734,-0.0133570986815,-0.00369943421209,142.927066486,1.5963310214,1000,1.05733474644,0.311808173742,1.64838760043,1.48156902119e-05,0.0012032777783,1
450,0.0279605456199,-0.00422521257336,-0.0513733025531,-0.00554861699056,84.9673228572,1.5004753097,1000,1.33746456271,0.109932277413,1.31578798349,1.02040841295e-05,0.00109484092781,1
451,0.0242141872534,-0.00318477441242,-0.00829799398725,-0.0042593185906,140.414050191,1.91818909655,1000,1.02237069085,0.392337698118,1.43337142809,1.16361765294e-05,0.00147395554017,1
452,0.032683192333,-0.00713445584145,-0.109688566586,-0.00637823449064,348.541113297,1.03094879838,1000,1.06647220154,0.0692980701218,1.42187430278,1.08908287572e-05,0.00141349562028,1
453,0.0380064957902,-0.00772908288288,-0.229510485633,-0.00855285688529,585.293408806,0.871030799581,1000,1.31729535841,0.0442917384743,1.30328165651,1.46971857674e-05,0.00110694694726,1
454,0.023855331787,-0.00276695296429,-0.00906444714347,-0.00426670822774,139.103326914,2.02972891501,1000,1.18425238926,0.3614416387,1.39702589393,1.17139649447e-05,0.00131133786182,1
455,0.0253886088384,-0.00356139579178,-0.0154535500848,-0.00479757975427,156.240098238,1.81935306464,1000,1.2028368206,0.277144175921,1.34115535097,1.37525991517e-05,0.00117444385382,1
456,0.0262034076946,-0.00375525439359,-0.0219683223308,-0.0048471016912,166.736500247,1.64307670586,1000,1.27459197078,0.217816221199,1.38127354528,1.4410874081e-05,0.00115544519739,1
457,0.0231296350418,-0.00241020402417,-0.0077949757081,-0.00385279760276,135.91550688,2.0568245086,1000,1.19438864725,0.369246995205,1.48729125621,1.02956564019e-05,0.00137386288265,1
458,0.0317762412216,-0.0057476369697,-0.121948883967,-0.00585818594016,314.273106334,1.03615974306,1000,1.2631663992,0.059465282173,1.48774480841,1.0360587371e-05,0.00140135510333,1
459,0.0269808075566,-0.00439656120385,-0.0251705135495,-0.00520994423967,-28.4019369393,1.59361845617,1000,1.12835169884,0.197027435879,1.34179527989,1.25189803176e-05,0.00126744335758,1
460,0.0283385364514,-0.00414492700888,-0.048169360559,-0.005638725088,40.987301494,1.45653809661,1000,1.39810708463,0.120238330145,1.31935277178,1.24109408353e-05,0.00112451114786,1
461,0.0248785915339,-0.00396598410533,-0.0152599870685,-0.00401605173863,163.435766945,1.64005445798,1000,1.03183250752,0.268111029546,1.55771722998,1.19771457775e-05,0.00131122845288,1
462,0.0259052887739,-0.00433041826786,-0.0227176087916,-0.0043734827989,178.983357346,1.54461418031,1000,1.10443670494,0.210466727776,1.50318764651,1.27545492928e-05,0.00115381190945,1
463,0.0254369167217,-0.00428908177499,-0.0210996193352,-0.00427211971573,182.443930681,1.61033072292,1000,1.06934723483,0.21731472572,1.50086570175,1.16175488042e-05,0.00112714761093,1
464,0.0261758725813,-0.00378281205551,-0.0276951546301,-0.0046443073129,-21.7817911955,1.58048836714,1000,1.22350644047,0.167050149757,1.44395057166,1.06611001892e-05,0.00130782847729,1
465,0.0247377626593,-0.00272322905025,-0.0142734364146,-0.00410475012067,143.430725958,1.71069299911,1000,1.3565198463,0.258747915486,1.52361282123,1.31082610402e-05,0.00148675921577,1
466,0.0246991515942,-0.00318338743435,-0.0162257330517,-0.00407312247402,168.581809673,1.70725938719,1000,1.17773132582,0.23100021186,1.52981533425,1.03243908563e-05,0.00144436324855,1
467,0.0270645759958,-0.00464032827763,-0.0202010849431,-0.00495505860447,170.0806712,1.49972452258,1000,1.0417803682,0.239245970579,1.42149404683,1.4560116579e-05,0.00146631797138,1
468,0.0228066647922,-0.00275342424409,-0.00960409528503,-0.00343404392353,142.989929401,1.93466648653,1000,1.15328379586,0.330581619912,1.62096969087,1.03691167372e-05,0.00122521384534,1
469,0.0300257701495,-0.00622086932713,-0.0650488832233,-0.00537713193603,138.248697928,1.14440303306,1000,1.07079273883,0.102338328165,1.49433831145,1.21989074816e-05,0.00119721976281,1
470,0.0263619533286,-0.0042705735763,-0.0298620918022,-0.00412857885795,-41.4834549302,1.37119733822,1000,1.18378420893,0.169228603659,1.62821953591,1.3213548044e-05,0.00121019624255,1
471,0.0255364294579,-0.00340221164078,-0.0199377864902,-0.00473664367017,170.940202337,1.75953543055,1000,1.28417755059,0.219070972512,1.36852378416,1.22786119544e-05,0.00119362680625,1
472,0.024815240305,-0.00355848541168,-0.0146398032515,-0.00437102716574,166.519695276,1.80050999035,1000,1.09994779256,0.26730467286,1.43099754468,1.10687902195e-05,0.00129132174549,1
473,0.0246199116292,-0.00301731386793,-0.0132422978276,-0.00468346102067,165.491495241,1.98410731941,1000,1.19401136831,0.271999692249,1.3279539112,1.01629414885e-05,0.00130885165692,1
474,0.0278757934018,-0.00407191739479,-0.0364879132404,-0.00512770326356,-23.6965850202,1.4015520346,1000,1.34633536088,0.150179805798,1.42162455911,1.45550888933e-05,0.00128449207539,1
475,0.0236867882946,-0.00233914982169,-0.00904516587501,-0.0042278046308,136.002648436,2.06452571549,1000,1.31693274522,0.340510735898,1.4004378423,1.12988056035e-05,0.00136391090531,1
476,0.0248558255036,-0.00372112563905,-0.0120649581135,-0.0041614797959,149.467770105,1.70460589358,1000,1.03364241259,0.318746301918,1.50918513696,1.28892931818e-05,0.00141887372172,1
477,0.0373361098191,-0.00910498782918,-0.212722480782,-0.00788221890015,679.452852104,0.846217967203,1000,1.07476808566,0.0459328661023,1.38152296971,1.21935975508e-05,0.00130257316893,1
478,0.0236066367645,-0.00254253537099,-0.0112381373069,-0.003584292298,137.173501413,1.7748064907,1000,1.29672684172,0.293313383821,1.63505982952,1.19256096144e-05,0.00143371955993,1
479,0.0276056797709,-0.00520344135908,-0.0354257381777,-0.00434253727265,-18.0567820905,1.22812784835,1000,1.08367595767,0.159111398051,1.6473566012,1.45059643853e-05,0.00122901295554,1
480,0.0260451362388,-0.00407644212639,-0.0225055148393,-0.00428062348276,180.321709726,1.48331559474,1000,1.10330278466,0.199779590938,1.55843305382,1.18777353806e-05,0.00145800192202,1
481,0.0260307645839,-0.00395052271084,-0.0289465271389,-0.00444742464425,-22.675116949,1.54392585267,1000,1.21342692923,0.16553994188,1.48933087093,1.10794024406e-05,0.00117922764028,1
482,0.0259082254566,-0.00344052406686,-0.0207303193808,-0.00488748321564,161.353679859,1.72436921642,1000,1.35488503647,0.224802194624,1.34880732717,1.45826464902e-05,0.00111322917586,1
483,0.0243880820344,-0.00296228949346,-0.0124015390287,-0.00462475319634,162.367416283,2.02794582969,1000,1.19349431915,0.285023559862,1.32684265279,1.01689910681e-05,0.0012723763472,1
484,0.0266638900996,-0.00335992017951,-0.0238200971666,-0.0050606280964,173.98945001,1.61318059899,1000,1.34869642086,0.19017265211,1.36752007522,1.29529648712e-05,0.00147329261823,1
485,0.0264675224045,-0.00464212452776,-0.0178415169858,-0.00492095258715,170.66594578,1.61009996161,1000,1.00598973989,0.261689321149,1.38589148995,1.36765059683e-05,0.00132832305594,1
486,0.0233520851681,-0.00275753970352,-0.0115556415898,-0.00353226925306,128.478875796,1.82136625188,1000,1.34601461769,0.32114275435,1.61546189344,1.47845442853e-05,0.00108674667166,1
487,0.0247226850621,-0.00298452661671,-0.0142512902408,-0.00442002614377,144.463768661,1.84540314963,1000,1.33993429649,0.280549903138,1.40414715722,1.407799153e-05,0.00118787223829,1
488,0.0280833156926,-0.00541139711471,-0.0322534920423,-0.00507313363599,-11.6795683826,1.35200151677,1000,1.0606381409,0.177889418639,1.44677729124,1.47993000679e-05,0.00117902278396,1
489,0.0355272569603,-0.00799961181144,-0.186183679296,-0.00626495703884,424.145974032,0.781249005746,1000,1.16544546729,0.0500061712979,1.61309965712,1.4489990786e-05,0.00100062578791,1
490,0.0267389536873,-0.00371603247385,-0.0305963488781,-0.00503016005432,-41.1947389655,1.58803577864,1000,1.39523216753,0.169390682946,1.36353441499,1.3895021787e-05,0.00104898582379,1
491,0.0231159444954,-0.00262336663177,-0.0111520309821,-0.00341053350898,125.669606927,1.8270591828,1000,1.3773662241,0.323946784998,1.65016541709,1.47323499749e-05,0.00109405474345,1
492,0.0242272985386,-0.00308352501598,-0.00944461554849,-0.00452755104734,137.667969586,2.03420075956,1000,1.16173358294,0.379236197078,1.33985262921,1.32581391511e-05,0.00121135867479,1
493,0.0340522372859,-0.00643407740947,-0.18350674348,-0.00567487746635,373.384610389,0.806468609223,1000,1.30889293154,0.0458222539078,1.68562225209,1.2772311379e-05,0.00141659884151,1
494,0.0240610567999,-0.0027838468114,-0.013977055125,-0.00371687375558,149.312580383,1.71511695881,1000,1.27921340022,0.254722826767,1.61519735539,1.15351833416e-05,0.00141427050599,1
495,0.0241465246828,-0.00355220990445,-0.0103230956025,-0.00428298816656,143.189508514,1.94895954527,1000,1.07501611081,0.369865822838,1.40145759668,1.32956466995e-05,0.00111189331179,1
496,0.0312649396663,-0.00540282513575,-0.072396274299,-0.00639717469886,133.528301981,1.19207935704,1000,1.28080951393,0.0955168339173,1.33500181875,1.38607934448e-05,0.00135560769294,1
497,0.0257753949546,-0.00344052406679,-0.0210261549741,-0.00436234150001,166.946592835,1.5683193402,1000,1.26338782017,0.206664954894,1.50888054809,1.27888438628e-05,0.00141775823758,1
498,0.0254208007259,-0.00328531895109,-0.0189947778517,-0.00421184301463,160.224274151,1.59119465521,1000,1.27255017607,0.220035286965,1.53415271522,1.29086235809e-05,0.00142536035104,1
499,0.025691587148,-0.0041655952554,-0.0245651772187,-0.00451474992225,-35.1634906538,1.64188940718,1000,1.14958608695,0.194877277216,1.43676737275,1.15263468244e-05,0.00102835818236,1
500,0.0267047905948,-0.00377649107361,-0.0256295578038,-0.00512677103232,-41.3229541772,1.62550226172,1000,1.26885154479,0.186899837569,1.34597098777,1.25783892179e-05,0.0012905712434,1
501,0.0249285072112,-0.00351805841264,-0.0100728483856,-0.00441668375407,137.556613781,1.78940843627,1000,1.06072983305,0.370421753244,1.43213230233,1.42230021927e-05,0.0014397123566,1
502,0.024619148889,-0.00247639243493,-0.0090176764251,-0.00472459287741,123.703087103,2.00148417602,1000,1.36538281549,0.374895875489,1.32272421919,1.4900322349e-05,0.0014219626574,1
503,0.0272384573777,-0.00470947254319,-0.0310147160225,-0.00440506497088,-26.6265275649,1.30467482494,1000,1.10083324354,0.167093825436,1.60403477147,1.32983247057e-05,0.00143641280391,1
504,0.0251323205932,-0.00395297834403,-0.0160221656037,-0.00403847076048,157.870348989,1.58991952218,1000,1.07490658114,0.265144361267,1.56890104924,1.32875603152e-05,0.00130500877118,1
505,0.0260606247907,-0.00403242262682,-0.0204351431706,-0.00444526459649,172.257517739,1.53683964547,1000,1.11530284679,0.220019837106,1.50213733063,1.27639430605e-05,0.00141119423879,1
506,0.0283383365674,-0.00454774180956,-0.0348465270561,-0.00554702537646,-14.3456292676,1.43295189851,1000,1.24881933184,0.162915855187,1.34420009834,1.49635363959e-05,0.00123521040657,1
507,0.0270025019076,-0.00377956061521,-0.0357361711463,-0.00467864070361,-23.0206167818,1.42785898338,1000,1.36199968744,0.143982228097,1.49040235751,1.28013107905e-05,0.00127275133832,1
508,0.0275694187786,-0.00420265712741,-0.0491510681584,-0.00479782986507,36.1753911293,1.36254157211,1000,1.342603567,0.114731995826,1.48776301866,1.16758185149e-05,0.00109326767457,1
509,0.0294038231151,-0.00473177787848,-0.0561254303552,-0.00564254496203,65.3885054978,1.28717623259,1000,1.31312753085,0.110638623995,1.38820740957,1.32657060586e-05,0.0012541712734,1
510,0.0233096079449,-0.00319496074288,-0.010655015362,-0.00361285040308,139.259291366,1.87524611933,1000,1.14356234648,0.342850310884,1.57699697846,1.28059402633e-05,0.00108128449234,1
511,0.0256502231612,-0.00413455877969,-0.0195520246983,-0.00393672114254,167.469555222,1.44083548165,1000,1.0614207714,0.224392533061,1.65762724795,1.27944854132e-05,0.00147581141285,1
512,0.0356898450624,-0.00709871273555,-0.21588151652,-0.00607782869103,427.20772248,0.747477500353,1000,1.301945938,0.0427414082785,1.67752833423,1.43685307298e-05,0.00127412067226,1
513,0.0268457491018,-0.0045941032556,-0.0443177680354,-0.00405747918084,15.6351824554,1.26449134284,1000,1.19890936021,0.124217004995,1.68995082483,1.17175831544e-05,0.00106267412554,1
514,0.0239964956327,-0.00287079441798,-0.0127169287385,-0.00454728706266,151.507054935,2.11604110371,1000,1.32149799528,0.298262329077,1.30775052658,1.20132395341e-05,0.00100893897175,1
515,0.0289681857818,-0.005117380509,-0.0538349384513,-0.00491863337802,37.9872976483,1.18015148237,1000,1.23131328151,0.116979155664,1.55186131695,1.44420271075e-05,0.00112513374997,1
516,0.0230814442695,-0.00290751522983,-0.00907938557896,-0.00386016450256,134.562206924,2.0772845719,1000,1.19269844265,0.381886227166,1.45947631825,1.26705617749e-05,0.00103340139814,1
517,0.0234926974581,-0.00282777536158,-0.0106554701089,-0.00355966775358,138.069252208,1.79468347753,1000,1.19720357716,0.317660506784,1.63055783234,1.20778956993e-05,0.00133762382932,1
518,0.0245708511034,-0.00354206904869,-0.0241003576788,-0.00392269220079,188.894879814,1.67627357033,1000,1.23377586436,0.181266573053,1.55389517865,1.00515770761e-05,0.00102281072139,1
519,0.0339885891777,-0.00636832100817,-0.179930204617,-0.00627152813126,426.262686265,0.896331279794,1000,1.31730862374,0.0465541128004,1.52140292181,1.16922041225e-05,0.00128363412269,1
520,0.0319493974369,-0.00636179539028,-0.137045980697,-0.00516728898087,297.97698663,0.898387918106,1000,1.21633075687,0.0563947824319,1.68730804748,1.16661533959e-05,0.00108952978223,1
521,0.0245035372919,-0.00428753563556,-0.0185325048944,-0.00363276831714,175.228400039,1.5686885492,1000,1.00932342569,0.233451509729,1.67215602343,1.11950961906e-05,0.00110710050339,1
522,0.0237929735502,-0.00297154359279,-0.0154807439491,-0.0036911123439,150.688677209,1.77524457112,1000,1.31553854838,0.25245833426,1.58529673849,1.23960415817e-05,0.00108631299507,1
523,0.0293623179316,-0.00602769284565,-0.0603435261396,-0.00462166091755,82.7075726761,1.05992754433,1000,1.07012071762,0.10682842678,1.68336406877,1.3158554773e-05,0.00125093534466,1
524,0.028652833343,-0.00551548867928,-0.0425667651119,-0.00481520119656,21.8902561126,1.19883928333,1000,1.0792664724,0.139778973926,1.56793406379,1.39879392025e-05,0.00132796231245,1
525,0.0257604917643,-0.00419631340828,-0.0196699633058,-0.00395452448357,164.836026202,1.42538138587,1000,1.06565265659,0.227282907473,1.65854586146,1.3431928395e-05,0.00145693724854,1
526,0.0279767208078,-0.00541257945658,-0.0316725301451,-0.00466729476852,-21.0606442033,1.26047581406,1000,1.02944307635,0.175861747435,1.56817951617,1.47616996673e-05,0.00138112734948,1
527,0.0252930800534,-0.00370984791612,-0.0132053723797,-0.00481131311059,160.708290854,1.84918759878,1000,1.07174239157,0.301034379801,1.33815348267,1.21289350937e-05,0.00132268795994,1
528,0.030251321811,-0.0065861447715,-0.0891536064723,-0.0048558783064,207.269464496,1.00852591105,1000,1.06632771834,0.0787073901154,1.66374168275,1.12236676313e-05,0.00104439535517,1
529,0.0239780545365,-0.00345027838772,-0.0100600017857,-0.00419958758584,149.919094667,1.96088007577,1000,1.03873739775,0.356203445494,1.42102882483,1.14984256604e-05,0.00120611066742,1
530,0.029813633194,-0.0059020008036,-0.0634140908691,-0.00515521545078,92.5006994041,1.1233956364,1000,1.14171293899,0.106194760274,1.53856669774,1.38596321986e-05,0.00105920470504,1
531,0.0232631568432,-0.00345171084045,-0.0094367939019,-0.00351726260551,140.751649466,1.83955626415,1000,1.01537296,0.371346717152,1.62035110799,1.20319491e-05,0.00118355980856,1
532,0.0235175479844,-0.0025834625916,-0.0149836373796,-0.00340887368278,149.223865357,1.71253395096,1000,1.36621356307,0.23549714306,1.69989800339,1.11742876068e-05,0.00131328738598,1
533,0.0272181174517,-0.00481765682975,-0.0226168596169,-0.00536855995711,-39.1050692931,1.59278019848,1000,1.05521790012,0.22471501673,1.31724834475,1.37521686087e-05,0.00124212789551,1
534,0.0304575761766,-0.00627236941313,-0.0726518420546,-0.0049526029712,112.158037355,1.00580822991,1000,1.10924398894,0.0956998438878,1.65142760628,1.41501810868e-05,0.00121128036415,1
535,0.0241450593291,-0.00285205884593,-0.0107138823477,-0.00446909333388,132.552556017,2.03339804034,1000,1.32485364548,0.352621634999,1.34418202821,1.48098313822e-05,0.00108731945796,1
536,0.0246719566702,-0.00364397782816,-0.0101340345804,-0.00441859369101,142.993210604,1.85847453084,1000,1.03238925678,0.371174600443,1.40734779768,1.33895243146e-05,0.00131245704778,1
537,0.0308721090953,-0.00656261161969,-0.0669662098243,-0.00555871237175,126.795714407,1.07972283589,1000,1.06698049404,0.104497452732,1.50286278635,1.40266744744e-05,0.00124884447983,1
538,0.0233469799861,-0.0023217330156,-0.0100846945423,-0.00368506421024,139.205377506,1.90067895362,1000,1.30976936514,0.301478139141,1.57208849625,1.05962070369e-05,0.00143626668823,1
539,0.0304127464204,-0.00653102944767,-0.082799064295,-0.00491344926336,196.789063917,1.00270590111,1000,1.03991048747,0.0819590130999,1.66570887632,1.11161450921e-05,0.00138553166182,1
