zdelrosario/hyperspace/scripts/as_data0.csv
,F,G1,G2,G3,G4,G5,N,Q1,Q2,Q3,Q4,Q5,bnd_idx
0,0.715727517891,-0.59314789873,-1002.98022315,-0.545736289829,65919.4455501,0.0,1000,1.20655945108,0.000613600828181,1.31138969059,1.08576082811e-05,0.134263849085,0
1,1.04716435099,-0.785181632759,-2198.67981503,-0.631756123965,76953.7001182,0.0,1000,1.33355874505,0.000376269597705,1.65744523187,1.36077193088e-05,0.10949694771,0
2,1.27486009915,-1.04343546574,-2466.26781846,-0.92861830133,91532.1146479,0.0,1000,1.22169103645,0.000416918758624,1.37275696106,1.39280088093e-05,0.148274161121,0
3,2.958608027,-2.70676650656,-10750.5492493,-1.91928047527,216827.840169,0.0,1000,1.09294146473,0.000175205290297,1.54141936892,1.36449637864e-05,0.113811941425,0
4,0.718897722834,-0.564185379756,-1079.29518741,-0.544828414258,67253.6664267,0.0,1000,1.27412253151,0.000566080726777,1.31939381497,1.06893461878e-05,0.109348371307,0
5,0.71899969089,-0.514369523806,-1075.38277002,-0.469438670083,52581.1525787,0.0,1000,1.39772716046,0.000568598857016,1.53151581419,1.36740952913e-05,0.127098088611,0
6,0.457143845127,-0.334815263858,-493.07515049,-0.312833857921,38786.6217757,0.0,1000,1.36526142307,0.000827128135889,1.46119913228,1.17861217141e-05,0.147643835736,0
7,0.497966369827,-0.437752378386,-508.861171633,-0.305086991774,39238.3526252,0.0,1000,1.13745263116,0.000878589834686,1.63211108488,1.26908072462e-05,0.146123468628,0
8,2.92528676554,-2.81559514337,-9998.83555609,-1.85062400512,202408.38186,0.0,1000,1.03885859191,0.000192562743845,1.58060291828,1.44523993456e-05,0.107978015045,0
9,0.808390483303,-0.728063907391,-1003.90951433,-0.591871362038,59850.3828184,0.0,1000,1.11022901796,0.000705242376691,1.36572124961,1.3506855683e-05,0.12438176111,0
10,0.74572082555,-0.586087519034,-1114.02481041,-0.566029764828,67063.1369955,0.0,1000,1.27227110727,0.000569393373093,1.31735867777,1.11196830175e-05,0.128760254343,0
11,0.840649557319,-0.801937267467,-1293.0980418,-0.620266496989,81902.3886372,0.0,1000,1.04817346405,0.000550105042421,1.3552038273,1.02640420054e-05,0.108913846127,0
12,0.450800180703,-0.382992424226,-455.432571126,-0.268364486258,36381.7373797,0.0,1000,1.17694725261,0.000889828592165,1.67970565159,1.23908370839e-05,0.123055967114,0
13,0.990137980099,-0.788944751214,-2011.87365599,-0.73499741729,96546.9747066,0.0,1000,1.25491561241,0.000392147196794,1.34703123721,1.0255504982e-05,0.131882932641,0
14,0.533553333603,-0.402679828965,-664.256097618,-0.341844511064,44012.2220504,0.0,1000,1.32490635796,0.0007032343783,1.56070708139,1.21228447178e-05,0.13282976681,0
15,0.7736215781,-0.71382805678,-974.417850437,-0.511671619977,56293.6761602,0.0,1000,1.08366459954,0.00069393206698,1.5118493595,1.37426018493e-05,0.104687842793,0
16,0.536364425502,-0.408220456397,-655.287402841,-0.339873109411,42963.003532,0.0,1000,1.31380873999,0.000718517833819,1.5780313986,1.2484332598e-05,0.148768056352,0
17,1.18035510869,-1.09139440656,-2516.11360261,-0.848466825349,115259.548866,0.0,1000,1.08141104824,0.000369118368688,1.39106235712,1.02408444272e-05,0.145198567873,0
18,0.734687560655,-0.711809011482,-984.183297177,-0.473247394203,61791.884049,0.0,1000,1.03204141547,0.000646494644607,1.55233868145,1.18897096595e-05,0.100662050554,0
19,0.955673749849,-0.714796182172,-1748.89613532,-0.628415901871,70515.4253853,0.0,1000,1.33688776474,0.000446443971456,1.52066633803,1.35526907003e-05,0.133763942536,0
20,0.937942778416,-0.733957112409,-1845.57715266,-0.640209407743,83752.7066451,0.0,1000,1.27782586591,0.000408211091076,1.46495622547,1.11989548277e-05,0.14844179881,0
21,2.68652810183,-2.40831302999,-8077.82926002,-1.98731780495,182505.227875,0.0,1000,1.11542280305,0.000232580451425,1.35173617594,1.47202802523e-05,0.117571713226,0
22,0.405328070054,-0.313351059444,-396.408647902,-0.256456408053,33939.5238235,0.0,1000,1.29342704527,0.000922500574089,1.58039499769,1.19426563602e-05,0.147112964443,0
23,1.33100825022,-1.02804650882,-3210.20412358,-0.816765155898,96428.440754,0.0,1000,1.29459653251,0.000314617949195,1.62950949131,1.38030672259e-05,0.119735453702,0
24,0.577875158231,-0.534982821239,-686.853517422,-0.352744993277,48793.7012309,0.0,1000,1.08007516692,0.000741336825937,1.63812355879,1.18432327053e-05,0.12184900595,0
25,1.35786264059,-1.18825257781,-3265.9483046,-0.869615772463,113607.7956,0.0,1000,1.14263906571,0.000315763666153,1.5613512565,1.19521960039e-05,0.132889150895,0
26,1.43962518418,-1.25730431304,-2763.98228745,-1.04456865148,96382.622404,0.0,1000,1.14490934202,0.000420851812518,1.37810064019,1.49365637527e-05,0.10116527462,0
27,0.943754169086,-0.773992670617,-1339.00576823,-0.709588600422,65260.4245008,0.0,1000,1.21923217834,0.000604817104958,1.32990187506,1.44613550449e-05,0.105531145577,0
28,2.43993809204,-1.9513114107,-8391.45348692,-1.53993611244,169361.962088,0.0,1000,1.25030938041,0.000190764656665,1.58434111566,1.44066475256e-05,0.134764498152,0
29,0.48478533537,-0.43809766991,-475.761369706,-0.316450390385,41088.9543361,0.0,1000,1.10646907961,0.000918967419884,1.53184734499,1.17984344748e-05,0.142631711887,0
30,0.794583960237,-0.723288221476,-880.523303245,-0.602732026853,55083.0236595,0.0,1000,1.09847168504,0.000802399694942,1.31820386446,1.44252059427e-05,0.113821061037,0
31,0.343128298865,-0.278407073234,-336.533574681,-0.202180741104,33277.4996576,0.0,1000,1.23236976048,0.000919596036414,1.69703641858,1.03111201982e-05,0.14642407188,0
32,0.41571631055,-0.34443133932,-395.602353047,-0.273700609292,36721.4341122,0.0,1000,1.20686424248,0.000950843877312,1.51877243373,1.13208081492e-05,0.13236067404,0
33,0.597135278749,-0.503786570133,-777.614628666,-0.396874553827,53738.338244,0.0,1000,1.18519415858,0.00066790643686,1.50449451983,1.11119044292e-05,0.136724769441,0
34,0.500782021335,-0.379390509139,-506.372631989,-0.352378137582,38384.8127459,0.0,1000,1.31986454648,0.000888959492869,1.42104952071,1.30463583253e-05,0.104250054179,0
35,0.596514809071,-0.528932504992,-638.701492712,-0.361729639929,41271.1973322,0.0,1000,1.12767113042,0.00083394929537,1.64896256835,1.44535377607e-05,0.134495495114,0
36,0.803289586154,-0.587851345563,-1418.04762681,-0.588428413649,73558.2489954,0.0,1000,1.36638421785,0.000466475745218,1.36504411528,1.09204555183e-05,0.111188560515,0
37,1.72226412528,-1.72127359346,-4261.93794419,-1.02975940425,125780.716262,0.0,1000,1.00047546448,0.000304103520002,1.67239176669,1.36925927635e-05,0.145873860046,0
38,0.845983260836,-0.681420714123,-1389.18620128,-0.593467745389,71061.7138523,0.0,1000,1.24139918443,0.000508977587063,1.42539155773,1.19049093383e-05,0.132140600597,0
39,1.40123986157,-1.0593680244,-4413.70207926,-0.879995564302,139744.014136,0.0,1000,1.3226130037,0.000217474953318,1.59222605074,1.00271905759e-05,0.132533066167,0
40,1.25493078376,-1.06231283196,-3297.41046485,-0.808302146658,124386.581465,0.0,1000,1.18121942495,0.000280580700262,1.55245159096,1.00889562924e-05,0.141927533293,0
41,0.938929750914,-0.775770860399,-1758.80884154,-0.63855404789,82904.2142683,0.0,1000,1.21021840566,0.000433844115823,1.47029981035,1.13254767469e-05,0.122320380887,0
42,0.482714976729,-0.346488937542,-550.511094556,-0.320002932692,39207.1470509,0.0,1000,1.39306129442,0.000776848771084,1.50837047766,1.23119128281e-05,0.103372835131,0
43,0.621437960801,-0.497454447496,-733.123885464,-0.419778654822,46293.4443553,0.0,1000,1.24913591281,0.000747657501171,1.48029437847,1.34238868906e-05,0.136628571561,0
44,0.569640322115,-0.537385420059,-761.453547967,-0.3462519051,56634.9649485,0.0,1000,1.0599219151,0.000648095958888,1.64506155355,1.00581031988e-05,0.13999573177,0
45,1.96136231788,-1.41973782079,-6656.3076627,-1.32599788812,160914.231831,0.0,1000,1.38139613904,0.00019466220873,1.47905945829,1.21888679178e-05,0.131034799517,0
46,1.11398235836,-0.970563353206,-2004.30956896,-0.782550067873,85952.7014812,0.0,1000,1.14766882383,0.000455793563834,1.42342854354,1.29604112397e-05,0.109239732999,0
47,0.516501387352,-0.372366524329,-520.901271132,-0.383187423729,38400.3405206,0.0,1000,1.38697792888,0.000891553324933,1.3478079828,1.34504376875e-05,0.145200191319,0
48,0.639764808608,-0.515211577718,-996.104145992,-0.395560945035,58774.231889,0.0,1000,1.24165161483,0.000542266987024,1.61726090643,1.08851241105e-05,0.117101478723,0
49,1.72139590655,-1.56162228929,-4204.57045542,-1.07282376578,116964.492826,0.0,1000,1.10221258759,0.000309410646057,1.6044467685,1.47172519194e-05,0.123891012799,0
50,0.871724566741,-0.861015712925,-1189.40589764,-0.607554312804,69622.6383907,0.0,1000,1.01233746619,0.000632907553654,1.43470928103,1.252070572e-05,0.101187300363,0
51,0.574883245577,-0.511118844829,-591.56487564,-0.393087205962,44635.7152606,0.0,1000,1.12465454856,0.000871800844253,1.46238271848,1.28794451309e-05,0.134557853103,0
52,0.397999615759,-0.295769691864,-418.875490528,-0.247618566543,34810.4067758,0.0,1000,1.34554029618,0.000850162100097,1.60720926326,1.1433351478e-05,0.115291221546,0
53,0.563763249915,-0.423735082993,-789.951805517,-0.402874472009,56024.8744642,0.0,1000,1.33036158447,0.000613667904773,1.39925212848,1.00627311584e-05,0.116644562988,0
54,0.55954984293,-0.483514847589,-607.433163928,-0.337418745906,40617.344881,0.0,1000,1.15715472696,0.000821171045901,1.65822470697,1.37761304824e-05,0.13345159649,0
55,1.97255172744,-1.48288985358,-7693.95617023,-1.22340282076,190848.546452,0.0,1000,1.33010785238,0.000156376782477,1.61224852002,1.03356916472e-05,0.106612679715,0
56,1.0079860033,-0.78081491923,-2366.239288,-0.663539390038,100126.352244,0.0,1000,1.29084101364,0.000325986504581,1.51900499728,1.00671399757e-05,0.103596371046,0
57,1.07422971088,-1.01817895452,-2117.66506595,-0.701761311652,97316.2636207,0.0,1000,1.05495000482,0.000407270827737,1.53066223074,1.10385424893e-05,0.146174455589,0
58,0.747918688166,-0.677955378325,-906.683538859,-0.466272634868,49900.3511931,0.0,1000,1.10309751429,0.00072489496733,1.60393727827,1.49882449779e-05,0.139375742278,0
59,1.01457741311,-0.886177084674,-2026.91310464,-0.635147911108,87379.6158173,0.0,1000,1.1447924043,0.000400552989067,1.59728762478,1.16111452725e-05,0.118998483782,0
60,1.04531433662,-0.818289110718,-1876.04439447,-0.775547478347,81314.9189383,0.0,1000,1.27733889406,0.000457190618572,1.34774054594,1.28551359365e-05,0.109136013375,0
61,0.508399305206,-0.428103670093,-486.825471863,-0.344048305039,38626.6791166,0.0,1000,1.18746119305,0.000944315333913,1.47759745632,1.31618693823e-05,0.114290967629,0
62,0.509936680615,-0.410062383869,-624.312464423,-0.313172809312,44100.8275234,0.0,1000,1.24345878684,0.000716797212413,1.62819168259,1.15629730609e-05,0.114043377144,0
63,1.06824067451,-0.954593300457,-1771.86574714,-0.695524612369,74057.0599718,0.0,1000,1.11895318631,0.000502890301498,1.53577760305,1.44245622891e-05,0.149920216514,0
64,2.26204694869,-1.96757409781,-7785.00155602,-1.38881476017,179380.017563,0.0,1000,1.14956290276,0.000190564739444,1.62866073437,1.26103619535e-05,0.136614621669,0
65,0.568898672778,-0.453534329957,-724.5989747,-0.343191483452,44931.3683102,0.0,1000,1.25426738787,0.000685122105663,1.65757130074,1.26615034034e-05,0.109762326835,0
66,0.499231859005,-0.475781375461,-463.468894415,-0.358630233965,44847.1656871,0.0,1000,1.04918835964,0.000977163678125,1.39195178962,1.11318486097e-05,0.133139433749,0
67,0.571694258876,-0.47992537204,-678.90503595,-0.361108379084,45737.7830939,0.0,1000,1.19111491004,0.000742082807761,1.58306530989,1.24993871632e-05,0.106334599727,0
68,1.6186448171,-1.19478919862,-4164.43088272,-1.0993658055,111160.433244,0.0,1000,1.35465347364,0.000288683318966,1.47224415424,1.45613395869e-05,0.14695002866,0
69,0.466742125691,-0.378994417404,-477.536111125,-0.296623892649,37647.1309531,0.0,1000,1.23142770663,0.000877396504301,1.57341493679,1.23978139602e-05,0.122161572813,0
70,1.02945377133,-0.98223010224,-1722.7004778,-0.698531508252,83286.0534835,0.0,1000,1.04797801042,0.000497581404655,1.4736399232,1.23604580631e-05,0.115193921035,0
71,4.33466380155,-3.19697705738,-20775.0573222,-3.23934374159,324721.045336,0.0,1000,1.35576328077,0.000108647501392,1.33803023481,1.33488847237e-05,0.120406181951,0
72,0.77804181371,-0.581383639355,-1618.95930098,-0.47368516685,76513.4817325,0.0,1000,1.33815887252,0.000380581453308,1.64242940172,1.01686891786e-05,0.149611215515,0
73,0.525154442197,-0.378754790584,-488.929472584,-0.398532785925,35966.0800066,0.0,1000,1.38642884466,0.000974090378355,1.31761954716,1.46013811375e-05,0.132815312815,0
74,0.850585322521,-0.712088489647,-1719.6162452,-0.510490054971,81494.8941141,0.0,1000,1.19439385138,0.00039463671031,1.66611330668,1.04372836086e-05,0.142731185965,0
75,0.965147200142,-0.871160725391,-1446.15845932,-0.637387409067,67248.5952849,0.0,1000,1.10778649214,0.000567386892439,1.51412382433,1.43519310114e-05,0.101526190774,0
76,2.19594253918,-1.61671515495,-7576.49921096,-1.33409138117,150812.316032,0.0,1000,1.35817423431,0.000189836041427,1.64592108235,1.4560763981e-05,0.138527546461,0
77,1.03406223791,-1.01961179848,-1986.61654163,-0.666996161518,96813.2757194,0.0,1000,1.01407249139,0.000420514259416,1.55022711966,1.0680996281e-05,0.141202772408,0
78,0.639118529425,-0.638787878116,-773.887377998,-0.418799121324,57756.6185089,0.0,1000,1.00041762302,0.000725854701337,1.52597418899,1.10657193223e-05,0.13087370942,0
79,0.553539236006,-0.411972978492,-658.344610296,-0.355297234103,41276.2457222,0.0,1000,1.34352995852,0.000740804690049,1.55786100525,1.34106003664e-05,0.123240373763,0
80,2.68133008757,-2.3136518143,-9179.94631572,-2.04538115125,219344.863937,0.0,1000,1.15881685646,0.00019208559564,1.31081952516,1.22242665702e-05,0.131198733182,0
81,0.61421183211,-0.543661946455,-881.582912187,-0.389535287699,60216.9231797,0.0,1000,1.12966793045,0.000596714765701,1.57668097853,1.0199986975e-05,0.132151871111,0
82,0.539822371273,-0.403723337445,-605.288181231,-0.406888686226,45568.3716461,0.0,1000,1.33700965209,0.000791843568094,1.32660774476,1.18464266282e-05,0.124938696351,0
83,1.83777071153,-1.58307231213,-5026.21800484,-1.10797774161,125142.354865,0.0,1000,1.16078867037,0.000265636888363,1.658571147,1.46854413401e-05,0.104745152608,0
84,5.435374223,-4.97506676569,-27122.9242473,-3.61065134563,387659.086474,0.0,1000,1.09242287034,0.000100397795365,1.50527221755,1.402101592e-05,0.119523952659,0
85,1.17813515646,-1.05396798136,-2011.96600414,-0.797134266706,79794.0055453,0.0,1000,1.1177092478,0.000485564146728,1.47786325621,1.47647075542e-05,0.100813855522,0
86,5.09992201292,-4.62399900482,-24938.202835,-3.37072764435,367059.248217,0.0,1000,1.10282454812,0.000104502387227,1.51290328921,1.3894002229e-05,0.141935903397,0
87,1.02628659642,-0.751130262384,-1949.55235871,-0.678924494515,72677.6129675,0.0,1000,1.36622305716,0.000426421663845,1.51153583685,1.41210828826e-05,0.137632573643,0
88,0.48355457582,-0.426323328891,-584.642270822,-0.292454234833,46941.776124,0.0,1000,1.13414376067,0.000727094789332,1.65333673719,1.03011563632e-05,0.132787726041,0
89,1.03331520226,-0.908349664157,-2135.67885304,-0.622413903728,88301.2729902,0.0,1000,1.13747426577,0.000383834543192,1.66007371411,1.17021552156e-05,0.148729506135,0
90,0.532209717234,-0.417860868227,-738.012761928,-0.313761797793,47699.8607686,0.0,1000,1.27355292541,0.00062113890801,1.69612216909,1.11574689875e-05,0.103387856307,0
91,0.5935174752,-0.583141807764,-590.852390169,-0.372954858322,43691.7776013,0.0,1000,1.01769270033,0.000904510576711,1.5912922609,1.35841915295e-05,0.13865909209,0
92,2.38290042971,-1.82880900241,-8902.33528971,-1.62157289991,199377.865863,0.0,1000,1.30287938526,0.000167671386458,1.46939941618,1.19516798888e-05,0.12403886123,0
93,2.89323303622,-2.34697032798,-12110.9620005,-1.72641068934,223071.108374,0.0,1000,1.23265228567,0.000138893742388,1.6757660347,1.29700034097e-05,0.119029548649,0
94,1.33828615238,-0.957160854616,-2879.53132672,-0.957540078068,89800.9272257,0.0,1000,1.39808312244,0.000364758323674,1.39752938704,1.49028099567e-05,0.120735206036,0
95,3.20911805226,-2.5737761851,-15235.8038213,-2.09761741518,303316.317636,0.0,1000,1.24675202654,0.00011063004551,1.52978720871,1.05801035608e-05,0.11796690051,0
96,2.38962494755,-2.13508331504,-6951.14153258,-1.65914723852,162892.464224,0.0,1000,1.11911859475,0.000243774462993,1.44017298607,1.46699539413e-05,0.138661551058,0
97,2.28199247087,-1.67426991406,-8573.9459526,-1.57497937341,195075.259051,0.0,1000,1.36287764877,0.000166154286892,1.44880308367,1.16980107163e-05,0.106583076113,0
98,3.19910980871,-2.37325702705,-13658.0569001,-2.31747092529,256270.628298,0.0,1000,1.34788286585,0.000134228765637,1.38033147546,1.24833260447e-05,0.14775359321,0
99,0.7313068971,-0.726255876657,-824.868710798,-0.516506261091,57079.5151372,0.0,1000,1.00685487721,0.000786573690489,1.41577227917,1.28120726909e-05,0.104152734376,0
100,1.1366164074,-0.90667547805,-2212.51060139,-0.746113079366,81014.4900448,0.0,1000,1.25350885445,0.00041372246835,1.52328357124,1.40297915443e-05,0.147766321773,0
101,2.43880758286,-1.95202294164,-9300.63156,-1.66226022255,215263.281477,0.0,1000,1.2492744468,0.000162219567255,1.46706353419,1.13294174749e-05,0.138910992069,0
102,0.550106715545,-0.416300264444,-743.904666167,-0.370867558093,51067.3187498,0.0,1000,1.3213181266,0.000639485502058,1.48319694399,1.07721871641e-05,0.117183782581,0
103,0.882706998028,-0.735287690812,-1242.08309601,-0.671685742202,66440.8689081,0.0,1000,1.20039201021,0.000610666621957,1.31406664456,1.32856028606e-05,0.114863632786,0
104,0.713568673307,-0.576228025,-955.208381191,-0.478600620889,53581.6759364,0.0,1000,1.23824427058,0.000647029326122,1.4908480727,1.33174011607e-05,0.129682241169,0
105,0.971911006689,-0.730155073509,-1942.1475799,-0.687669893512,84968.4454534,0.0,1000,1.33100217534,0.000400431077816,1.41323947561,1.1438493449e-05,0.122607816702,0
106,1.03990888854,-0.763363631224,-2687.57995575,-0.615982845098,96999.4140174,0.0,1000,1.36217198415,0.000286931330661,1.68811079485,1.07207749559e-05,0.125318655641,0
107,2.5669865382,-2.09679345707,-8678.74857178,-1.89293422677,196936.698144,0.0,1000,1.22414387083,0.000195778419777,1.35598860673,1.30345769092e-05,0.138260710998,0
108,3.32033539928,-3.00982466875,-13559.6449408,-2.39666754469,289108.32564,0.0,1000,1.1030657205,0.000144868904295,1.38529673833,1.14847450067e-05,0.113700905056,0
109,0.717941166795,-0.686736153199,-735.741860057,-0.551025278994,53657.5403839,0.0,1000,1.04533959634,0.000875805789737,1.30281874831,1.33800610624e-05,0.133205096793,0
110,2.19814287056,-2.00029809455,-7594.91927371,-1.50442039993,210459.750047,0.0,1000,1.09880764609,0.00018942280903,1.4610227491,1.04444810471e-05,0.100753663968,0
111,3.19137427044,-2.30300440575,-14777.0990317,-2.44263270374,304863.500403,0.0,1000,1.38564388415,0.000115967576829,1.30643055842,1.0468207136e-05,0.135161099525,0
112,0.530521891456,-0.394650320066,-541.365178139,-0.400488955312,40848.2401531,0.0,1000,1.34418344405,0.000879970476268,1.32458544867,1.29876315226e-05,0.127619637709,0
113,0.526462721612,-0.397821447061,-596.979738589,-0.360910148347,42408.8159069,0.0,1000,1.32326435228,0.000781877034649,1.45860855675,1.24139924767e-05,0.113484298863,0
114,0.738930785196,-0.592719540671,-946.354547024,-0.495140956677,50533.9654055,0.0,1000,1.24657863043,0.000680818127328,1.49226449789,1.46224579699e-05,0.134686068897,0
115,0.927342589895,-0.708749085353,-1949.89620624,-0.585733823038,82270.4834779,0.0,1000,1.30832156845,0.000375585616777,1.58311502605,1.12718748048e-05,0.148974282941,0
116,0.631428884352,-0.560752434053,-738.111638542,-0.484131125217,57692.9323419,0.0,1000,1.12593859744,0.000755465286524,1.30415178524,1.09446488282e-05,0.101796072741,0
117,1.6576596636,-1.48032635131,-3894.33611224,-1.25349939096,132733.094794,0.0,1000,1.11969339025,0.000325659115143,1.32232558358,1.24886688295e-05,0.108519671232,0
118,0.418209426239,-0.307596356889,-437.364645363,-0.25634361287,33703.7170944,0.0,1000,1.35950461453,0.000856203092025,1.6313407898,1.24084066178e-05,0.145096395935,0
119,1.5963300723,-1.45902241533,-3413.51045118,-1.11346869081,110996.508021,0.0,1000,1.09400935399,0.000367650559484,1.43355510451,1.43818044438e-05,0.113291537223,0
120,0.808364999492,-0.679355645606,-1144.21995213,-0.543667418267,59655.005639,0.0,1000,1.18979958311,0.000606476930406,1.48677409311,1.3550665042e-05,0.118790071029,0
121,0.446339490658,-0.357666479748,-508.344004179,-0.267749291429,39547.8065959,0.0,1000,1.24782094292,0.000778026468275,1.66690531036,1.12860744774e-05,0.105107493176,0
122,0.727633953718,-0.520018191986,-1125.17347327,-0.430341179986,49488.4967817,0.0,1000,1.39914711276,0.000546686018648,1.69073040982,1.47030926587e-05,0.121277392719,0
123,0.976449562276,-0.845247937712,-1629.13087181,-0.654062019571,74323.9916936,0.0,1000,1.15512264972,0.000499368398927,1.49280057068,1.31377438163e-05,0.113148957526,0
124,3.24432145475,-2.32645080758,-13670.316896,-2.40125383816,247385.773763,0.0,1000,1.39443688175,0.000137325987351,1.35099475025,1.31144220842e-05,0.14364274883,0
125,0.681283139301,-0.48762515904,-1053.28740274,-0.410323408379,50460.6829411,0.0,1000,1.39704517734,0.000546815994884,1.66025650268,1.35012667208e-05,0.109888021115,0
126,2.45191296768,-1.78964967064,-8706.63228139,-1.66994709602,175207.069843,0.0,1000,1.36995192017,0.000181614393308,1.46815787088,1.39943723155e-05,0.132870035123,0
127,1.36678003906,-1.00581341871,-3745.90625514,-0.89166524684,116017.791594,0.0,1000,1.3587802989,0.000264872996269,1.53273986776,1.17807796569e-05,0.116197774767,0
128,0.425166969079,-0.367014394674,-394.23995572,-0.260986238363,34664.7769264,0.0,1000,1.15834766649,0.000978447181497,1.62897811441,1.22651003923e-05,0.120613919265,0
129,0.986976114857,-0.803359519902,-1587.97858834,-0.684535834766,69288.1734958,0.0,1000,1.22846092498,0.000521529863251,1.44171803893,1.42445104996e-05,0.138223727278,0
130,0.956483529721,-0.840615586868,-1512.83612632,-0.648435175361,71654.7136963,0.0,1000,1.13773701452,0.000532245299461,1.47496422548,1.33485081494e-05,0.126409947929,0
131,0.431037779784,-0.30933396796,-450.513861483,-0.295301162604,36731.5414415,0.0,1000,1.39333823967,0.000856769184338,1.45955486889,1.17348132659e-05,0.132074182289,0
132,0.998274013118,-0.837654387923,-1731.25910559,-0.616246729447,69565.4111924,0.0,1000,1.19164927931,0.000476617335841,1.61982585991,1.43501489606e-05,0.141732039659,0
133,0.890947290297,-0.71709771003,-1714.89960961,-0.545075895594,75128.799886,0.0,1000,1.24233499573,0.000419533204921,1.63443804782,1.18589314836e-05,0.113370729288,0
134,0.443326942718,-0.38995587804,-499.358181969,-0.262515491695,42320.7800203,0.0,1000,1.1367643677,0.000787793489175,1.68866487957,1.04753963066e-05,0.133209565565,0
135,0.720356793148,-0.549618389161,-1109.41461419,-0.461378563295,56943.5829049,0.0,1000,1.31054900184,0.000549312514844,1.5612139631,1.26503594681e-05,0.123260809093,0
136,0.899351646713,-0.892385339616,-1173.0119798,-0.610624839894,64682.6882007,0.0,1000,1.007706389,0.000666702865954,1.47273829277,1.39040548828e-05,0.119318437209,0
137,1.35410967261,-1.2750431243,-3171.15239388,-0.822386693589,111938.943071,0.0,1000,1.06191088167,0.000327008703593,1.6464607763,1.20968595509e-05,0.132559324959,0
138,1.12677329173,-1.01733783276,-2117.8985354,-0.738770577267,87708.417896,0.0,1000,1.107470421,0.000432024208382,1.5251005513,1.28468089923e-05,0.105680564077,0
139,2.64758712849,-2.56150904852,-8580.20090566,-1.82784285688,204991.423185,0.0,1000,1.03350444111,0.000208569363072,1.44837633839,1.29155995278e-05,0.119877272368,0
140,0.444672583027,-0.337595257444,-490.813946122,-0.27323545834,37047.8156707,0.0,1000,1.31707662859,0.000805990114056,1.62733366374,1.20026666884e-05,0.10759421519,0
141,0.792393525122,-0.658708080034,-1058.07015892,-0.588246642963,60874.8819287,0.0,1000,1.20285097197,0.000648904520597,1.34694300416,1.30167566657e-05,0.111490876329,0
142,1.70870137443,-1.50878028967,-4896.02695864,-1.21587654861,161524.094385,0.0,1000,1.13240510106,0.00024899754206,1.40522472344,1.05786160321e-05,0.111123091605,0
143,1.17197710094,-0.94267145083,-2726.27680148,-0.806818140731,107444.466033,0.0,1000,1.24315086955,0.000329881918192,1.45249141035,1.09077474552e-05,0.116767955701,0
144,0.624694583762,-0.452005320974,-811.215226866,-0.42154417414,46641.234053,0.0,1000,1.38195139359,0.000670072556669,1.48181962334,1.33936118211e-05,0.119288169894,0
145,0.605668552393,-0.462672821427,-678.654290028,-0.438742595882,44697.5409229,0.0,1000,1.30896447136,0.000792455203323,1.38036444106,1.35503774903e-05,0.134766607049,0
146,0.491826987699,-0.393203896759,-466.850580376,-0.332983757062,36336.2119409,0.0,1000,1.25071921047,0.000953499788526,1.47692996698,1.35354502142e-05,0.11382467248,0
147,1.18788886511,-1.09923107039,-2247.26765206,-0.849907757103,98881.6760424,0.0,1000,1.08055437478,0.00042859251724,1.3975679883,1.20132355423e-05,0.129729299276,0
148,0.736962346216,-0.631688339812,-1003.67466668,-0.498235009876,58482.0905015,0.0,1000,1.16655497805,0.000634264170135,1.47904604877,1.2601504835e-05,0.121165493549,0
149,1.12608268764,-0.882160570186,-2417.95137175,-0.67022353025,81605.7288715,0.0,1000,1.27640535027,0.000365717673564,1.68005988221,1.37990641492e-05,0.122056775658,0
150,0.493989800303,-0.414566572414,-500.512788615,-0.302076673101,37034.8708536,0.0,1000,1.19148136033,0.000886967389324,1.63521263514,1.33385047367e-05,0.105468634664,0
151,0.412743721569,-0.295170394524,-415.243637782,-0.285490231123,35417.3890835,0.0,1000,1.3982235759,0.000893979639937,1.44563675935,1.16537026656e-05,0.139998433868,0
152,0.406513682501,-0.397252240244,-376.715537514,-0.255681634555,40182.6245089,0.0,1000,1.02321375715,0.000979099856575,1.58982132231,1.01166533413e-05,0.129863943548,0
153,0.502692242008,-0.471153752026,-471.900212549,-0.304600842749,37661.3653085,0.0,1000,1.06683884925,0.00096525114556,1.65023109387,1.33476903424e-05,0.107428974442,0
154,3.09759986734,-2.83312138341,-13030.8872912,-1.8816279743,258239.230125,0.0,1000,1.09325233057,0.000137712121832,1.64613395786,1.1995078617e-05,0.13105315568,0
155,2.34036392084,-1.91667111228,-7253.60940702,-1.77440032129,178509.660763,0.0,1000,1.22095660478,0.000222648186512,1.31886049204,1.31105729003e-05,0.139364701493,0
156,1.24046771611,-1.14886084249,-2545.43707011,-0.769911339902,94995.5556916,0.0,1000,1.07963713633,0.00038732994843,1.61108255027,1.3058165796e-05,0.122076220575,0
157,0.454710069634,-0.334014878296,-495.768892362,-0.315033013175,39863.5674957,0.0,1000,1.36124675184,0.000817181526796,1.44327275973,1.14066577128e-05,0.126594051147,0
158,0.692812985543,-0.590087130737,-1002.88873359,-0.508804491981,67768.9298119,0.0,1000,1.17398590944,0.000590817398124,1.3615487206,1.02231655047e-05,0.144448492957,0
159,1.00222229613,-0.7246938362,-2094.84414247,-0.740209869028,90333.0925171,0.0,1000,1.38285959764,0.000378423323152,1.353870459,1.10947413423e-05,0.140837347542,0
160,2.2533802527,-1.73531987782,-8985.55075823,-1.51007010752,219084.499581,0.0,1000,1.29843883511,0.000150778200839,1.49213552037,1.02854389836e-05,0.101706525284,0
161,2.19898353128,-1.6528919072,-7343.38349571,-1.66844916336,183030.232855,0.0,1000,1.33028556344,0.000199451000014,1.31788054119,1.20143186018e-05,0.141767002512,0
162,1.69071281414,-1.25376940064,-4866.86853952,-1.12100116407,127215.134963,0.0,1000,1.34840381042,0.000247392332547,1.5081168229,1.32901860666e-05,0.110377069569,0
163,0.609422492927,-0.572845747703,-673.466331523,-0.439361722825,53892.8170481,0.0,1000,1.06375095005,0.000804904171747,1.38696323575,1.13080467177e-05,0.103800265081,0
164,0.792850962242,-0.622100240875,-1339.78150815,-0.533359315393,68702.5409626,0.0,1000,1.2743746106,0.000491776313839,1.48642313621,1.15403440853e-05,0.143379089068,0
165,0.66389579205,-0.632507504579,-722.572883774,-0.403637961699,45282.5465315,0.0,1000,1.04952516214,0.000818794224027,1.64468036024,1.46611850018e-05,0.126180346998,0
166,0.460353403123,-0.426417035104,-462.907272399,-0.297756231112,42873.4964629,0.0,1000,1.07948492561,0.000894482978711,1.54597479213,1.07374821534e-05,0.119172921837,0
167,0.83943414378,-0.714450291964,-1505.93532696,-0.508730958716,72180.1470991,0.0,1000,1.17483708551,0.000457417127253,1.64995516058,1.16297095187e-05,0.103365914325,0
168,3.35427901554,-2.41779793273,-15242.2591071,-2.53726668404,290681.590608,0.0,1000,1.38722810138,0.000120064426931,1.3219049105,1.15393582666e-05,0.130627274852,0
169,0.542578337706,-0.387534188728,-542.796073918,-0.39270567508,36782.8884428,0.0,1000,1.39997863431,0.000899598861852,1.38154119374,1.47508355291e-05,0.119458736957,0
170,0.819481418613,-0.676052657377,-1141.38381456,-0.531350767378,55406.2689246,0.0,1000,1.21205619771,0.000617971823466,1.54216072291,1.47904097229e-05,0.143446892109,0
171,0.454971468549,-0.358079069172,-489.989022863,-0.293925812674,39280.7901683,0.0,1000,1.27048939692,0.000828534002435,1.54781259879,1.15825436963e-05,0.100428185175,0
172,0.490589617663,-0.417452155139,-503.079703011,-0.367514782486,46623.0298137,0.0,1000,1.17509962856,0.000875172750414,1.33478404016,1.0522473971e-05,0.141342324277,0
173,4.90926035407,-4.54746832339,-24439.7900462,-3.41481420548,408870.735684,0.0,1000,1.07945899963,0.000100871625525,1.43753615198,1.20068763196e-05,0.132738827196,0
174,0.463876530975,-0.393059947876,-431.788497898,-0.347081191291,41651.9455668,0.0,1000,1.18006738536,0.000974314237718,1.33640725713,1.11369715067e-05,0.130701437796,0
175,2.84648911353,-2.24795071353,-11356.0171816,-1.82827128969,215503.909021,0.0,1000,1.26615957429,0.000150659105919,1.55682928592,1.32085265945e-05,0.143113269172,0
176,0.409051509241,-0.318706605847,-384.982267284,-0.297846782388,37727.9733789,0.0,1000,1.28337358271,0.000962520391202,1.37326218965,1.08421278061e-05,0.11278810507,0
177,3.2677458076,-2.68723132277,-12516.2831704,-2.31843219888,231850.996508,0.0,1000,1.21592698655,0.000161079568361,1.40936360613,1.40941633067e-05,0.112254620645,0
178,2.21302017372,-1.7681419741,-7803.00634837,-1.61746219998,203576.536869,0.0,1000,1.25150773634,0.000183611223023,1.3681051882,1.08707035091e-05,0.145143139822,0
179,0.732640340377,-0.726982015681,-1041.0984458,-0.489725274635,70325.3779502,0.0,1000,1.00768330766,0.00060371859965,1.49592313444,1.04178656657e-05,0.12757781479,0
180,4.33887067892,-4.12328144321,-20204.1180996,-2.97384158229,363328.038956,0.0,1000,1.05218584046,0.000114751797506,1.45891204178,1.19420199206e-05,0.11688119347,0
181,0.705214869687,-0.660734289444,-855.918789748,-0.418548904472,49167.8946537,0.0,1000,1.06721992112,0.00072392731429,1.68480434965,1.4342995051e-05,0.121492408244,0
182,1.58008127578,-1.20395285911,-4828.21323859,-0.939280281553,127573.841261,0.0,1000,1.31231124919,0.000227260043767,1.68212553674,1.23856212226e-05,0.126438316548,0
183,0.458614524491,-0.330586586901,-559.135372272,-0.306522916724,42818.0761481,0.0,1000,1.38717505187,0.000720220911132,1.49608348081,1.07107690431e-05,0.126692995545,0
184,0.43949267439,-0.430696665161,-437.983092043,-0.274809321723,43415.7053141,0.0,1000,1.02032274747,0.00090344666809,1.59916407021,1.01228961089e-05,0.114242599956,0
185,0.482893905856,-0.41267959525,-447.993295529,-0.36887769284,42731.2743215,0.0,1000,1.17004243353,0.000977904313917,1.30898947662,1.13007139039e-05,0.119706090554,0
186,0.401663123599,-0.302457906265,-367.875209314,-0.260848310263,31559.1739089,0.0,1000,1.32789677337,0.000991846129964,1.53973410203,1.27273015687e-05,0.105077959084,0
187,1.32571611196,-1.05401119924,-3114.97231638,-0.919383534765,108394.688555,0.0,1000,1.25768180812,0.000325594829524,1.44186199065,1.2230452706e-05,0.11011940997,0
188,0.708545785757,-0.61834739484,-737.732757241,-0.527549243665,48338.2442445,0.0,1000,1.14577009126,0.000860436931671,1.34298937842,1.46580786462e-05,0.106557544407,0
189,0.522597863605,-0.378630816676,-745.429198194,-0.35285651691,52094.8428449,0.0,1000,1.38013066424,0.000601069752663,1.48094920431,1.00316621582e-05,0.11348859694,0
190,1.14337319034,-0.935144396934,-2324.88113561,-0.747469599747,87352.8855176,0.0,1000,1.22257020375,0.000391798558139,1.52955845129,1.30891290375e-05,0.117536455588,0
191,1.08388855258,-0.88552840996,-2521.99267751,-0.67227366741,98356.8134448,0.0,1000,1.22390200873,0.000329774662807,1.61217280662,1.10199640942e-05,0.124795849778,0
192,1.37932030975,-1.21609303812,-2948.84232416,-0.936798134947,104226.442477,0.0,1000,1.13412268405,0.000367749766901,1.47227730125,1.32338807405e-05,0.121859752986,0
193,0.673697147177,-0.56819236406,-947.512946323,-0.428282221752,56167.8037174,0.0,1000,1.18558497183,0.000611016297762,1.57292151003,1.19943651449e-05,0.123881856675,0
194,1.63366456612,-1.45279114097,-3902.46451138,-1.01048665535,110503.292761,0.0,1000,1.12440063884,0.000318623811019,1.61661067844,1.47838541758e-05,0.122128495701,0
195,0.901621240061,-0.719601138004,-1915.03279312,-0.589083914886,90013.8772566,0.0,1000,1.25284582296,0.000370812428539,1.53044805483,1.00164693216e-05,0.128394206453,0
196,1.49512374416,-1.08105048139,-4610.67354551,-0.911098381782,125752.018894,0.0,1000,1.38292860958,0.000224274475171,1.64091240223,1.18894611578e-05,0.112503990888,0
197,4.14110781057,-3.58114489832,-17803.0362843,-2.99419809306,301823.043961,0.0,1000,1.1562642154,0.000132606828657,1.38294403445,1.3720316899e-05,0.140644278093,0
198,0.502670991322,-0.375786666434,-686.538682975,-0.311392594844,46889.920436,0.0,1000,1.33754988548,0.000632181599942,1.61416764684,1.07202355357e-05,0.12091283442,0
199,1.36721940914,-1.28901541286,-2668.32936642,-0.910258990157,97429.5477475,0.0,1000,1.06056955872,0.000412387798276,1.50191143182,1.40329031669e-05,0.111921061459,0
200,0.405968253076,-0.3105601725,-389.009061507,-0.277655779996,35491.5690319,0.0,1000,1.30711286573,0.000943595877954,1.46202786596,1.14384419779e-05,0.149193830983,0
201,0.824443931286,-0.816090325119,-1186.82833376,-0.549331729301,70995.8161937,0.0,1000,1.0101361294,0.000594661483752,1.50071250965,1.16125706483e-05,0.140932710953,0
202,1.29053691791,-1.09667161571,-3064.75280079,-0.783115299656,102796.382236,0.0,1000,1.17667607355,0.000321090052542,1.64785263032,1.25543028835e-05,0.141495251337,0
203,0.842867329732,-0.754765730081,-1450.07576863,-0.513371990213,72542.7078918,0.0,1000,1.11662707986,0.000481257440451,1.64172570495,1.1618911869e-05,0.143773239186,0
204,0.803089177878,-0.738190567803,-1226.84886306,-0.482052103056,63680.2723211,0.0,1000,1.08781579425,0.00055459503779,1.66588003159,1.26112710987e-05,0.116321543267,0
205,0.446465525413,-0.32652330041,-443.422775788,-0.332750627679,38473.3605682,0.0,1000,1.36723128954,0.00090686196062,1.34164209836,1.16045367189e-05,0.140320694223,0
206,1.19616148791,-1.10961059163,-1981.82012667,-0.84882071927,83675.9480892,0.0,1000,1.07790114466,0.000503567130947,1.40910392346,1.42951650411e-05,0.140539584409,0
207,1.17383397913,-0.868933911555,-2579.53107996,-0.691063833109,78565.3458167,0.0,1000,1.35078982432,0.000355057118037,1.69848980154,1.49408618638e-05,0.12463047101,0
208,0.523467233961,-0.44358079805,-504.496979335,-0.316199760905,34944.5627246,0.0,1000,1.17999444111,0.000937602315578,1.65539535036,1.49799337335e-05,0.147130212417,0
209,0.66120082372,-0.604112507396,-673.398963396,-0.499848269413,50133.6618974,0.0,1000,1.09439947754,0.000881885716582,1.32270306681,1.31887597813e-05,0.146914520914,0
210,0.528028439055,-0.38408695596,-528.404492836,-0.369191197499,36200.056353,0.0,1000,1.37466274802,0.000899288322137,1.43013030514,1.45863982615e-05,0.133933087874,0
211,0.879177836671,-0.666884230398,-1517.82789814,-0.657675363435,75788.9965518,0.0,1000,1.31823652169,0.000479234205503,1.33669606315,1.16003361526e-05,0.12124226458,0
212,0.940112216878,-0.70920462572,-1554.03003989,-0.627678661382,63847.2100185,0.0,1000,1.3254866964,0.0005049511224,1.49766035847,1.47244056022e-05,0.142946840243,0
213,0.568704945445,-0.43975388773,-713.566862781,-0.35655495416,44522.2404925,0.0,1000,1.29313460534,0.000696989007069,1.59489942101,1.27735023924e-05,0.130032568145,0
214,1.73553680475,-1.43755429615,-3942.047932,-1.30347996539,117029.443516,0.0,1000,1.20718435051,0.00034026273518,1.33136411976,1.48299158964e-05,0.121428264825,0
215,0.838775136537,-0.62202385098,-1274.94632294,-0.602828340334,61151.0605669,0.0,1000,1.34836137365,0.000557890549152,1.39129964136,1.37164446334e-05,0.149270424235,0
216,0.330447571833,-0.242086578393,-341.775209724,-0.195743372073,32043.7232751,0.0,1000,1.36489748985,0.00086685646715,1.68806736082,1.0312396253e-05,0.118672590994,0
217,0.571941417226,-0.482150055542,-582.393995826,-0.385662884553,41251.3781184,0.0,1000,1.18613115491,0.000882052392925,1.4829087108,1.38647832706e-05,0.138800981888,0
218,0.965989641072,-0.917965386238,-1372.1834956,-0.654421604173,68228.7094942,0.0,1000,1.05221597569,0.00060397992992,1.4759968081,1.41581109805e-05,0.131654386432,0
219,0.692095761209,-0.673787184142,-980.227710851,-0.436792217227,64893.633811,0.0,1000,1.0270726407,0.000606056106706,1.58439654988,1.06650794626e-05,0.132230417422,0
220,0.646881651541,-0.527517178321,-832.431894577,-0.422152848321,50309.3249089,0.0,1000,1.22617599275,0.000677098589992,1.53223989564,1.28580865021e-05,0.133690028167,0
221,1.02271516852,-0.922707894075,-2065.38414203,-0.668205640988,95483.6760359,0.0,1000,1.10828454411,0.000395169468823,1.53043956116,1.07108901854e-05,0.139410544307,0
222,0.877639934353,-0.717196067147,-1694.92126518,-0.607586558388,86673.1239796,0.0,1000,1.22360990941,0.000417805724893,1.44436897688,1.01258601751e-05,0.127326396297,0
223,1.26681847629,-0.923398420432,-3353.36723407,-0.8205599934,108797.074192,0.0,1000,1.37180886216,0.000277775050528,1.54374625924,1.16438652942e-05,0.143823824653,0
224,2.20492248621,-1.9164582046,-6598.29284329,-1.56403665233,168533.04239,0.0,1000,1.15041947437,0.000234165599888,1.40966394826,1.30830278439e-05,0.114578963612,0
225,0.511016309151,-0.378522904346,-518.940230222,-0.379812405694,39831.3639463,0.0,1000,1.34992744426,0.000884730570864,1.3453439652,1.28294956166e-05,0.133472539419,0
226,2.72017581118,-2.60151418387,-9693.18148861,-1.64579506056,205055.439802,0.0,1000,1.04551252368,0.000180627760284,1.65270348469,1.32655627854e-05,0.13991337954,0
227,2.96560914814,-2.77143995338,-11394.4863591,-2.0599155684,259258.857134,0.0,1000,1.06996076193,0.000160267032201,1.43957509816,1.1438795885e-05,0.147073075324,0
228,0.433682995258,-0.353163147452,-471.1281342,-0.295389208251,43269.3954164,0.0,1000,1.22789617793,0.00082052026567,1.46807481188,1.00228577516e-05,0.100759958339,0
229,0.570629851238,-0.53724246513,-569.873413333,-0.425610182873,49870.53916,0.0,1000,1.0620458434,0.00090132737883,1.34063354962,1.14422234219e-05,0.146648005871,0
230,0.722380149402,-0.625538336001,-1002.52948801,-0.492034086843,60839.0809959,0.0,1000,1.15471355471,0.000620557507824,1.46805061948,1.18736203371e-05,0.14360946492,0
231,1.21425705514,-0.891369946616,-2519.34278185,-0.809060874953,81964.3891968,0.0,1000,1.36213692503,0.000381973736916,1.50072285862,1.4814446457e-05,0.13844493063,0
232,1.57247883476,-1.2355094806,-3965.35198461,-1.12459602713,121286.763206,0.0,1000,1.27263716589,0.00029655466674,1.39816106161,1.29649666064e-05,0.13604152372,0
233,0.689761490631,-0.556216675969,-1042.79168989,-0.441597098905,58857.1062283,0.0,1000,1.23999494938,0.000561456643084,1.56187015864,1.17192559205e-05,0.148111819509,0
234,0.496510663885,-0.404681661134,-588.340150883,-0.312312291437,44112.6595316,0.0,1000,1.22681663984,0.000743917694789,1.58968905889,1.12555141575e-05,0.139517913582,0
235,1.01952688463,-0.943295691092,-1635.17242019,-0.745280757932,82700.3213559,0.0,1000,1.08071367726,0.000523498092339,1.36787693189,1.23279676296e-05,0.12851597744,0
236,0.575463572041,-0.43031185311,-807.308203063,-0.350040677087,47508.762869,0.0,1000,1.33721750097,0.000612817694479,1.64389056941,1.21127879846e-05,0.107995757406,0
237,0.686241291997,-0.525649788241,-920.724615536,-0.513600333212,56863.5190286,0.0,1000,1.30541045078,0.000645327408888,1.33603872037,1.20682170875e-05,0.118964257999,0
238,0.891787663123,-0.837013860618,-1275.62230221,-0.652350978085,73357.4409275,0.0,1000,1.06533954059,0.000599100087526,1.36693660005,1.21567444536e-05,0.133050941787,0
239,0.456072453262,-0.353680242112,-559.761384866,-0.272510515566,41495.8218431,0.0,1000,1.28940503579,0.00071476226405,1.67349579617,1.09908042064e-05,0.118044278498,0
240,0.545407662685,-0.513169308339,-513.866552094,-0.359663522612,41311.3139717,0.0,1000,1.06272206247,0.000961379964238,1.51633863888,1.32023799354e-05,0.118029849095,0
241,3.7832851524,-3.77055280775,-15256.4287649,-2.25542758102,257005.649506,0.0,1000,1.0032767846,0.000147979734361,1.6773137127,1.47206303039e-05,0.116934272148,0
242,0.637657127614,-0.496889459022,-810.305432288,-0.415566689684,47320.9008029,0.0,1000,1.28319775574,0.000686934287005,1.53432791119,1.34751688323e-05,0.127082394237,0
243,0.793606622526,-0.768687773143,-1358.90841886,-0.471010424817,76027.3182087,0.0,1000,1.03231738747,0.00048400302148,1.68480245802,1.04384403031e-05,0.10022939852,0
244,0.90407954974,-0.764897627679,-1388.48200471,-0.60641476941,65910.2782936,0.0,1000,1.18186150312,0.000551128028072,1.49076004389,1.37168219153e-05,0.129557703548,0
245,0.613000926573,-0.48405947201,-768.10430795,-0.405050760159,47844.2740045,0.0,1000,1.26627523284,0.000698069897836,1.51329285558,1.28124198627e-05,0.124219456417,0
246,0.691978578428,-0.619809098654,-1048.81772036,-0.452293984161,66946.9845014,0.0,1000,1.1163382387,0.000559770105899,1.52983097999,1.03362172857e-05,0.124184556047,0
247,0.603139954439,-0.541263609202,-658.040033066,-0.359425197282,41921.0738791,0.0,1000,1.1142183177,0.000816570305957,1.67796809039,1.43875120227e-05,0.149359812747,0
248,1.44345049542,-1.36146569331,-3231.40118599,-1.05277547442,127011.72367,0.0,1000,1.0601180448,0.000346694920358,1.37099054161,1.13647028299e-05,0.144737749411,0
249,1.4491822708,-1.10382794374,-3927.37277227,-0.854280048936,106843.846841,0.0,1000,1.31276970856,0.000268995344937,1.69627845646,1.35635538558e-05,0.1025332737,0
250,0.506154271558,-0.372616784596,-600.324363729,-0.320061317367,40096.0590238,0.0,1000,1.3582775409,0.000743134648766,1.58132907028,1.26235416617e-05,0.120284515224,0
251,1.09461919004,-0.86740409138,-2332.17698315,-0.772237910043,96882.9566808,0.0,1000,1.26184838244,0.00036935511239,1.4173636803,1.12983668907e-05,0.140543456653,0
252,0.623837445553,-0.55181401326,-733.227734835,-0.428173851653,51759.2737358,0.0,1000,1.13042120925,0.000750809940643,1.4568723096,1.20526699957e-05,0.122102968146,0
253,0.654005641568,-0.590480596464,-940.405727764,-0.419880858102,62311.774242,0.0,1000,1.10748193493,0.000595450508498,1.55749813515,1.04956992402e-05,0.103159427807,0
254,2.15432951361,-1.58278399004,-6907.95974716,-1.62273030287,167199.682471,0.0,1000,1.3610014056,0.000211861908938,1.32749554055,1.28847703642e-05,0.148485055709,0
255,2.66359455724,-2.41413607441,-8712.72284956,-1.85687166624,196605.113997,0.0,1000,1.10323240345,0.000205713219992,1.43435269034,1.35479413688e-05,0.103670002012,0
256,0.640340751838,-0.574292904445,-645.158509744,-0.432773010017,43470.596773,0.0,1000,1.11490724958,0.000892532443061,1.47952265903,1.4730433888e-05,0.142251318494,0
257,1.05077409077,-0.97400864369,-1463.34991273,-0.798804854907,72980.5112548,0.0,1000,1.07871392796,0.000618060719197,1.31533277976,1.43980094508e-05,0.124635341292,0
258,0.73503527912,-0.529226075556,-1324.47562859,-0.500950420109,69037.3562441,0.0,1000,1.38878711851,0.000454963234699,1.46718149057,1.06469210165e-05,0.132426574945,0
259,1.09674647347,-0.872410912542,-2614.74269367,-0.672841742839,97783.0586119,0.0,1000,1.25704437739,0.000319447189251,1.62992145028,1.12161195308e-05,0.112465555894,0
260,1.90465030889,-1.46581502465,-6052.25084811,-1.37081324239,165134.281358,0.0,1000,1.29927971494,0.00021470115114,1.38933092319,1.15339485734e-05,0.100059744311,0
261,1.37966834059,-1.37438379506,-2733.16138779,-0.989011401566,112923.978788,0.0,1000,1.00374502899,0.000404788464653,1.39489740691,1.22176738315e-05,0.121115712228,0
262,2.16499324237,-1.88314178799,-6648.52779362,-1.40715990125,160381.002619,0.0,1000,1.14957086184,0.0002256349841,1.53845524198,1.34990629003e-05,0.104424556359,0
263,1.96958535151,-1.47495600793,-6977.84111152,-1.44201876727,192551.318297,0.0,1000,1.33525192976,0.000182262854661,1.36575278653,1.02288853119e-05,0.112555988794,0
264,0.687449028091,-0.626924998073,-1008.89574354,-0.421431090426,61551.9210317,0.0,1000,1.09644110173,0.000581387578937,1.63112523162,1.11686039455e-05,0.121262171491,0
265,0.630779321377,-0.518528415869,-1026.9342753,-0.388519245309,63024.6890767,0.0,1000,1.21637975708,0.000514235337694,1.62344717042,1.00084479688e-05,0.111613310418,0
266,0.623729533864,-0.556456896983,-667.199346227,-0.458088530327,50237.9467445,0.0,1000,1.12079460522,0.00083484733969,1.36149168495,1.24155060922e-05,0.138677990623,0
267,0.581776113289,-0.482236089381,-744.636562815,-0.36532440325,48903.3598099,0.0,1000,1.20631346863,0.000681288674693,1.59239179117,1.18964446523e-05,0.104964166241,0
268,2.2956368702,-1.77944044219,-7541.16890034,-1.62224918115,171525.414631,0.0,1000,1.28998918522,0.000204413931121,1.41499510183,1.33836543998e-05,0.141223817078,0
269,0.59247256422,-0.526541954696,-633.257409416,-0.446137436745,51264.9483117,0.0,1000,1.12511435175,0.000835595155163,1.32790459102,1.15570693765e-05,0.133590841095,0
270,0.869914785704,-0.651229707805,-1379.66954777,-0.594889040173,61766.6268345,0.0,1000,1.33570328919,0.000530524017224,1.46221435941,1.40838966006e-05,0.10398756455,0
271,0.600415276686,-0.448090764487,-794.985779599,-0.366862305563,44544.6571532,0.0,1000,1.33984120002,0.000655252851176,1.63652297157,1.34789515748e-05,0.101782478447,0
272,0.768023779846,-0.605859495475,-1362.41055822,-0.530776186577,75252.0818121,0.0,1000,1.26755988745,0.000463724183735,1.44688236143,1.02060137255e-05,0.121232059785,0
273,2.10486865905,-1.90613403872,-7202.97617063,-1.26912830046,181823.991443,0.0,1000,1.10416056946,0.000192222077262,1.65841526461,1.15764077246e-05,0.12128662066,0
274,0.804185510361,-0.76104593561,-950.494233051,-0.554031955452,55937.6341685,0.0,1000,1.05658458727,0.000746070899115,1.45141466887,1.43764662613e-05,0.12587780861,0
275,1.75344851424,-1.30355305671,-5334.89307299,-1.28409847651,152393.163283,0.0,1000,1.34503014658,0.000228675474887,1.36540937978,1.15060838457e-05,0.108068927867,0
276,0.47499421837,-0.365201964274,-540.468977679,-0.34198624082,45493.8559825,0.0,1000,1.30053434712,0.000778855656823,1.38882786222,1.04408432328e-05,0.119980143746,0
277,1.64503142789,-1.50989579554,-4116.54089296,-1.13030912857,134735.47584,0.0,1000,1.08939997261,0.000299614985169,1.45528188298,1.22093414346e-05,0.142080043159,0
278,0.666107472505,-0.486474058902,-1130.57850013,-0.420040699731,60261.251997,0.0,1000,1.36915589416,0.000489174013507,1.58571650047,1.10536613567e-05,0.123425472522,0
279,0.703211061853,-0.611139349865,-992.585555088,-0.482398732098,62717.3490145,0.0,1000,1.1505558398,0.000608463928624,1.45763820507,1.12123849765e-05,0.139863680415,0
280,0.732725579422,-0.709096182262,-1123.17562238,-0.438961251181,67184.163963,0.0,1000,1.033223261,0.000552369553634,1.66912610469,1.09062245654e-05,0.143206581882,0
281,0.503284383712,-0.393878059209,-584.609115063,-0.372335579073,48707.2262709,0.0,1000,1.27766699398,0.000760890415057,1.35159565306,1.03328483727e-05,0.11237602491,0
282,2.10495664699,-1.84323740464,-6802.84707806,-1.26485636827,160825.946493,0.0,1000,1.14188889502,0.000209422896448,1.66408630589,1.30884144809e-05,0.149926903751,0
283,1.04108498798,-0.761882978362,-1779.68763478,-0.786578152443,72975.4624764,0.0,1000,1.36636311513,0.000484981862902,1.32346204497,1.42662335071e-05,0.135352326617,0
284,0.683597699384,-0.576363237049,-741.970392106,-0.477374372543,45886.4821098,0.0,1000,1.18595361245,0.000821327463545,1.43189496811,1.48975835138e-05,0.121806781609,0
285,0.565896741568,-0.448315859201,-687.119536144,-0.367240209606,45479.6351784,0.0,1000,1.26217241342,0.000723578303046,1.54084439216,1.24428601801e-05,0.1354275009,0
286,1.11081996903,-0.983249950905,-2053.9677028,-0.782572801337,90550.8087577,0.0,1000,1.12964322349,0.000440816667913,1.41934617438,1.22673666229e-05,0.116333833252,0
287,0.610456827122,-0.52164563253,-638.562561877,-0.395987715608,41450.1407783,0.0,1000,1.17015196619,0.000855985933982,1.54150546668,1.47274970762e-05,0.105599271712,0
288,0.645631738222,-0.490691859333,-1036.65350087,-0.389972906987,56204.8802498,0.0,1000,1.31565799749,0.000522803798648,1.65548100743,1.14871117126e-05,0.12981685349,0
289,0.679327187572,-0.648502190772,-851.373190493,-0.411744945774,53066.9611533,0.0,1000,1.04743260241,0.000697919402628,1.64977377391,1.28013206863e-05,0.143519571783,0
290,0.555669323218,-0.404655700672,-642.308713869,-0.360461218017,39520.8085442,0.0,1000,1.37309039938,0.000765112540465,1.54145092265,1.40601709248e-05,0.134742879743,0
291,0.504800761294,-0.368639172099,-536.695721475,-0.378563600859,41703.2473342,0.0,1000,1.36926277938,0.000840571614595,1.33336354522,1.21045912144e-05,0.127023760434,0
292,3.17085182568,-2.36383038654,-15736.6951255,-2.08799742574,309595.303247,0.0,1000,1.34130412262,0.000101494138407,1.51850906847,1.02419248368e-05,0.110644698411,0
293,0.784385077838,-0.647376131262,-1154.51480046,-0.488365505192,56767.8403652,0.0,1000,1.21153731556,0.000579406688873,1.60604349191,1.38174197361e-05,0.120025875643,0
294,0.69102225635,-0.61515581112,-905.216255277,-0.466358167074,57970.5567115,0.0,1000,1.12322882801,0.000663378090396,1.48164151357,1.19202280528e-05,0.13695253685,0
295,0.394339996565,-0.303384907627,-399.50281518,-0.252312562441,35519.8481648,0.0,1000,1.29970096785,0.000887076890528,1.56280274551,1.11019617746e-05,0.101525185833,0
296,2.14715940799,-2.06733235826,-6268.98746621,-1.27136859626,150480.441378,0.0,1000,1.03851355404,0.000242504977011,1.68875672833,1.42686942458e-05,0.141950514864,0
297,1.50498659189,-1.27634604166,-3489.5067244,-0.94456043678,102841.807678,0.0,1000,1.17903680363,0.000331289208117,1.59321953074,1.46339958998e-05,0.112103615121,0
298,0.498795413758,-0.373869517369,-482.340964872,-0.355663490134,36623.3595523,0.0,1000,1.3340430381,0.000934113728843,1.40233636919,1.36195974333e-05,0.147790990354,0
299,0.504703003496,-0.427795246716,-530.020660538,-0.352699336124,44489.524432,0.0,1000,1.17967702504,0.000852232697841,1.43087236599,1.13443110471e-05,0.141034364128,0
300,0.826776517965,-0.591782648336,-1351.54448658,-0.612430570279,66320.463936,0.0,1000,1.39699489673,0.000511727195203,1.3498922409,1.24663862237e-05,0.133949526557,0
301,0.530275819781,-0.453520043536,-550.347357732,-0.381400632985,45597.9703107,0.0,1000,1.16914450713,0.000863529328033,1.39023806953,1.16293733288e-05,0.12273642112,0
302,0.772627140217,-0.655546265816,-1004.38205226,-0.57849126725,60759.915669,0.0,1000,1.17850047491,0.000669256219265,1.33548998027,1.27160666981e-05,0.135894388934,0
303,2.12554851713,-1.52851788836,-9039.73994714,-1.29222155824,207080.422811,0.0,1000,1.39049446626,0.000135133812429,1.64477931933,1.02643624553e-05,0.105484957463,0
304,2.7658542622,-2.39874839699,-11790.9779248,-1.70169830105,253800.566841,0.0,1000,1.15294058803,0.000134573780042,1.62524937038,1.08977465914e-05,0.122664190954,0
305,1.44509719202,-1.11882694437,-3541.61803808,-1.10096581881,122572.210212,0.0,1000,1.29151815354,0.000308033044921,1.31247225913,1.17897620474e-05,0.138648232084,0
306,0.649224858799,-0.614906909621,-743.148152652,-0.485817955305,58643.7549052,0.0,1000,1.05570999114,0.000773614307568,1.33625418723,1.10706563699e-05,0.131906467709,0
307,1.20598939108,-0.925424170828,-2764.3827788,-0.727120982793,88069.3784344,0.0,1000,1.3030747269,0.000336259913183,1.65848147354,1.36936289607e-05,0.13663030459,0
308,0.506445516923,-0.386413960471,-475.506058645,-0.381566162972,38128.1600154,0.0,1000,1.31052945114,0.000965066380786,1.32718099625,1.32827158908e-05,0.149536383167,0
309,1.78723472557,-1.5573118801,-4683.92320623,-1.17420364404,130142.470783,0.0,1000,1.14754084729,0.000281567896586,1.52198242126,1.37329091328e-05,0.102636891194,0
310,0.867119077652,-0.754218981583,-1217.790006,-0.605815936218,63554.5567786,0.0,1000,1.14959140107,0.000612043187562,1.43122431125,1.3643696402e-05,0.104778976509,0
311,1.49724431311,-1.10196656285,-3463.89989142,-1.10183684955,104349.228858,0.0,1000,1.35860212726,0.000332242374215,1.35876207992,1.43483984453e-05,0.107839041024,0
312,0.547191488613,-0.393601448752,-575.18330348,-0.390246044616,38570.8040314,0.0,1000,1.39011716091,0.000851334096978,1.4020704926,1.41866757086e-05,0.136774241873,0
313,0.382432909422,-0.299848601898,-418.647199379,-0.22855977498,36870.1925289,0.0,1000,1.27532001864,0.000813496877534,1.67312928742,1.03724142238e-05,0.101254384087,0
314,0.736721446391,-0.661902533049,-870.519739713,-0.507246785737,53056.8891658,0.0,1000,1.11293614899,0.000746300678528,1.45229253773,1.38855002239e-05,0.123565461712,0
315,0.630546370913,-0.501075432285,-911.638312179,-0.431774572572,58870.2694549,0.0,1000,1.25828612369,0.000591662869462,1.46026012995,1.07107777279e-05,0.121374223836,0
316,0.939205786137,-0.742441690557,-1672.42644844,-0.706191999386,82425.3974019,0.0,1000,1.26492296151,0.000461582715351,1.32985812322,1.13946164136e-05,0.14677929153,0
317,0.747503287068,-0.589491604663,-1044.43927029,-0.547795525737,60082.5106925,0.0,1000,1.2679473838,0.000615698182104,1.36446625137,1.24412791418e-05,0.103291470124,0
318,3.49465435109,-3.43931978249,-14039.8657686,-2.30846905929,279458.613043,0.0,1000,1.01598881177,0.000148909384796,1.5137406716,1.25050872937e-05,0.1268382892,0
319,0.571332195037,-0.47352823019,-582.446023169,-0.391553293949,41273.3070639,0.0,1000,1.20644304984,0.000880918698574,1.45904286475,1.38426560816e-05,0.12717248772,0
320,0.882555850952,-0.75070844592,-1556.23691444,-0.574633698455,75893.5767606,0.0,1000,1.17553064029,0.000467108929727,1.53575815333,1.16288609474e-05,0.132567476962,0
321,1.57419965144,-1.501739279,-4103.48262202,-0.954191974003,130500.890905,0.0,1000,1.04815096703,0.000283625275513,1.6496724717,1.20627502273e-05,0.144391217624,0
322,0.607298080957,-0.539658872893,-665.247513921,-0.358169895406,41268.3174677,0.0,1000,1.12523697019,0.00081289041785,1.69545869644,1.47158430055e-05,0.14216523026,0
323,0.651997698307,-0.501913454992,-968.142799438,-0.468178954346,61701.5575978,0.0,1000,1.29892414813,0.000573451993534,1.39252496157,1.05669568758e-05,0.117010631729,0
324,0.701657110372,-0.57884356537,-967.685031388,-0.452016710116,54421.2157067,0.0,1000,1.21207052819,0.000625088316563,1.55218135304,1.28930804147e-05,0.112434808505,0
325,0.908541929062,-0.68346265448,-1694.53172248,-0.576248464765,70020.9373879,0.0,1000,1.32922197993,0.000436161062674,1.57654963052,1.29752894342e-05,0.108951732753,0
326,0.618002234165,-0.567286690548,-685.863554811,-0.455599802163,54074.7362097,0.0,1000,1.08930020004,0.000801057112351,1.35635852177,1.14286684963e-05,0.100387169634,0
327,0.959054362631,-0.875214305286,-1515.65080211,-0.567737109446,64905.7159597,0.0,1000,1.09569374656,0.000532767363891,1.68915783901,1.47761156079e-05,0.104129457867,0
328,4.08954992917,-3.52793800545,-17745.6935848,-2.75018073804,284658.021758,0.0,1000,1.15908985052,0.000130453090471,1.48691133442,1.43665367444e-05,0.102741195932,0
329,0.735890813101,-0.654521634386,-1012.34751924,-0.461158640284,56909.4783027,0.0,1000,1.12421854723,0.000626915213519,1.5956433057,1.29309007049e-05,0.141307763124,0
330,1.54086206793,-1.3129458255,-3658.04810131,-0.957677616167,105529.279305,0.0,1000,1.17349150546,0.000321225206792,1.60885696205,1.46012753814e-05,0.14178151412,0
331,0.723262177518,-0.593322565619,-1068.99263252,-0.495724554256,62419.9433278,0.0,1000,1.21890332034,0.000576582939413,1.45890010663,1.15870367539e-05,0.13541599614,0
332,0.919010446875,-0.760173172754,-1434.82643157,-0.694178132002,73993.4490118,0.0,1000,1.20884880248,0.000540502869653,1.32378273918,1.24201596107e-05,0.144278393592,0
333,0.586061340679,-0.47995344346,-676.628197066,-0.404533810698,47228.0101329,0.0,1000,1.22097956233,0.000766149745488,1.4486326527,1.24091897802e-05,0.112468827013,0
334,0.894967162112,-0.680206603383,-1363.56546814,-0.68789042058,67212.3914564,0.0,1000,1.31562842377,0.000556343375529,1.30093158197,1.33155083865e-05,0.149639508134,0
335,2.1166386656,-1.6765052512,-5827.99613423,-1.570124591,142899.805723,0.0,1000,1.26243029275,0.000263184637883,1.34797051474,1.48120471885e-05,0.137170700586,0
336,0.821416469574,-0.710649865727,-1290.22821812,-0.529319083098,66497.5146408,0.0,1000,1.15576663586,0.000536644322328,1.55173611512,1.23525890255e-05,0.146008934446,0
337,3.59222319811,-3.08175384759,-15331.6232321,-2.26094892624,257350.841754,0.0,1000,1.16554248015,0.000134301557228,1.58871218254,1.39584668682e-05,0.105943978619,0
338,1.41284362596,-1.3550380847,-2653.45771423,-1.04164918593,104664.336588,0.0,1000,1.04255971703,0.000432453793548,1.35625264256,1.34988064895e-05,0.134862445059,0
339,1.46278856324,-1.11255899809,-3492.35771458,-1.05031440386,109630.491368,0.0,1000,1.31469639799,0.000318854161799,1.39261494123,1.33428989052e-05,0.134599656044,0
340,2.32231375012,-2.07675936152,-8927.96594458,-1.40515475027,216310.09619,0.0,1000,1.11813921113,0.000160116779627,1.65261031513,1.07360395609e-05,0.139815063791,0
341,0.514177073318,-0.438029347681,-616.399406229,-0.314058946905,45367.0410835,0.0,1000,1.17374160682,0.000734162181408,1.63709925315,1.13337141025e-05,0.114950589534,0
342,0.652554440817,-0.513925876379,-884.02693563,-0.437428736286,52952.5828303,0.0,1000,1.26964427794,0.000638161264681,1.49169600397,1.23233732131e-05,0.117058789275,0
343,0.607792860449,-0.444795678518,-726.181353955,-0.43907110477,45917.3545529,0.0,1000,1.36635405925,0.000736971174127,1.38416977737,1.32366698031e-05,0.114163689121,0
344,0.73239074857,-0.566444282888,-1231.44445348,-0.443087143915,60537.2113667,0.0,1000,1.2928616746,0.000494741197216,1.65282710165,1.2098191047e-05,0.100819517227,0
345,2.13716332046,-1.97511098758,-6191.36597398,-1.48705568479,167880.673873,0.0,1000,1.08194720337,0.000245184460011,1.43707773471,1.27302522152e-05,0.10228019264,0
346,1.05607598923,-0.846314802259,-2108.13162205,-0.789521671838,95644.2477183,0.0,1000,1.2477524379,0.000400953535437,1.337514947,1.10417094015e-05,0.118605724178,0
347,0.86904768562,-0.724531035182,-1621.01910461,-0.605944282035,85320.0232661,0.0,1000,1.19936233276,0.000436111933011,1.43410395469,1.01857413108e-05,0.14075912306,0
348,1.56932869384,-1.28182247163,-4784.7080366,-0.939520945851,137288.838599,0.0,1000,1.22419488372,0.000227988391734,1.67024987434,1.14308541748e-05,0.138944903368,0
349,1.50372891528,-1.34653965305,-3812.59993006,-1.0720153984,138796.27364,0.0,1000,1.11663570984,0.000294410361136,1.40261204828,1.08340726725e-05,0.132593587722,0
350,0.400225614089,-0.297518051861,-368.452190122,-0.253593869732,30570.4436442,0.0,1000,1.34511455618,0.000986234862536,1.57811486187,1.3091913835e-05,0.11400429998,0
351,0.593694451935,-0.456944630111,-631.943631474,-0.428330688822,42340.3461854,0.0,1000,1.29917000519,0.00083947374792,1.38596564374,1.40219555441e-05,0.122751086447,0
352,0.435310562385,-0.346547933432,-540.280886013,-0.261884858702,43439.8914264,0.0,1000,1.2560337708,0.00070571157273,1.66212119348,1.00209864272e-05,0.119981412135,0
353,0.665812439004,-0.520977230224,-734.236933823,-0.483112252743,45044.0969137,0.0,1000,1.27790679258,0.00080680869939,1.37807336493,1.47813472713e-05,0.14516051734,0
354,0.545501196449,-0.467116727511,-686.050504063,-0.326769750884,47233.6282862,0.0,1000,1.16770488542,0.000695132709936,1.6692748273,1.15490004948e-05,0.117503953368,0
355,1.40685636574,-1.17490359634,-3524.18101558,-1.0313594138,130977.857973,0.0,1000,1.19732280994,0.000299200937614,1.36397962823,1.07411770776e-05,0.118485211194,0
356,0.807247056661,-0.709356989992,-1273.73876303,-0.567478450276,74080.2453911,0.0,1000,1.13789831122,0.000533761867105,1.42241579116,1.08969274116e-05,0.146506960919,0
357,0.544219190995,-0.458765111663,-606.729446636,-0.397584240831,49462.6307854,0.0,1000,1.18616978634,0.000796971778794,1.36871479472,1.10026333487e-05,0.121558480178,0
358,0.630420329844,-0.456896197757,-799.23575182,-0.421981998771,45082.8860723,0.0,1000,1.37968896068,0.000688778940893,1.49385076492,1.39835841218e-05,0.142073409762,0
359,1.54017897899,-1.24434377924,-3757.28871385,-1.01841365539,110336.619792,0.0,1000,1.23764394559,0.000309917655067,1.51223142922,1.39589103046e-05,0.111785778494,0
360,1.01307577942,-0.731111770114,-1758.375015,-0.708048935407,67805.8687803,0.0,1000,1.38556471069,0.000476143183779,1.43069909983,1.49408273597e-05,0.129099461796,0
361,2.93307402671,-2.19024852449,-12710.6750875,-2.1193698816,264139.766262,0.0,1000,1.33905123965,0.00013075674632,1.38383682584,1.1104250103e-05,0.145412220353,0
362,0.678290477985,-0.670746268561,-637.399298757,-0.473846389689,45863.9689242,0.0,1000,1.01114748624,0.000964153160049,1.4313564651,1.47891796958e-05,0.106810900956,0
363,1.07484508968,-1.05715507419,-2122.55636774,-0.642774918633,92642.3619618,0.0,1000,1.01663360505,0.000406391776452,1.67209513164,1.16020907382e-05,0.12520059008,0
364,1.43169247075,-1.0577107686,-4484.90559348,-0.858555449652,129355.377957,0.0,1000,1.35347652892,0.00021922466168,1.66745970314,1.1067900642e-05,0.142241685752,0
365,2.77121851954,-2.70038647682,-9965.39777319,-1.87228917809,236637.645566,0.0,1000,1.0261303353,0.000178084084811,1.48002313053,1.17108100569e-05,0.104231108359,0
366,0.813871931457,-0.602398823875,-1458.90612336,-0.611398033042,77732.7061135,0.0,1000,1.35095166079,0.000457864497534,1.33106543965,1.04701350583e-05,0.115996112502,0
367,0.962494140004,-0.698808596054,-1775.29971111,-0.650739867831,71061.1423542,0.0,1000,1.37723586198,0.000442158675506,1.47897664427,1.35445914338e-05,0.125145141251,0
368,1.13331192968,-0.894728968168,-2392.14611306,-0.833792961128,99471.788785,0.0,1000,1.26655389185,0.000373763673335,1.35912463071,1.13932999851e-05,0.146117773964,0
369,0.490003683707,-0.358948482369,-654.81843117,-0.308447396942,45527.5757292,0.0,1000,1.36500866538,0.000648304660318,1.588513451,1.07627888342e-05,0.147620155638,0
370,1.53935972904,-1.18170392464,-4670.19613059,-0.965237304478,134185.51828,0.0,1000,1.30256109551,0.000229613507869,1.59469924977,1.14718767626e-05,0.145309581288,0
371,0.776397550358,-0.557753479892,-1392.87252215,-0.490221555917,63474.855711,0.0,1000,1.39190843805,0.000457407471259,1.58366868783,1.22315764512e-05,0.139186412911,0
372,0.805936079705,-0.595706982366,-1102.05342767,-0.618325438655,57498.3608232,0.0,1000,1.35280688806,0.000631303999853,1.30331730959,1.40166792265e-05,0.110563700272,0
373,2.6431727573,-2.14061923141,-8695.11657949,-1.89800848685,182489.371933,0.0,1000,1.234670163,0.00020398359046,1.39250323419,1.44839818851e-05,0.133363225345,0
374,0.717287027682,-0.58326856794,-954.032478824,-0.432582916807,48155.6664716,0.0,1000,1.22967144168,0.000651847598067,1.65804922369,1.48951739273e-05,0.129686033903,0
375,0.955574845539,-0.947339629332,-1593.42199591,-0.583649430751,77565.5256184,0.0,1000,1.00859299241,0.00049969979578,1.63714111632,1.23195819009e-05,0.116537698295,0
376,2.860493117,-2.28484649615,-11588.1328903,-2.05687678543,250360.03375,0.0,1000,1.25184104804,0.000146846765054,1.39059736081,1.14255181794e-05,0.109557388334,0
377,0.679164645484,-0.593405288202,-914.133844609,-0.427210387625,54714.7645658,0.0,1000,1.14442071626,0.000642959742152,1.58966622563,1.24128222222e-05,0.113867361559,0
378,2.6898832568,-2.63457322141,-8762.25235235,-1.71938304334,193609.506757,0.0,1000,1.02089392605,0.000206985367304,1.5643467748,1.38933428521e-05,0.100099829974,0
379,0.695767332688,-0.567833735627,-1167.32529502,-0.410195440259,62088.6481051,0.0,1000,1.22520115601,0.000496035514397,1.69608495088,1.12060312782e-05,0.117508329565,0
380,0.574602938899,-0.414157044299,-737.790715545,-0.354685632644,41952.6325275,0.0,1000,1.3873035147,0.000678815627241,1.61993443617,1.36964691911e-05,0.114414728827,0
381,0.618448339179,-0.501160876456,-802.040213967,-0.435617312963,54442.4783786,0.0,1000,1.23393156198,0.000671093928221,1.41960560117,1.1359665423e-05,0.137636730472,0
382,2.3218698935,-1.89958177582,-8415.75443375,-1.59565243309,204602.449779,0.0,1000,1.22220583756,0.000175895632622,1.45502258519,1.13482018226e-05,0.112402214513,0
383,1.35252073166,-1.00001317454,-3394.75399016,-0.873177217153,102385.818705,0.0,1000,1.35240291306,0.000298414947175,1.54886475205,1.32100397181e-05,0.127965894884,0
384,1.29407668115,-0.987772237648,-3232.3960929,-0.903098487113,113525.536587,0.0,1000,1.30999622646,0.000300345948936,1.4328297409,1.13989919806e-05,0.123648277456,0
385,2.06645171301,-1.50168670356,-5872.64134206,-1.55619998865,139074.878513,0.0,1000,1.37598710799,0.000251877731441,1.32778313076,1.4858554867e-05,0.101772586793,0
386,2.45636465921,-1.97755220381,-9700.52584955,-1.64251844194,224896.026661,0.0,1000,1.24202380056,0.000153219742651,1.49538680641,1.09222234633e-05,0.131868176,0
387,3.26895702984,-2.52312082378,-12966.0708159,-2.48824614447,247220.189412,0.0,1000,1.29550067003,0.000152116240629,1.31365950772,1.32228562627e-05,0.144227627437,0
388,0.456043645796,-0.340020160188,-440.622723011,-0.312704309827,34999.1229428,0.0,1000,1.34112531306,0.0009349980198,1.45828618613,1.30301449708e-05,0.135864201146,0
389,0.615834973001,-0.557928003839,-867.619848379,-0.391860597139,60512.0554876,0.0,1000,1.10368932186,0.000609798161202,1.57146646394,1.0177062538e-05,0.139055303996,0
390,2.72537482235,-2.34341324278,-10474.8644711,-1.72406279528,217359.997709,0.0,1000,1.16289369339,0.000160182346977,1.58068628564,1.25385298633e-05,0.129812445246,0
391,1.87287566669,-1.49526893465,-5463.26933291,-1.40125385601,157468.895775,0.0,1000,1.25243432562,0.00024281225262,1.33647128482,1.18936229118e-05,0.129007233838,0
392,1.88279815187,-1.56782055741,-5717.86460562,-1.40703622981,173728.074828,0.0,1000,1.20080155915,0.000229283444386,1.33803054133,1.08376159336e-05,0.139006926242,0
393,0.705932593673,-0.594011985393,-888.353279754,-0.430312587335,47263.7167527,0.0,1000,1.18831473073,0.00069465299421,1.64041114109,1.49360363969e-05,0.114018253568,0
394,0.517032643339,-0.43536418899,-485.26644175,-0.392857840992,42419.6274182,0.0,1000,1.18748652277,0.000965461360721,1.31598075337,1.2188523917e-05,0.132809391845,0
395,0.572197292067,-0.567420078307,-578.613203419,-0.427178669762,53311.3363783,0.0,1000,1.0083191835,0.000888911571126,1.33938001754,1.0733126028e-05,0.126687697951,0
396,0.602670722189,-0.517131305552,-621.459001709,-0.455296009465,47706.9198467,0.0,1000,1.16531140658,0.000869767467414,1.32358988452,1.26327736967e-05,0.122554874841,0
397,1.71769478605,-1.6022530327,-5474.78581908,-1.05116139873,170945.078588,0.0,1000,1.07194963947,0.000213746481199,1.63399233647,1.00482260165e-05,0.146874782583,0
398,1.44232739909,-1.4217496795,-2840.80272782,-0.969500162229,104024.381432,0.0,1000,1.01437351801,0.000407718253352,1.48760207091,1.38652821505e-05,0.138948010587,0
399,2.91982192212,-2.68106076754,-9507.36448475,-2.23963929172,217681.11278,0.0,1000,1.08895473441,0.00020711160036,1.30360186526,1.34132993204e-05,0.125358672278,0
400,0.814595405973,-0.794193839995,-1067.49383935,-0.502854549843,58097.9347795,0.0,1000,1.02558839615,0.000663091435234,1.6198423993,1.40210733663e-05,0.125543701236,0
401,0.977103403758,-0.83388480883,-1414.30326106,-0.71651433451,67796.1313537,0.0,1000,1.1716486557,0.000590872623049,1.36358995943,1.44123769933e-05,0.136046879977,0
402,0.876619543813,-0.691108157335,-1498.44683712,-0.601920184402,71441.0957521,0.0,1000,1.26832598298,0.000485018782181,1.45627173587,1.22705220935e-05,0.149124124409,0
403,1.86529137558,-1.70022045733,-5151.2946879,-1.17564510676,140302.559276,0.0,1000,1.09698794971,0.000262101469358,1.58651092949,1.32947779799e-05,0.112347488716,0
404,1.98825446024,-1.57742793261,-6050.68003606,-1.47310185359,164591.893414,0.0,1000,1.26034075874,0.000228600165336,1.34960603383,1.2079905146e-05,0.149155484068,0
405,1.21758370735,-1.15757625875,-2021.37300897,-0.819436160009,81528.0450986,0.0,1000,1.05173887295,0.000502354786546,1.48577988518,1.49345382423e-05,0.13100634452,0
406,0.645949653685,-0.521657061331,-818.065585168,-0.394108525319,45734.5039448,0.0,1000,1.23816494754,0.000689606194658,1.63891466775,1.41239020426e-05,0.134674319614,0
407,0.628453793364,-0.461175454076,-1006.01188864,-0.381624404204,54360.6049958,0.0,1000,1.36262168826,0.00052469817749,1.64668617625,1.15608314774e-05,0.130365102753,0
408,2.73308725137,-2.50284538294,-10750.5466955,-1.86719681479,259659.390633,0.0,1000,1.09189204634,0.000154227745694,1.46363817142,1.05256630415e-05,0.137211689689,0
409,0.462360800075,-0.333302167642,-561.706669707,-0.291032034295,40163.8883051,0.0,1000,1.38711210049,0.00072313567741,1.58859383982,1.15118535477e-05,0.107501445228,0
410,1.70892690932,-1.5162145256,-5671.19579479,-1.01151471636,166959.798093,0.0,1000,1.12700100086,0.000201334492963,1.68937310571,1.02355592714e-05,0.146908284922,0
411,0.595523327399,-0.462267136966,-703.37111291,-0.397018144248,44362.8735189,0.0,1000,1.28816663152,0.000746670152453,1.49989020455,1.3423912388e-05,0.121974229685,0
412,1.54757901918,-1.38539028929,-3834.34198924,-1.01343846335,123593.316355,0.0,1000,1.11697078585,0.000303610064912,1.5269577101,1.25215429509e-05,0.134761301542,0
413,1.09358628761,-1.0678672521,-1675.71918996,-0.737415264405,76270.8290552,0.0,1000,1.02398448753,0.000552607127833,1.48289925483,1.43381985113e-05,0.113683094767,0
414,0.465488896459,-0.335895469006,-531.950015151,-0.343761862555,44009.911603,0.0,1000,1.38571475313,0.000775061346369,1.3540027879,1.05769105073e-05,0.118651546927,0
415,0.724152863898,-0.557535291392,-987.924032881,-0.492264745244,52923.2686146,0.0,1000,1.29874668303,0.000633004603386,1.47096383484,1.36830714137e-05,0.104226524125,0
416,3.24138510938,-3.05820713756,-13847.8394928,-2.23523439776,310629.72247,0.0,1000,1.05979717622,0.000134071539539,1.45003208128,1.04348839628e-05,0.106333767484,0
417,0.769413553396,-0.55239745926,-1053.48706503,-0.570932970763,54097.7535284,0.0,1000,1.39276222356,0.000630349312236,1.34754253038,1.42226525727e-05,0.122719430056,0
418,1.18568083801,-0.962155736528,-2782.6024677,-0.832034978175,111773.68925,0.0,1000,1.23221696595,0.000326105004857,1.42493725098,1.06078706534e-05,0.133019758711,0
419,0.523649621162,-0.443185888203,-594.376222568,-0.324659229064,43005.1842914,0.0,1000,1.18145752496,0.00078100701421,1.6128207929,1.21764301163e-05,0.143398568155,0
420,1.96294608375,-1.94178855384,-6319.03554194,-1.28022013858,196055.927841,0.0,1000,1.01079589794,0.000210640139737,1.53318792807,1.00121741045e-05,0.120363915921,0
421,1.48207079743,-1.4329577879,-2848.66707497,-1.10563074409,109858.451654,0.0,1000,1.03417387041,0.000420268166981,1.34037538507,1.34907308006e-05,0.128198963221,0
422,0.649367746547,-0.491628687667,-859.868016425,-0.413576910543,47106.6511845,0.0,1000,1.32074998869,0.000655194674232,1.57002572509,1.37850543441e-05,0.116023676586,0
423,3.11349985378,-2.5407572879,-12964.4934786,-2.10322503334,251758.725749,0.0,1000,1.22532199076,0.000140155919622,1.48024556666,1.23669987784e-05,0.136529716918,0
424,0.6969840286,-0.593408790788,-990.757885308,-0.514453771545,66655.6066679,0.0,1000,1.17444280999,0.000603485724349,1.35470400213,1.04564951614e-05,0.107632252366,0
425,0.53563571549,-0.531003426467,-608.104522487,-0.335334868621,50878.1859602,0.0,1000,1.00862365185,0.00078082837026,1.59721589409,1.05278068662e-05,0.13950396608,0
426,0.58811132389,-0.459246670467,-812.663456064,-0.41648553937,56755.386857,0.0,1000,1.28050008207,0.000623683733409,1.41198101674,1.03622115267e-05,0.104784437371,0
427,0.586327277285,-0.452182621848,-714.596918914,-0.377179857749,44074.6789933,0.0,1000,1.29656035127,0.000720500707135,1.55440315079,1.33030413534e-05,0.144429641119,0
428,0.806084659766,-0.716301389135,-1160.91591387,-0.564671666332,67040.2315632,0.0,1000,1.12524286823,0.000594352321418,1.42742808017,1.20238943239e-05,0.11593521506,0
429,0.560319094159,-0.442339023857,-648.981229781,-0.37092815243,43820.2618141,0.0,1000,1.26661865682,0.000763382588659,1.51048659335,1.27867582475e-05,0.145386722035,0
430,0.516011069907,-0.49465334273,-496.076689008,-0.370213638271,46824.7215456,0.0,1000,1.04307716132,0.000940184071014,1.39371972073,1.10200563479e-05,0.145227057132,0
431,0.474263969754,-0.36544677501,-508.152985997,-0.358196675741,44703.8955979,0.0,1000,1.29766482428,0.000833309422208,1.32393230369,1.06090076359e-05,0.122065635469,0
432,1.19825995781,-1.01619689941,-2773.55547138,-0.746338289501,101830.448204,0.0,1000,1.17906120242,0.000332030283934,1.60541853585,1.17672069498e-05,0.120706656809,0
433,0.664023421493,-0.541811172813,-903.711699515,-0.441972706207,54764.8789829,0.0,1000,1.22546243727,0.000634773514439,1.50230820794,1.21249865575e-05,0.138763359191,0
434,0.466615026571,-0.380420783496,-470.592529192,-0.293868117317,36863.5644799,0.0,1000,1.22647606213,0.000891547884052,1.58773821407,1.26578922347e-05,0.137204540891,0
435,0.747733738829,-0.662520571543,-858.56195448,-0.546864286205,53805.8118594,0.0,1000,1.12851965491,0.000770914131389,1.36721133792,1.38968953908e-05,0.104380120385,0
436,4.80939460777,-4.80792899814,-22330.1379479,-3.22686434137,372127.539425,0.0,1000,1.0002048318,0.000115376842678,1.49032355023,1.29240491451e-05,0.120588598269,0
437,0.582228081484,-0.454875274983,-612.941488344,-0.387339399578,39145.0524792,0.0,1000,1.27987302449,0.000849891780139,1.50304706461,1.48736058482e-05,0.130921260986,0
438,4.30411417671,-3.49701202458,-20934.3904442,-2.70703109131,309742.481142,0.0,1000,1.23069764853,0.000105600167255,1.58987589297,1.38957825896e-05,0.13960126114,0
439,0.532410562366,-0.484292589933,-491.352803869,-0.334223246092,37161.8008222,0.0,1000,1.09925723452,0.000983560647613,1.59287885049,1.43268235281e-05,0.133514217612,0
440,3.03319273207,-2.19678784649,-13051.1758762,-1.88129245671,217154.98464,0.0,1000,1.38063994578,0.000132407620649,1.61219197579,1.39678706298e-05,0.107962948904,0
441,0.690220935679,-0.622552183793,-895.566810319,-0.415007075506,51756.6870053,0.0,1000,1.10859571041,0.000670708480625,1.66305462173,1.33358793929e-05,0.135330869697,0
442,1.98823427085,-1.43327716216,-7110.85393819,-1.50949934308,195052.933709,0.0,1000,1.387094552,0.000179605556257,1.31704815244,1.01933061607e-05,0.122933357371,0
443,0.705919578908,-0.542439907418,-853.887112141,-0.534865442968,51282.4825693,0.0,1000,1.30127840018,0.000726713003243,1.31970779127,1.3765316021e-05,0.111618841236,0
444,0.402869915156,-0.303726277232,-383.995510193,-0.307035195853,38748.1165545,0.0,1000,1.3263243016,0.000949152670961,1.31202942554,1.03971483256e-05,0.127132066224,0
445,0.928474739051,-0.745270599846,-1678.30468179,-0.577398408019,70498.5911446,0.0,1000,1.24572230836,0.000453221801216,1.6079313457,1.31701176431e-05,0.143189415307,0
446,1.42058432228,-1.19158341396,-3687.30412091,-0.894343263165,118492.792325,0.0,1000,1.1920820207,0.000285263671154,1.58831060339,1.19887825614e-05,0.123475738703,0
447,2.4993692386,-2.17032624216,-8566.06766012,-1.62791405788,188776.685689,0.0,1000,1.15150992391,0.000191775565845,1.5352201396,1.32398194697e-05,0.133422155684,0
448,0.753642653625,-0.701332203723,-805.247515976,-0.534084849891,50500.1329781,0.0,1000,1.07448726353,0.000835914285574,1.41099161546,1.49235776063e-05,0.132371942458,0
449,0.697914971711,-0.660007602419,-793.517631257,-0.423366831228,47106.4771014,0.0,1000,1.05733474644,0.000779520434354,1.64838760043,1.48156902119e-05,0.12032777783,0
450,1.35026985186,-1.00949882309,-3602.34600624,-1.0261282638,132326.413104,0.0,1000,1.33746456271,0.000274830693533,1.31578798349,1.02040841295e-05,0.109484092781,0
451,0.518111333961,-0.506724875926,-479.357998358,-0.361438200864,44525.9087167,0.0,1000,1.02237069085,0.000980844245295,1.43337142809,1.16361765294e-05,0.147395554017,0
452,2.65319401851,-2.48758969594,-9709.93912537,-1.86585229657,243617.274466,0.0,1000,1.06647220154,0.000173245175305,1.42187430278,1.08908287572e-05,0.141349562028,0
453,4.9480032671,-3.75589851255,-23480.3711807,-3.79628119085,336663.314012,0.0,1000,1.31729535841,0.000110729346186,1.30328165651,1.46971857674e-05,0.110694694726,0
454,0.50148387993,-0.423424552083,-499.682974147,-0.358939650398,42810.7717837,0.0,1000,1.18425238926,0.000903604096751,1.39702589393,1.17139649447e-05,0.131133786182,0
455,0.787468504563,-0.65462166514,-993.19938924,-0.587113038536,57259.6129557,0.0,1000,1.2028368206,0.000692860439802,1.34115535097,1.37525991517e-05,0.117444385382,0
456,0.962031288338,-0.754716676962,-1492.58457651,-0.696430948475,66757.316935,0.0,1000,1.27459197078,0.000544540552996,1.38127354528,1.4410874081e-05,0.115544519739,0
457,0.401823511278,-0.336397932457,-392.744250769,-0.270153202529,39028.4500173,0.0,1000,1.19438864725,0.000923117488012,1.48729125621,1.02956564019e-05,0.137386288265,0
458,2.37340498722,-1.8787842285,-9544.65693103,-1.59519660505,229080.157548,0.0,1000,1.2631663992,0.000148663205432,1.48774480841,1.0360587371e-05,0.140135510333,0
459,1.07436405467,-0.952069154374,-1813.06278015,-0.800631815883,85818.8149041,0.0,1000,1.12835169884,0.000492568589698,1.34179527989,1.25189803176e-05,0.126744335758,0
460,1.43251891195,-1.02453987518,-3575.97064487,-1.08569169173,115423.877284,0.0,1000,1.39810708463,0.000300595825361,1.31935277178,1.24109408353e-05,0.112451114786,0
461,0.711509643581,-0.689492421642,-923.705515677,-0.45673499425,59405.609383,0.0,1000,1.03183250752,0.000670277573865,1.55771722998,1.19771457775e-05,0.131122845288,0
462,0.934474819627,-0.846033287485,-1492.37358259,-0.621620766851,73266.0008732,0.0,1000,1.10443670494,0.00052616681944,1.50318764651,1.27545492928e-05,0.115381190945,0
463,0.852716626396,-0.797343336467,-1325.56210922,-0.568111999764,73399.0139198,0.0,1000,1.06934723483,0.000543286814299,1.50086570175,1.16175488042e-05,0.112714761093,0
464,0.924775965064,-0.755778928969,-1786.57386367,-0.640404140418,86743.0141963,0.0,1000,1.22350644047,0.000417625374393,1.44395057166,1.06611001892e-05,0.130782847729,0
465,0.627490877475,-0.462539951177,-840.161011941,-0.411817022691,47869.8795784,0.0,1000,1.3565198463,0.000646869788715,1.52361282123,1.31082610402e-05,0.148675921577,0
466,0.635048344285,-0.539167477011,-937.339996786,-0.415087247032,61509.5217845,0.0,1000,1.17773132582,0.00057750052965,1.52981533425,1.03243908563e-05,0.144436324855,0
467,1.05205627532,-1.00976686712,-1506.99581897,-0.740053939916,72256.0337761,0.0,1000,1.0417803682,0.000598114926447,1.42149404683,1.4560116579e-05,0.146631797138,0
468,0.429528456373,-0.372407222914,-463.626292609,-0.264966064563,41423.8229987,0.0,1000,1.15328379586,0.00082645404978,1.62096969087,1.03691167372e-05,0.122521384534,0
469,1.9070770355,-1.78082917771,-5359.27900824,-1.27611626448,156331.789414,0.0,1000,1.07079273883,0.000255845820412,1.49433831145,1.21989074816e-05,0.119721976281,0
470,1.03705105771,-0.875973384806,-1982.61813075,-0.636884244671,78483.9207653,0.0,1000,1.18378420893,0.000423071509146,1.62821953591,1.3213548044e-05,0.121019624255,0
471,0.816445087798,-0.635723241772,-1260.57362564,-0.596544570719,66493.2722711,0.0,1000,1.28417755059,0.000547677431281,1.36852378416,1.22786119544e-05,0.119362680625,0
472,0.673476753829,-0.612224994573,-876.624162674,-0.47060157173,60844.6578602,0.0,1000,1.09994779256,0.00066826168215,1.43099754468,1.10687902195e-05,0.129132174549,0
473,0.603253032416,-0.505189924849,-773.402086478,-0.454238361355,59358.1133076,0.0,1000,1.19401136831,0.000679999230624,1.3279539112,1.01629414885e-05,0.130885165692,0
474,1.29629880043,-0.962763485051,-2726.46992144,-0.911779143238,89061.5515947,0.0,1000,1.34633536088,0.000375449514495,1.42162455911,1.45550888933e-05,0.128449207539,0
475,0.460589739092,-0.34971775817,-484.180545399,-0.328866329193,40764.4626569,0.0,1000,1.31693274522,0.000851276839744,1.4004378423,1.12988056035e-05,0.136391090531,0
476,0.663607173939,-0.641946355168,-739.918065096,-0.439683104065,51485.1485321,0.0,1000,1.03364241259,0.000796865754796,1.50918513696,1.28892931818e-05,0.141887372172,0
477,4.57694195962,-4.25814294859,-21304.7331817,-3.31272862422,375356.160522,0.0,1000,1.07476808566,0.000114832165256,1.38152296971,1.21935975508e-05,0.130257316893,0
478,0.490915250901,-0.378551118089,-589.133559864,-0.30022462761,41164.7929772,0.0,1000,1.29672684172,0.000733283459552,1.63505982952,1.19256096144e-05,0.143371955993,0
479,1.30736911673,-1.20630939215,-2626.40738707,-0.793568167914,90126.31508,0.0,1000,1.08367595767,0.000397778495129,1.6473566012,1.45059643853e-05,0.122901295554,0
480,0.885196373777,-0.802242287297,-1476.68343301,-0.567967661389,74525.6856979,0.0,1000,1.10330278466,0.000499448977344,1.55843305382,1.18777353806e-05,0.145800192202,0
481,0.948088074911,-0.781266613927,-1845.06829425,-0.636543859414,85572.1308068,0.0,1000,1.21342692923,0.000413849854699,1.48933087093,1.10794024406e-05,0.117922764028,0
482,0.908706016557,-0.670639152538,-1372.65632235,-0.673660820321,62314.2045695,0.0,1000,1.35488503647,0.00056200548656,1.34880732717,1.45826464902e-05,0.111322917586,0
483,0.576762865817,-0.483215156579,-709.810533196,-0.434655457495,56717.806315,0.0,1000,1.19349431915,0.000712558899655,1.32684265279,1.01689910681e-05,0.12723763472,0
484,0.945394724275,-0.700917284221,-1642.93145273,-0.691269996257,72986.7434733,0.0,1000,1.34869642086,0.000475431630275,1.36752007522,1.29529648712e-05,0.147329261823,0
485,0.959635586524,-0.953827028028,-1272.34942605,-0.692382019282,70166.7215843,0.0,1000,1.00598973989,0.000654223302874,1.38589148995,1.36765059683e-05,0.132832305594,0
486,0.54200499078,-0.402644012373,-600.322154329,-0.335490081178,36660.2433136,0.0,1000,1.34601461769,0.000802856885875,1.61546189344,1.47845442853e-05,0.108674667166,0
487,0.682769973102,-0.509516789897,-851.998352105,-0.486217806881,48499.1038421,0.0,1000,1.33993429649,0.000701374757845,1.40414715722,1.407799153e-05,0.118787223829,0
488,1.38791254611,-1.30844031397,-2547.92096795,-0.959246892955,93782.3099564,0.0,1000,1.0606381409,0.000444723546597,1.44677729124,1.47993000679e-05,0.117902278396,0
489,3.94576589209,-3.38533845554,-17535.534887,-2.4459253228,272309.758533,0.0,1000,1.16544546729,0.000125015428245,1.61309965712,1.4489990786e-05,0.100062578791,0
490,1.10381703984,-0.79107832925,-2108.62684873,-0.809466985947,79439.7487645,0.0,1000,1.39523216753,0.000423476707365,1.36353441499,1.3895021787e-05,0.104898582379,0
491,0.512225751314,-0.371860843011,-562.967744107,-0.310389920319,34768.7743086,0.0,1000,1.3773662241,0.000809866962495,1.65016541709,1.47323499749e-05,0.109405474345,0
492,0.574975286762,-0.494886096601,-548.593170885,-0.429101204198,43367.7215338,0.0,1000,1.16173358294,0.000948090492696,1.33985262921,1.32581391511e-05,0.121135867479,0
493,3.23421314121,-2.47076440468,-15074.0070038,-1.91859194906,253220.661887,0.0,1000,1.30889293154,0.000114555634769,1.68562225209,1.2772311379e-05,0.141659884151,0
494,0.56108415746,-0.438582256205,-761.507567792,-0.347356575301,48641.1130922,0.0,1000,1.27921340022,0.000636807066917,1.61519735539,1.15351833416e-05,0.141427050599,0
495,0.610815844535,-0.568139420841,-596.112981859,-0.435812160686,45941.0405782,0.0,1000,1.07501611081,0.000924664557096,1.40145759668,1.32956466995e-05,0.111189331179,0
496,2.1726098101,-1.69614620431,-6412.8115963,-1.62729896672,156744.981357,0.0,1000,1.28080951393,0.000238792084793,1.33500181875,1.38607934448e-05,0.135560769294,0
497,0.831022662329,-0.657721150186,-1347.61366921,-0.55071794224,64980.2805668,0.0,1000,1.26338782017,0.000516662387236,1.50888054809,1.27888438628e-05,0.141775823758,0
498,0.769279323444,-0.604470370501,-1183.3460488,-0.501403266757,59594.2176658,0.0,1000,1.27255017607,0.000550088217411,1.53415271522,1.29086235809e-05,0.142536035104,0
499,0.916732206629,-0.797376098597,-1561.2105479,-0.63800753223,79533.6302644,0.0,1000,1.14958608695,0.000487193193039,1.43676737275,1.15263468244e-05,0.102835818236,0
500,1.00881041887,-0.794995225009,-1778.42422397,-0.749448155437,80201.8765195,0.0,1000,1.26885154479,0.000467249593923,1.34597098777,1.25783892179e-05,0.12905712434,0
501,0.647063399726,-0.609959655706,-630.632654933,-0.451786626147,45494.150318,0.0,1000,1.06072983305,0.00092605438311,1.43213230233,1.42230021927e-05,0.14397123566,0
502,0.563379744629,-0.41258647728,-543.152899715,-0.425891616177,37809.9031305,0.0,1000,1.36538281549,0.000937239688723,1.32272421919,1.4900322349e-05,0.14219626574,0
503,1.15382828689,-1.04804564097,-2228.60973177,-0.71928388276,86764.935616,0.0,1000,1.10083324354,0.000417734563591,1.60403477147,1.32983247057e-05,0.143641280391,0
504,0.760740509902,-0.707661258309,-997.220471966,-0.484856597303,57252.0832912,0.0,1000,1.07490658114,0.000662860903168,1.56890104924,1.32875603152e-05,0.130500877118,0
505,0.886462839551,-0.794746796733,-1363.68493945,-0.590095067854,69450.5479495,0.0,1000,1.11530284679,0.000550049592766,1.50213733063,1.27639430605e-05,0.141119423879,0
506,1.40070707175,-1.12153526336,-2761.15845253,-1.0419601051,93608.0238449,0.0,1000,1.24881933184,0.000407289637968,1.34420009834,1.49635363959e-05,0.123521040657,0
507,1.12125651669,-0.823182419778,-2437.74962025,-0.752267523121,87589.1957507,0.0,1000,1.36199968744,0.000359955570243,1.49040235751,1.28013107905e-05,0.127275133832,0
508,1.3042510553,-0.971361875663,-3371.63893826,-0.876593502861,111705.321013,0.0,1000,1.342603567,0.000286829989564,1.48776301866,1.16758185149e-05,0.109326767457,0
509,1.68384574782,-1.28221934757,-4471.21914198,-1.2128767276,126932.237181,0.0,1000,1.31312753085,0.000276596559987,1.38820740957,1.32657060586e-05,0.12541712734,0
510,0.530220092309,-0.463615938692,-553.971175925,-0.336200055895,41404.2297095,0.0,1000,1.14356234648,0.00085712577721,1.57699697846,1.28059402633e-05,0.108128449234,0
511,0.829621366135,-0.781540397971,-1255.135849,-0.500457097007,64842.1049648,0.0,1000,1.0614207714,0.000560981332653,1.65762724795,1.27944854132e-05,0.147581141285,0
512,3.94040338607,-3.02631671515,-19049.2449575,-2.34879401215,274238.435381,0.0,1000,1.301945938,0.000106853520696,1.67752833423,1.43685307298e-05,0.127412067226,0
513,1.19189099191,-0.994063125328,-2903.20966928,-0.705239732672,101718.15947,0.0,1000,1.19890936021,0.000310542512488,1.68995082483,1.17175831544e-05,0.106267412554,0
514,0.596637140895,-0.451451305938,-705.5318782,-0.456196735611,49664.9666561,0.0,1000,1.32149799528,0.000745655822692,1.30775052658,1.20132395341e-05,0.100893897175,0
515,1.65401013775,-1.34318036242,-4214.59812484,-1.0657547451,114527.560809,0.0,1000,1.23131328151,0.000292447889161,1.55186131695,1.44420271075e-05,0.112513374997,0
516,0.487948666678,-0.409078893157,-462.635312801,-0.334308429493,38510.4208752,0.0,1000,1.19269844265,0.000954715567916,1.45947631825,1.26705617749e-05,0.103340139814,0
517,0.498613236122,-0.416446793972,-557.638572516,-0.305774287058,41283.1215418,0.0,1000,1.19720357716,0.000794151266961,1.63055783234,1.20778956993e-05,0.133762382932,0
518,0.740454640008,-0.600104646987,-1338.57478749,-0.47648451564,73665.5187942,0.0,1000,1.23377586436,0.000453166432633,1.55389517865,1.00515770761e-05,0.102281072139,0
519,3.2080898154,-2.43515167397,-14825.8226518,-2.10850059465,274378.533063,0.0,1000,1.31730862374,0.000116385282001,1.52140292181,1.16922041225e-05,0.128363412269,0
520,2.58037399138,-2.12126664572,-10707.5255581,-1.52919383977,221184.644486,0.0,1000,1.21633075687,0.00014098695608,1.68730804748,1.16661533959e-05,0.108952978223,0
521,0.727384357571,-0.720593894549,-1064.00488817,-0.434971886709,64973.4799223,0.0,1000,1.00932342569,0.000583628774324,1.67215602343,1.11950961906e-05,0.110710050339,0
522,0.602724898818,-0.458123471346,-824.356604973,-0.380172914569,48622.3682654,0.0,1000,1.31553854838,0.000631145835651,1.58529673849,1.23960415817e-05,0.108631299507,0
523,1.75045318413,-1.63560016669,-4768.70377901,-1.03979242361,133027.768956,0.0,1000,1.07012071762,0.00026707106695,1.68336406877,1.3158554773e-05,0.125093534466,0
524,1.51389366617,-1.40257614525,-3368.34421314,-0.965472435277,108228.499155,0.0,1000,1.0792664724,0.000349447434814,1.56793406379,1.39879392025e-05,0.132796231245,0
525,0.855989426127,-0.803178318001,-1281.02381738,-0.516077268821,63727.9622819,0.0,1000,1.06565265659,0.000568207268683,1.65854586146,1.3431928395e-05,0.145693724854,0
526,1.33108819718,-1.29289218465,-2466.55688281,-0.848756987162,90171.7435783,0.0,1000,1.02944307635,0.000439654368586,1.56817951617,1.47616996673e-05,0.138112734948,0
527,0.719200866935,-0.670994982651,-843.552333174,-0.537417519363,59296.2911731,0.0,1000,1.07174239157,0.000752585949503,1.33815348267,1.21289350937e-05,0.132268795994,0
528,2.05770283092,-1.92952864554,-6933.69748562,-1.2367179235,183336.044733,0.0,1000,1.06632771834,0.000196768475289,1.66374168275,1.12236676313e-05,0.104439535517,0
529,0.559849862363,-0.538919626473,-565.214531807,-0.393947299204,48689.262243,0.0,1000,1.03873739775,0.000890508613735,1.42102882483,1.14984256604e-05,0.120611066742,0
530,1.90202110196,-1.66579046095,-5204.07461497,-1.23614887146,137234.601518,0.0,1000,1.14171293899,0.000265486900685,1.53856669774,1.38596321986e-05,0.105920470504,0
531,0.504152166997,-0.496470301875,-490.245475143,-0.311118406789,41901.1219883,0.0,1000,1.01537296,0.00092836679288,1.62035110799,1.20319491e-05,0.118355980856,0
532,0.523037360233,-0.382809169411,-759.408761085,-0.307669396782,46807.2219579,0.0,1000,1.36621356307,0.000588742857649,1.69989800339,1.11742876068e-05,0.131328738598,0
533,1.12711764071,-1.06803612502,-1703.14121901,-0.855595746716,81959.2656826,0.0,1000,1.05521790012,0.000561787541825,1.31724834475,1.37521686087e-05,0.124212789551,0
534,2.06635107063,-1.86267838581,-6090.94605102,-1.2511756163,146030.008942,0.0,1000,1.10924398894,0.000239249609719,1.65142760628,1.41501810868e-05,0.121128036415,0
535,0.603747207104,-0.455674211066,-615.093161747,-0.449122427015,40766.6496344,0.0,1000,1.32485364548,0.000881554087496,1.34418202821,1.48098313822e-05,0.108731945796,0
536,0.635597162131,-0.615596877114,-618.323370603,-0.451595549887,47469.7343383,0.0,1000,1.03238925678,0.000927936501108,1.40734779768,1.33895243146e-05,0.131245704778,0
537,2.1429555795,-2.00824173197,-5932.16154052,-1.42582078476,152777.166349,0.0,1000,1.06698049404,0.000261243631831,1.50286278635,1.40266744744e-05,0.124884447983,0
538,0.436981203673,-0.333606705603,-511.870194411,-0.277944537003,41239.3984143,0.0,1000,1.30976936514,0.000753695347853,1.57208849625,1.05962070369e-05,0.143626668823,0
539,2.00448307526,-1.92736813658,-6574.28434129,-1.20330915734,180321.780496,0.0,1000,1.03991048747,0.00020489753275,1.66570887632,1.11161450921e-05,0.138553166182,0
540,0.922629139901,-0.8568319283,-1211.01965615,-0.686866771493,66865.0843469,0.0,1000,1.07669126959,0.00066186140763,1.34314322881,1.37983694915e-05,0.123101451014,0
541,2.1936186847,-1.72691251053,-7816.18910633,-1.46057233051,185726.829384,0.0,1000,1.27015467203,0.000180650666822,1.50178979955,1.18109951695e-05,0.131934893401,0
542,0.826568756886,-0.737900767402,-1381.24429086,-0.531367674753,73702.7102077,0.0,1000,1.12006248445,0.000498423292936,1.55544956796,1.12149031502e-05,0.142119360197,0
543,1.61691001842,-1.26556774123,-3923.33803491,-1.21823494116,120937.599267,0.0,1000,1.27751633435,0.000312126103851,1.32715631467,1.33697876278e-05,0.143432647578,0
544,0.611457378504,-0.527772089871,-933.066355359,-0.362214866446,58935.8978571,0.0,1000,1.15846330837,0.000555320358506,1.68800679833,1.03749565331e-05,0.103346100375,0
545,0.423492406172,-0.352933301876,-452.881951326,-0.263198229799,39699.6029141,0.0,1000,1.1998219227,0.00083510550582,1.60892452306,1.06674217142e-05,0.115860535599,0
546,0.430418873498,-0.361619350903,-435.754007729,-0.267338222262,37625.2730436,0.0,1000,1.19015398509,0.000887756545812,1.60991621787,1.1439621262e-05,0.139266750578,0
547,0.493281709775,-0.397566706429,-498.834406095,-0.364398906599,42875.2352673,0.0,1000,1.24065205946,0.000888868658111,1.35358603155,1.15050496329e-05,0.100945585739,0
548,1.689188324,-1.28217249321,-4948.33016754,-1.032633973,123055.58768,0.0,1000,1.31734233552,0.000241365322605,1.63570549174,1.37270347154e-05,0.121588021542,0
549,0.608105737256,-0.526781598099,-740.316246186,-0.391871031762,49530.9766076,0.0,1000,1.15427923315,0.000721413470781,1.55170068943,1.22772813884e-05,0.100106890997,0
550,2.75887367268,-2.06291972491,-10500.7579037,-1.84271323533,196448.112463,0.0,1000,1.33726356261,0.000162730909328,1.49708014707,1.4043777963e-05,0.10850660802,0
551,1.50698565922,-1.19713824829,-4523.13427798,-0.914038063868,132267.497322,0.0,1000,1.25872341608,0.000233172876729,1.64861214755,1.13934692175e-05,0.111831637921,0
552,0.491194510171,-0.379484729167,-508.341591222,-0.294488431832,34224.9274217,0.0,1000,1.2942722696,0.000866268585245,1.66785859218,1.43519518426e-05,0.124256503594,0
553,0.609932710526,-0.477417867306,-735.677374119,-0.45170640631,50893.7195586,0.0,1000,1.27746573915,0.000729076347844,1.350185721,1.19844396483e-05,0.127679620496,0
554,0.522653883483,-0.452427525188,-608.608162101,-0.363833564687,50834.8543986,0.0,1000,1.15512123299,0.000758769099775,1.43641915109,1.02814080942e-05,0.107394132322,0
555,0.803128363321,-0.732553176279,-951.994774388,-0.562171859576,54958.2950693,0.0,1000,1.09624138425,0.000743626861121,1.4285171562,1.4613414814e-05,0.137083273041,0
556,1.00124570505,-0.948405572614,-1499.6595538,-0.663250556352,70755.5721346,0.0,1000,1.05561470051,0.000567648669003,1.50950401837,1.41507682695e-05,0.104876637925,0
557,0.511610290657,-0.432282559388,-540.534013192,-0.315516649895,39403.3219415,0.0,1000,1.18340897936,0.00084649046715,1.62140013582,1.29839380399e-05,0.11804723409,0
558,0.663662722024,-0.510326969413,-818.416216879,-0.487487489397,50856.5831611,0.0,1000,1.30036570494,0.000710911011215,1.36129436695,1.30496915202e-05,0.147182821121,0
559,0.368884080761,-0.299800818673,-347.765966541,-0.237721767933,34895.2306181,0.0,1000,1.23033053183,0.000960725074482,1.55164717052,1.05711890773e-05,0.109318194809,0
560,0.73859105657,-0.600554512545,-1059.62246434,-0.538725027051,63585.8754008,0.0,1000,1.2297484836,0.000597032274632,1.37089822634,1.16156465868e-05,0.12528200114,0
561,2.68148117973,-2.17252348227,-11374.2430946,-1.65634303588,235975.253697,0.0,1000,1.23417028597,0.0001357502963,1.61881656598,1.13633999232e-05,0.122332641301,0
562,0.574108483384,-0.541442754407,-567.479422373,-0.382063047119,44066.2714775,0.0,1000,1.06023090056,0.000911681588353,1.50255378375,1.30282972472e-05,0.137941914695,0
563,0.413021280479,-0.324273349087,-403.221589414,-0.261228078444,34388.4978372,0.0,1000,1.27358247079,0.000924303488013,1.58097536884,1.2010448448e-05,0.141457587845,0
564,0.819622057094,-0.659935753761,-1251.71263016,-0.606145092787,68700.7052205,0.0,1000,1.24187249872,0.000554800500808,1.35208789502,1.19303296009e-05,0.111347729215,0
565,0.533503811436,-0.38137474539,-556.365582781,-0.356706338669,35618.9201837,0.0,1000,1.39879653913,0.000858908724673,1.49553871903,1.49781017696e-05,0.113100839044,0
566,0.991105541004,-0.80077306346,-2127.05288764,-0.637198236684,90857.8635117,0.0,1000,1.23758591406,0.000365952467268,1.55531161909,1.09083077974e-05,0.11298281745,0
567,2.59886791459,-2.24241468144,-8915.407408,-1.77094431367,196527.759698,0.0,1000,1.158859552,0.000191502989786,1.46740402852,1.32239227607e-05,0.106189183817,0
568,0.4846642918,-0.391284474982,-465.57596087,-0.323553574164,36661.6037822,0.0,1000,1.23854942973,0.00094099939115,1.49784139364,1.32199424411e-05,0.117048973335,0
569,0.462024567336,-0.39724512451,-478.449744045,-0.310075625424,42666.8085464,0.0,1000,1.16297171272,0.000865670006278,1.48993833082,1.08286647883e-05,0.131339363583,0
570,0.883352973638,-0.845607924077,-1428.97056201,-0.521610964488,69826.2106418,0.0,1000,1.0445365845,0.000518174367703,1.69340921237,1.26507362424e-05,0.119048539055,0
571,0.883741977127,-0.66595889851,-1237.02479016,-0.677689397955,60202.6206755,0.0,1000,1.32692180135,0.000614409269854,1.30395164931,1.46794602496e-05,0.149173916833,0
572,0.954691967957,-0.899531847796,-1631.56112908,-0.703141267215,91562.6250319,0.0,1000,1.06122091965,0.000485140177061,1.35765271979,1.04266557192e-05,0.118512647137,0
573,1.08262476979,-0.911607930247,-2079.32102068,-0.773545730777,91548.620425,0.0,1000,1.18749911346,0.000420662638919,1.39946143083,1.1825680876e-05,0.125388266829,0
574,1.53206600384,-1.10855046221,-4418.23978833,-1.08907181418,133421.454299,0.0,1000,1.38194444098,0.000246759360569,1.40666306548,1.14829058932e-05,0.125778599785,0
575,0.576150970376,-0.467592657432,-605.583638715,-0.368808829586,39057.7186396,0.0,1000,1.23206428064,0.000851397847534,1.56209408039,1.47512704388e-05,0.141169758952,0
576,1.45625244518,-1.43250056411,-3562.90998736,-0.904952336624,126743.076721,0.0,1000,1.01648071324,0.000308725578348,1.60910347542,1.14897987556e-05,0.136819435636,0
577,0.479075705127,-0.349827761697,-544.606996536,-0.307099755014,38428.4487287,0.0,1000,1.36936165394,0.000779672329174,1.55990028429,1.24666938421e-05,0.114629333729,0
578,0.538601217959,-0.52419551787,-501.793882316,-0.357440592293,42476.0256711,0.0,1000,1.02738153999,0.000973351503357,1.50672723107,1.26801227151e-05,0.105095138773,0
579,0.487841217883,-0.379482955513,-611.410927687,-0.329970908113,48257.4650416,0.0,1000,1.28544184265,0.000697894175246,1.47833705578,1.01091347725e-05,0.101712163667,0
580,0.625340476407,-0.587729709348,-771.489290531,-0.461735681588,62515.603748,0.0,1000,1.06389330587,0.00071056274414,1.35422564851,1.00029502863e-05,0.149535715391,0
581,2.17497359702,-1.68699931793,-7449.43622769,-1.59615758426,189804.49544,0.0,1000,1.28915576549,0.00019196485889,1.36253086958,1.1459020462e-05,0.142495178601,0
582,2.10737049451,-1.88713875823,-6390.64206289,-1.48300837123,175567.009369,0.0,1000,1.11660140064,0.00022975880573,1.42091051848,1.20032260165e-05,0.126168588545,0
583,0.398784360652,-0.28983218501,-413.752571984,-0.294468785664,39767.5051584,0.0,1000,1.37581468883,0.000863823279065,1.35415002603,1.0027894862e-05,0.106079087785,0
584,0.799707481452,-0.668759648492,-1242.38628868,-0.500022719926,61559.0986626,0.0,1000,1.19570701864,0.000543686660694,1.59924228903,1.29908900362e-05,0.12472908572,0
585,1.8042172999,-1.45881915734,-5361.10982574,-1.18025834383,143134.192244,0.0,1000,1.23666556537,0.000236538022638,1.52856303325,1.26050755002e-05,0.114034105823,0
586,1.93693780823,-1.54723394851,-7236.4270691,-1.17938414322,185685.834717,0.0,1000,1.25177132178,0.000167664938751,1.64222987137,1.04312631665e-05,0.111231769318,0
587,0.590262638974,-0.479801746621,-733.165591396,-0.365207229004,45657.2318526,0.0,1000,1.23012194715,0.000705087753573,1.61614029345,1.29281302222e-05,0.133740116735,0
588,2.09630332565,-1.90304623635,-5939.80078899,-1.54231380673,169033.851445,0.0,1000,1.1014514419,0.0002529248539,1.35909377529,1.24016775795e-05,0.129275034062,0
589,0.78814658247,-0.575688568355,-1280.03097366,-0.504140876575,57989.2029525,0.0,1000,1.36895025702,0.000515724618146,1.56324591995,1.35912642758e-05,0.12200661459,0
590,0.568013476885,-0.51362725443,-709.418138433,-0.357352588601,51970.5802657,0.0,1000,1.10578655876,0.000700675153499,1.58940430192,1.0929519624e-05,0.117346126014,0
591,1.09304860357,-0.785540420085,-2120.20569232,-0.82777979624,83837.1984291,0.0,1000,1.3913606755,0.000415538943946,1.32035818047,1.30377520248e-05,0.124132899533,0
592,1.21928720092,-1.21696492718,-2316.70953028,-0.848476570923,104290.029766,0.0,1000,1.00180825034,0.000426301284207,1.43693107747,1.16913112754e-05,0.136251102766,0
593,0.513097270966,-0.508494117261,-483.514857011,-0.353136168086,45423.0188038,0.0,1000,1.00895252106,0.000961182016492,1.45287286808,1.12959746948e-05,0.122082368401,0
594,1.14444988679,-1.092488323,-2049.83913949,-0.729790352556,85017.6733532,0.0,1000,1.04746258048,0.00045831204739,1.56808993671,1.34613174138e-05,0.116202191171,0
